(G-CODE GENERATED BY FLATCAM v8.991 - www.flatcam.org - Version Date: 2019/12/27)

(Name: Achizitie_Semnale - CADCAM Bottom Copper.GBR_iso_cnc)
(Type: G-code from Geometry)
(Units: MM)

(Created on Friday, 26 February 2021 at 20:32)

(TOOL DIAMETER: 0.25 mm)
(Feedrate: 180.0 mm/min)
(Feedrate_Z: 80.0 mm/min)
(Feedrate rapids 79.9998 mm/min)

(Z_Cut: -0.01 mm)
(Z_Move: 0.8 mm)
(Z Toolchange: 12.7 mm)
(X,Y Toolchange: 0.0000, 0.0000 mm)
(Z Start: None mm)
(Z End: 5.0 mm)
(Steps per circle: 128)
(Preprocessor Geometry: default)

(X range:    0.7093 ...   67.3723  mm)
(Y range:    0.3861 ...   34.4691  mm)

(Spindle Speed: None RPM)
G21
G90
G94




G01 F180.00
G00 Z0.8000

M03
G00 Z0.8000
G00 X45.0420 Y15.6985
G01 F80.00
G01 Z-0.0100
G01 F180.00
G01 X45.4895 Y16.1460
G01 X45.4895 Y16.7788
G01 X45.0420 Y17.2263
G01 X44.4092 Y17.2263
G01 X43.9617 Y16.7788
G01 X43.9617 Y16.1460
G01 X44.4092 Y15.6985
G01 X45.0420 Y15.6985
G00 Z0.8000
G00 X43.9667 Y16.4220
G01 F80.00
G01 Z-0.0100
G01 F180.00
G01 X43.9696 Y16.3849
G01 X43.9743 Y16.3479
G01 X43.9808 Y16.3111
G01 X43.9892 Y16.2748
G01 X43.9993 Y16.2389
G01 X44.0111 Y16.2035
G01 X44.0247 Y16.1687
G01 X44.0399 Y16.1347
G01 X44.0568 Y16.1015
G01 X44.0753 Y16.0691
G01 X44.0954 Y16.0376
G01 X44.1170 Y16.0072
G01 X44.1401 Y15.9779
G01 X44.1646 Y15.9498
G01 X44.1904 Y15.9229
G01 X44.2175 Y15.8972
G01 X44.2459 Y15.8730
G01 X44.2754 Y15.8502
G01 X44.3059 Y15.8288
G01 X44.3375 Y15.8090
G01 X44.3701 Y15.7907
G01 X44.4034 Y15.7741
G01 X44.4376 Y15.7591
G01 X44.4725 Y15.7458
G01 X44.5079 Y15.7343
G01 X44.5439 Y15.7245
G01 X44.5803 Y15.7164
G01 X44.6171 Y15.7102
G01 X44.6542 Y15.7058
G01 X44.6914 Y15.7032
G01 X44.7287 Y15.7024
G01 X44.7660 Y15.7035
G01 X44.8031 Y15.7064
G01 X44.8401 Y15.7111
G01 X44.8769 Y15.7176
G01 X44.9132 Y15.7260
G01 X44.9491 Y15.7361
G01 X44.9845 Y15.7479
G01 X45.0193 Y15.7615
G01 X45.0533 Y15.7767
G01 X45.0865 Y15.7936
G01 X45.1189 Y15.8121
G01 X45.1504 Y15.8322
G01 X45.1808 Y15.8538
G01 X45.2101 Y15.8769
G01 X45.2382 Y15.9014
G01 X45.2651 Y15.9272
G01 X45.2908 Y15.9543
G01 X45.3150 Y15.9827
G01 X45.3378 Y16.0122
G01 X45.3592 Y16.0427
G01 X45.3790 Y16.0743
G01 X45.3973 Y16.1069
G01 X45.4139 Y16.1402
G01 X45.4289 Y16.1744
G01 X45.4422 Y16.2093
G01 X45.4537 Y16.2447
G01 X45.4635 Y16.2807
G01 X45.4716 Y16.3171
G01 X45.4778 Y16.3539
G01 X45.4822 Y16.3910
G01 X45.4848 Y16.4282
G01 X45.4856 Y16.4655
G01 X45.4845 Y16.5028
G01 X45.4816 Y16.5399
G01 X45.4769 Y16.5769
G01 X45.4704 Y16.6137
G01 X45.4620 Y16.6500
G01 X45.4519 Y16.6859
G01 X45.4401 Y16.7213
G01 X45.4265 Y16.7561
G01 X45.4113 Y16.7901
G01 X45.3944 Y16.8233
G01 X45.3759 Y16.8557
G01 X45.3558 Y16.8872
G01 X45.3342 Y16.9176
G01 X45.3111 Y16.9469
G01 X45.2866 Y16.9750
G01 X45.2608 Y17.0019
G01 X45.2337 Y17.0276
G01 X45.2053 Y17.0518
G01 X45.1758 Y17.0746
G01 X45.1453 Y17.0960
G01 X45.1137 Y17.1158
G01 X45.0811 Y17.1341
G01 X45.0478 Y17.1507
G01 X45.0136 Y17.1657
G01 X44.9787 Y17.1790
G01 X44.9433 Y17.1905
G01 X44.9073 Y17.2003
G01 X44.8709 Y17.2084
G01 X44.8341 Y17.2146
G01 X44.7970 Y17.2190
G01 X44.7598 Y17.2216
G01 X44.7225 Y17.2224
G01 X44.6852 Y17.2213
G01 X44.6481 Y17.2184
G01 X44.6111 Y17.2137
G01 X44.5743 Y17.2072
G01 X44.5380 Y17.1988
G01 X44.5021 Y17.1887
G01 X44.4667 Y17.1769
G01 X44.4319 Y17.1633
G01 X44.3979 Y17.1481
G01 X44.3647 Y17.1312
G01 X44.3323 Y17.1127
G01 X44.3008 Y17.0926
G01 X44.2704 Y17.0710
G01 X44.2411 Y17.0479
G01 X44.2130 Y17.0234
G01 X44.1861 Y16.9976
G01 X44.1604 Y16.9705
G01 X44.1362 Y16.9421
G01 X44.1134 Y16.9126
G01 X44.0920 Y16.8821
G01 X44.0722 Y16.8505
G01 X44.0539 Y16.8179
G01 X44.0373 Y16.7846
G01 X44.0223 Y16.7504
G01 X44.0090 Y16.7155
G01 X43.9975 Y16.6801
G01 X43.9877 Y16.6441
G01 X43.9796 Y16.6077
G01 X43.9734 Y16.5709
G01 X43.9690 Y16.5338
G01 X43.9664 Y16.4966
G01 X43.9656 Y16.4593
G01 X43.9667 Y16.4220
G00 Z0.8000
G00 X46.3639 Y20.8459
G01 F80.00
G01 Z-0.0100
G01 F180.00
G01 X46.3578 Y20.8461
G01 X46.3456 Y20.8473
G01 X46.3335 Y20.8496
G01 X46.3218 Y20.8532
G01 X46.3105 Y20.8579
G01 X46.3050 Y20.8607
G01 X46.2945 Y20.8670
G01 X46.2894 Y20.8705
G01 X46.2800 Y20.8783
G01 X46.2755 Y20.8825
G01 X46.2673 Y20.8916
G01 X46.2600 Y20.9015
G01 X46.2537 Y20.9120
G01 X46.2484 Y20.9231
G01 X46.2443 Y20.9346
G01 X46.2413 Y20.9465
G01 X46.2395 Y20.9586
G01 X46.2391 Y20.9648
G01 X46.2389 Y21.0362
G01 X46.2350 Y21.0362
G01 X46.2350 Y20.8420
G01 X47.0389 Y20.8420
G01 X47.0389 Y20.8459
G01 X46.3639 Y20.8459
G00 Z0.8000
G00 X47.4923 Y20.8459
G01 F80.00
G01 Z-0.0100
G01 F180.00
G01 X47.4923 Y20.8420
G01 X48.2962 Y20.8420
G01 X48.2962 Y21.0362
G01 X48.2923 Y21.0362
G01 X48.2923 Y20.9709
G01 X48.2921 Y20.9648
G01 X48.2909 Y20.9526
G01 X48.2886 Y20.9405
G01 X48.2850 Y20.9288
G01 X48.2803 Y20.9175
G01 X48.2775 Y20.9120
G01 X48.2745 Y20.9066
G01 X48.2677 Y20.8964
G01 X48.2599 Y20.8870
G01 X48.2512 Y20.8783
G01 X48.2418 Y20.8705
G01 X48.2316 Y20.8637
G01 X48.2207 Y20.8579
G01 X48.2094 Y20.8532
G01 X48.1977 Y20.8496
G01 X48.1856 Y20.8473
G01 X48.1796 Y20.8465
G01 X48.1673 Y20.8459
G01 X47.4923 Y20.8459
G00 Z0.8000
G00 X47.4923 Y22.2428
G01 F80.00
G01 Z-0.0100
G01 F180.00
G01 X47.4923 Y22.2389
G01 X48.1673 Y22.2389
G01 X48.1734 Y22.2387
G01 X48.1856 Y22.2375
G01 X48.1977 Y22.2352
G01 X48.2094 Y22.2316
G01 X48.2207 Y22.2269
G01 X48.2316 Y22.2211
G01 X48.2418 Y22.2143
G01 X48.2512 Y22.2065
G01 X48.2599 Y22.1978
G01 X48.2677 Y22.1884
G01 X48.2712 Y22.1833
G01 X48.2775 Y22.1728
G01 X48.2828 Y22.1617
G01 X48.2869 Y22.1502
G01 X48.2899 Y22.1383
G01 X48.2909 Y22.1322
G01 X48.2921 Y22.1200
G01 X48.2923 Y22.1139
G01 X48.2923 Y22.0486
G01 X48.2962 Y22.0486
G01 X48.2962 Y22.2428
G01 X47.4923 Y22.2428
G00 Z0.8000
G00 X46.2350 Y22.0486
G01 F80.00
G01 Z-0.0100
G01 F180.00
G01 X46.2389 Y22.0486
G01 X46.2389 Y22.1139
G01 X46.2391 Y22.1200
G01 X46.2403 Y22.1322
G01 X46.2426 Y22.1443
G01 X46.2462 Y22.1560
G01 X46.2509 Y22.1673
G01 X46.2537 Y22.1728
G01 X46.2567 Y22.1782
G01 X46.2635 Y22.1884
G01 X46.2713 Y22.1978
G01 X46.2800 Y22.2065
G01 X46.2894 Y22.2143
G01 X46.2996 Y22.2211
G01 X46.3105 Y22.2269
G01 X46.3218 Y22.2316
G01 X46.3335 Y22.2352
G01 X46.3456 Y22.2375
G01 X46.3516 Y22.2383
G01 X46.3639 Y22.2389
G01 X47.0389 Y22.2389
G01 X47.0389 Y22.2428
G01 X46.2350 Y22.2428
G01 X46.2350 Y22.0486
G00 Z0.8000
G00 X45.0420 Y23.3185
G01 F80.00
G01 Z-0.0100
G01 F180.00
G01 X45.4895 Y23.7660
G01 X45.4895 Y24.3988
G01 X45.0420 Y24.8463
G01 X44.4092 Y24.8463
G01 X43.9617 Y24.3988
G01 X43.9617 Y23.7660
G01 X44.4092 Y23.3185
G01 X45.0420 Y23.3185
G00 Z0.8000
G00 X43.9667 Y24.0420
G01 F80.00
G01 Z-0.0100
G01 F180.00
G01 X43.9696 Y24.0049
G01 X43.9743 Y23.9679
G01 X43.9808 Y23.9311
G01 X43.9892 Y23.8948
G01 X43.9993 Y23.8589
G01 X44.0111 Y23.8235
G01 X44.0247 Y23.7887
G01 X44.0399 Y23.7547
G01 X44.0568 Y23.7215
G01 X44.0753 Y23.6891
G01 X44.0954 Y23.6576
G01 X44.1170 Y23.6272
G01 X44.1401 Y23.5979
G01 X44.1646 Y23.5698
G01 X44.1904 Y23.5429
G01 X44.2175 Y23.5172
G01 X44.2459 Y23.4930
G01 X44.2754 Y23.4702
G01 X44.3059 Y23.4488
G01 X44.3375 Y23.4290
G01 X44.3701 Y23.4107
G01 X44.4034 Y23.3941
G01 X44.4376 Y23.3791
G01 X44.4725 Y23.3658
G01 X44.5079 Y23.3543
G01 X44.5439 Y23.3445
G01 X44.5803 Y23.3364
G01 X44.6171 Y23.3302
G01 X44.6542 Y23.3258
G01 X44.6914 Y23.3232
G01 X44.7287 Y23.3224
G01 X44.7660 Y23.3235
G01 X44.8031 Y23.3264
G01 X44.8401 Y23.3311
G01 X44.8769 Y23.3376
G01 X44.9132 Y23.3460
G01 X44.9491 Y23.3561
G01 X44.9845 Y23.3679
G01 X45.0193 Y23.3815
G01 X45.0533 Y23.3967
G01 X45.0865 Y23.4136
G01 X45.1189 Y23.4321
G01 X45.1504 Y23.4522
G01 X45.1808 Y23.4738
G01 X45.2101 Y23.4969
G01 X45.2382 Y23.5214
G01 X45.2651 Y23.5472
G01 X45.2908 Y23.5743
G01 X45.3150 Y23.6027
G01 X45.3378 Y23.6322
G01 X45.3592 Y23.6627
G01 X45.3790 Y23.6943
G01 X45.3973 Y23.7269
G01 X45.4139 Y23.7602
G01 X45.4289 Y23.7944
G01 X45.4422 Y23.8293
G01 X45.4537 Y23.8647
G01 X45.4635 Y23.9007
G01 X45.4716 Y23.9371
G01 X45.4778 Y23.9739
G01 X45.4822 Y24.0110
G01 X45.4848 Y24.0482
G01 X45.4856 Y24.0855
G01 X45.4845 Y24.1228
G01 X45.4816 Y24.1599
G01 X45.4769 Y24.1969
G01 X45.4704 Y24.2337
G01 X45.4620 Y24.2700
G01 X45.4519 Y24.3059
G01 X45.4401 Y24.3413
G01 X45.4265 Y24.3761
G01 X45.4113 Y24.4101
G01 X45.3944 Y24.4433
G01 X45.3759 Y24.4757
G01 X45.3558 Y24.5072
G01 X45.3342 Y24.5376
G01 X45.3111 Y24.5669
G01 X45.2866 Y24.5950
G01 X45.2608 Y24.6219
G01 X45.2337 Y24.6476
G01 X45.2053 Y24.6718
G01 X45.1758 Y24.6946
G01 X45.1453 Y24.7160
G01 X45.1137 Y24.7358
G01 X45.0811 Y24.7541
G01 X45.0478 Y24.7707
G01 X45.0136 Y24.7857
G01 X44.9787 Y24.7990
G01 X44.9433 Y24.8105
G01 X44.9073 Y24.8203
G01 X44.8709 Y24.8284
G01 X44.8341 Y24.8346
G01 X44.7970 Y24.8390
G01 X44.7598 Y24.8416
G01 X44.7225 Y24.8424
G01 X44.6852 Y24.8413
G01 X44.6481 Y24.8384
G01 X44.6111 Y24.8337
G01 X44.5743 Y24.8272
G01 X44.5380 Y24.8188
G01 X44.5021 Y24.8087
G01 X44.4667 Y24.7969
G01 X44.4319 Y24.7833
G01 X44.3979 Y24.7681
G01 X44.3647 Y24.7512
G01 X44.3323 Y24.7327
G01 X44.3008 Y24.7126
G01 X44.2704 Y24.6910
G01 X44.2411 Y24.6679
G01 X44.2130 Y24.6434
G01 X44.1861 Y24.6176
G01 X44.1604 Y24.5905
G01 X44.1362 Y24.5621
G01 X44.1134 Y24.5326
G01 X44.0920 Y24.5021
G01 X44.0722 Y24.4705
G01 X44.0539 Y24.4379
G01 X44.0373 Y24.4046
G01 X44.0223 Y24.3704
G01 X44.0090 Y24.3355
G01 X43.9975 Y24.3001
G01 X43.9877 Y24.2641
G01 X43.9796 Y24.2277
G01 X43.9734 Y24.1909
G01 X43.9690 Y24.1538
G01 X43.9664 Y24.1166
G01 X43.9656 Y24.0793
G01 X43.9667 Y24.0420
G00 Z0.8000
G00 X46.3639 Y24.2959
G01 F80.00
G01 Z-0.0100
G01 F180.00
G01 X47.2462 Y24.2959
G01 X47.8177 Y23.7245
G01 X47.8334 Y23.7094
G01 X47.8521 Y23.6931
G01 X47.8765 Y23.6740
G01 X47.8969 Y23.6598
G01 X47.9128 Y23.6498
G01 X47.9343 Y23.6375
G01 X47.9564 Y23.6262
G01 X47.9847 Y23.6136
G01 X48.0080 Y23.6048
G01 X48.0316 Y23.5972
G01 X48.0496 Y23.5922
G01 X48.0738 Y23.5866
G01 X48.0983 Y23.5822
G01 X48.1229 Y23.5790
G01 X48.1477 Y23.5770
G01 X48.1756 Y23.5762
G01 X49.9346 Y23.5762
G01 X49.9346 Y23.0664
G01 X49.9352 Y23.0541
G01 X49.9360 Y23.0481
G01 X49.9383 Y23.0360
G01 X49.9419 Y23.0243
G01 X49.9441 Y23.0186
G01 X49.9494 Y23.0075
G01 X49.9557 Y22.9970
G01 X49.9592 Y22.9919
G01 X49.9630 Y22.9871
G01 X49.9712 Y22.9780
G01 X49.9803 Y22.9698
G01 X49.9851 Y22.9660
G01 X49.9953 Y22.9592
G01 X50.0007 Y22.9562
G01 X50.0118 Y22.9509
G01 X50.0175 Y22.9487
G01 X50.0233 Y22.9468
G01 X50.0352 Y22.9438
G01 X50.0473 Y22.9420
G01 X50.0596 Y22.9414
G01 X52.0977 Y22.9416
G01 X52.1099 Y22.9428
G01 X52.1220 Y22.9451
G01 X52.1337 Y22.9487
G01 X52.1394 Y22.9509
G01 X52.1505 Y22.9562
G01 X52.1559 Y22.9592
G01 X52.1661 Y22.9660
G01 X52.1755 Y22.9738
G01 X52.1842 Y22.9825
G01 X52.1882 Y22.9871
G01 X52.1955 Y22.9970
G01 X52.1988 Y23.0021
G01 X52.2046 Y23.0130
G01 X52.2093 Y23.0243
G01 X52.2112 Y23.0301
G01 X52.2142 Y23.0420
G01 X52.2160 Y23.0541
G01 X52.2166 Y23.0664
G01 X52.2164 Y25.1045
G01 X52.2160 Y25.1107
G01 X52.2142 Y25.1228
G01 X52.2112 Y25.1347
G01 X52.2071 Y25.1462
G01 X52.2046 Y25.1518
G01 X52.1988 Y25.1627
G01 X52.1920 Y25.1729
G01 X52.1842 Y25.1823
G01 X52.1755 Y25.1910
G01 X52.1709 Y25.1950
G01 X52.1661 Y25.1988
G01 X52.1559 Y25.2056
G01 X52.1450 Y25.2114
G01 X52.1337 Y25.2161
G01 X52.1279 Y25.2180
G01 X52.1160 Y25.2210
G01 X52.1039 Y25.2228
G01 X52.0916 Y25.2234
G01 X50.0596 Y25.2234
G01 X50.0535 Y25.2232
G01 X50.0413 Y25.2220
G01 X50.0292 Y25.2197
G01 X50.0175 Y25.2161
G01 X50.0118 Y25.2139
G01 X50.0007 Y25.2086
G01 X49.9953 Y25.2056
G01 X49.9851 Y25.1988
G01 X49.9757 Y25.1910
G01 X49.9712 Y25.1868
G01 X49.9630 Y25.1777
G01 X49.9592 Y25.1729
G01 X49.9557 Y25.1678
G01 X49.9494 Y25.1573
G01 X49.9441 Y25.1462
G01 X49.9400 Y25.1347
G01 X49.9370 Y25.1228
G01 X49.9360 Y25.1167
G01 X49.9352 Y25.1107
G01 X49.9346 Y25.0984
G01 X49.9346 Y24.5886
G01 X48.3853 Y24.5886
G01 X48.2923 Y24.6816
G01 X48.2921 Y25.5700
G01 X48.2917 Y25.5762
G01 X48.2899 Y25.5883
G01 X48.2869 Y25.6002
G01 X48.2850 Y25.6060
G01 X48.2803 Y25.6173
G01 X48.2745 Y25.6282
G01 X48.2677 Y25.6384
G01 X48.2599 Y25.6478
G01 X48.2557 Y25.6523
G01 X48.2466 Y25.6605
G01 X48.2418 Y25.6643
G01 X48.2316 Y25.6711
G01 X48.2262 Y25.6741
G01 X48.2151 Y25.6794
G01 X48.2094 Y25.6816
G01 X48.1977 Y25.6852
G01 X48.1856 Y25.6875
G01 X48.1734 Y25.6887
G01 X48.1673 Y25.6889
G01 X46.3639 Y25.6889
G01 X46.3516 Y25.6883
G01 X46.3456 Y25.6875
G01 X46.3395 Y25.6865
G01 X46.3276 Y25.6835
G01 X46.3161 Y25.6794
G01 X46.3050 Y25.6741
G01 X46.2945 Y25.6678
G01 X46.2894 Y25.6643
G01 X46.2800 Y25.6565
G01 X46.2713 Y25.6478
G01 X46.2673 Y25.6432
G01 X46.2600 Y25.6333
G01 X46.2537 Y25.6228
G01 X46.2484 Y25.6117
G01 X46.2443 Y25.6002
G01 X46.2426 Y25.5943
G01 X46.2403 Y25.5822
G01 X46.2395 Y25.5762
G01 X46.2389 Y25.5639
G01 X46.2389 Y24.4209
G01 X46.2395 Y24.4086
G01 X46.2413 Y24.3965
G01 X46.2443 Y24.3846
G01 X46.2484 Y24.3731
G01 X46.2537 Y24.3620
G01 X46.2600 Y24.3515
G01 X46.2673 Y24.3416
G01 X46.2755 Y24.3325
G01 X46.2846 Y24.3243
G01 X46.2945 Y24.3170
G01 X46.3050 Y24.3107
G01 X46.3161 Y24.3054
G01 X46.3276 Y24.3013
G01 X46.3395 Y24.2983
G01 X46.3516 Y24.2965
G01 X46.3639 Y24.2959
G00 Z0.8000
G00 X41.9741 Y25.5957
G01 F80.00
G01 Z-0.0100
G01 F180.00
G01 X43.1171 Y25.5957
G01 X43.1294 Y25.5963
G01 X43.1415 Y25.5981
G01 X43.1534 Y25.6011
G01 X43.1649 Y25.6052
G01 X43.1705 Y25.6077
G01 X43.1814 Y25.6135
G01 X43.1916 Y25.6203
G01 X43.2010 Y25.6281
G01 X43.2055 Y25.6323
G01 X43.2137 Y25.6414
G01 X43.2210 Y25.6513
G01 X43.2243 Y25.6564
G01 X43.2301 Y25.6673
G01 X43.2326 Y25.6729
G01 X43.2367 Y25.6844
G01 X43.2397 Y25.6963
G01 X43.2407 Y25.7024
G01 X43.2415 Y25.7084
G01 X43.2421 Y25.7207
G01 X43.2421 Y26.1162
G01 X49.9346 Y26.1162
G01 X49.9346 Y25.6064
G01 X49.9352 Y25.5941
G01 X49.9360 Y25.5881
G01 X49.9370 Y25.5820
G01 X49.9400 Y25.5701
G01 X49.9441 Y25.5586
G01 X49.9494 Y25.5475
G01 X49.9524 Y25.5421
G01 X49.9557 Y25.5370
G01 X49.9630 Y25.5271
G01 X49.9712 Y25.5180
G01 X49.9757 Y25.5138
G01 X49.9851 Y25.5060
G01 X49.9902 Y25.5025
G01 X49.9953 Y25.4992
G01 X50.0062 Y25.4934
G01 X50.0118 Y25.4909
G01 X50.0233 Y25.4868
G01 X50.0352 Y25.4838
G01 X50.0413 Y25.4828
G01 X50.0473 Y25.4820
G01 X50.0596 Y25.4814
G01 X52.0916 Y25.4814
G01 X52.1039 Y25.4820
G01 X52.1160 Y25.4838
G01 X52.1220 Y25.4851
G01 X52.1337 Y25.4887
G01 X52.1394 Y25.4909
G01 X52.1505 Y25.4962
G01 X52.1559 Y25.4992
G01 X52.1661 Y25.5060
G01 X52.1755 Y25.5138
G01 X52.1842 Y25.5225
G01 X52.1920 Y25.5319
G01 X52.1988 Y25.5421
G01 X52.2046 Y25.5530
G01 X52.2071 Y25.5586
G01 X52.2112 Y25.5701
G01 X52.2142 Y25.5820
G01 X52.2152 Y25.5881
G01 X52.2164 Y25.6003
G01 X52.2166 Y27.6384
G01 X52.2160 Y27.6507
G01 X52.2142 Y27.6628
G01 X52.2112 Y27.6747
G01 X52.2071 Y27.6862
G01 X52.2046 Y27.6918
G01 X52.1988 Y27.7027
G01 X52.1920 Y27.7129
G01 X52.1842 Y27.7223
G01 X52.1755 Y27.7310
G01 X52.1709 Y27.7350
G01 X52.1661 Y27.7388
G01 X52.1559 Y27.7456
G01 X52.1450 Y27.7514
G01 X52.1337 Y27.7561
G01 X52.1279 Y27.7580
G01 X52.1160 Y27.7610
G01 X52.1099 Y27.7620
G01 X52.0977 Y27.7632
G01 X50.0596 Y27.7634
G01 X50.0535 Y27.7632
G01 X50.0413 Y27.7620
G01 X50.0292 Y27.7597
G01 X50.0233 Y27.7580
G01 X50.0118 Y27.7539
G01 X50.0007 Y27.7486
G01 X49.9953 Y27.7456
G01 X49.9851 Y27.7388
G01 X49.9803 Y27.7350
G01 X49.9757 Y27.7310
G01 X49.9670 Y27.7223
G01 X49.9630 Y27.7177
G01 X49.9557 Y27.7078
G01 X49.9494 Y27.6973
G01 X49.9466 Y27.6918
G01 X49.9441 Y27.6862
G01 X49.9400 Y27.6747
G01 X49.9370 Y27.6628
G01 X49.9360 Y27.6567
G01 X49.9352 Y27.6507
G01 X49.9346 Y27.6384
G01 X49.9346 Y27.1286
G01 X43.2421 Y27.1286
G01 X43.2421 Y27.5241
G01 X43.2419 Y27.5302
G01 X43.2407 Y27.5424
G01 X43.2384 Y27.5545
G01 X43.2367 Y27.5604
G01 X43.2326 Y27.5719
G01 X43.2301 Y27.5775
G01 X43.2243 Y27.5884
G01 X43.2175 Y27.5986
G01 X43.2097 Y27.6080
G01 X43.2055 Y27.6125
G01 X43.2010 Y27.6167
G01 X43.1916 Y27.6245
G01 X43.1865 Y27.6280
G01 X43.1760 Y27.6343
G01 X43.1649 Y27.6396
G01 X43.1534 Y27.6437
G01 X43.1415 Y27.6467
G01 X43.1294 Y27.6485
G01 X43.1171 Y27.6491
G01 X41.9741 Y27.6491
G01 X41.9618 Y27.6485
G01 X41.9497 Y27.6467
G01 X41.9378 Y27.6437
G01 X41.9263 Y27.6396
G01 X41.9207 Y27.6371
G01 X41.9098 Y27.6313
G01 X41.8996 Y27.6245
G01 X41.8902 Y27.6167
G01 X41.8857 Y27.6125
G01 X41.8775 Y27.6034
G01 X41.8702 Y27.5935
G01 X41.8669 Y27.5884
G01 X41.8639 Y27.5830
G01 X41.8586 Y27.5719
G01 X41.8545 Y27.5604
G01 X41.8515 Y27.5485
G01 X41.8497 Y27.5364
G01 X41.8493 Y27.5302
G01 X41.8491 Y25.7207
G01 X41.8497 Y25.7084
G01 X41.8515 Y25.6963
G01 X41.8545 Y25.6844
G01 X41.8586 Y25.6729
G01 X41.8639 Y25.6618
G01 X41.8702 Y25.6513
G01 X41.8775 Y25.6414
G01 X41.8857 Y25.6323
G01 X41.8948 Y25.6241
G01 X41.9047 Y25.6168
G01 X41.9152 Y25.6105
G01 X41.9263 Y25.6052
G01 X41.9378 Y25.6011
G01 X41.9497 Y25.5981
G01 X41.9618 Y25.5963
G01 X41.9741 Y25.5957
G00 Z0.8000
G00 X54.2233 Y25.0749
G01 F80.00
G01 Z-0.0100
G01 F180.00
G01 X54.2233 Y24.1567
G01 X54.3794 Y24.1567
G01 X54.3794 Y24.1606
G01 X54.3522 Y24.1606
G01 X54.3399 Y24.1612
G01 X54.3278 Y24.1630
G01 X54.3159 Y24.1660
G01 X54.3044 Y24.1701
G01 X54.2933 Y24.1754
G01 X54.2879 Y24.1784
G01 X54.2777 Y24.1852
G01 X54.2683 Y24.1930
G01 X54.2596 Y24.2017
G01 X54.2518 Y24.2111
G01 X54.2450 Y24.2213
G01 X54.2392 Y24.2322
G01 X54.2345 Y24.2435
G01 X54.2309 Y24.2552
G01 X54.2286 Y24.2673
G01 X54.2274 Y24.2795
G01 X54.2272 Y24.2856
G01 X54.2272 Y25.0749
G01 X54.2233 Y25.0749
G00 Z0.8000
G00 X55.3918 Y24.1606
G01 F80.00
G01 Z-0.0100
G01 F180.00
G01 X55.3918 Y24.1567
G01 X56.0051 Y24.1567
G01 X56.0051 Y25.0749
G01 X56.0012 Y25.0749
G01 X56.0010 Y24.2795
G01 X56.0006 Y24.2733
G01 X55.9988 Y24.2612
G01 X55.9958 Y24.2493
G01 X55.9917 Y24.2378
G01 X55.9892 Y24.2322
G01 X55.9834 Y24.2213
G01 X55.9801 Y24.2162
G01 X55.9728 Y24.2063
G01 X55.9646 Y24.1972
G01 X55.9601 Y24.1930
G01 X55.9507 Y24.1852
G01 X55.9405 Y24.1784
G01 X55.9296 Y24.1726
G01 X55.9240 Y24.1701
G01 X55.9125 Y24.1660
G01 X55.9006 Y24.1630
G01 X55.8885 Y24.1612
G01 X55.8762 Y24.1606
G01 X55.3918 Y24.1606
G00 Z0.8000
G00 X55.6459 Y26.5198
G01 F80.00
G01 Z-0.0100
G01 F180.00
G01 X55.6459 Y26.4426
G01 X55.8762 Y26.4426
G01 X55.8885 Y26.4420
G01 X55.9006 Y26.4402
G01 X55.9066 Y26.4389
G01 X55.9183 Y26.4353
G01 X55.9240 Y26.4331
G01 X55.9351 Y26.4278
G01 X55.9456 Y26.4215
G01 X55.9555 Y26.4142
G01 X55.9601 Y26.4102
G01 X55.9688 Y26.4015
G01 X55.9728 Y26.3969
G01 X55.9801 Y26.3870
G01 X55.9834 Y26.3819
G01 X55.9892 Y26.3710
G01 X55.9939 Y26.3597
G01 X55.9975 Y26.3480
G01 X55.9988 Y26.3420
G01 X56.0006 Y26.3299
G01 X56.0012 Y26.3176
G01 X56.0012 Y25.5283
G01 X56.0051 Y25.5283
G01 X56.0051 Y26.4465
G01 X55.8096 Y26.4466
G01 X55.7985 Y26.4470
G01 X55.7874 Y26.4480
G01 X55.7764 Y26.4495
G01 X55.7655 Y26.4515
G01 X55.7498 Y26.4554
G01 X55.7392 Y26.4588
G01 X55.7288 Y26.4627
G01 X55.7130 Y26.4696
G01 X55.6988 Y26.4772
G01 X55.6842 Y26.4865
G01 X55.6713 Y26.4961
G01 X55.6582 Y26.5073
G01 X55.6459 Y26.5198
G00 Z0.8000
G00 X57.1264 Y27.8520
G01 F80.00
G01 Z-0.0100
G01 F180.00
G01 X57.1293 Y27.8148
G01 X57.1340 Y27.7778
G01 X57.1405 Y27.7411
G01 X57.1474 Y27.7106
G01 X57.1572 Y27.6746
G01 X57.1687 Y27.6392
G01 X57.1820 Y27.6043
G01 X57.1891 Y27.5879
G01 X57.1891 Y26.9907
G01 X57.1897 Y26.9784
G01 X57.1905 Y26.9724
G01 X57.1915 Y26.9663
G01 X57.1945 Y26.9544
G01 X57.1986 Y26.9429
G01 X57.2011 Y26.9373
G01 X57.2069 Y26.9264
G01 X57.2102 Y26.9213
G01 X57.2175 Y26.9114
G01 X57.2215 Y26.9068
G01 X57.2302 Y26.8981
G01 X57.2396 Y26.8903
G01 X57.2498 Y26.8835
G01 X57.2607 Y26.8777
G01 X57.2663 Y26.8752
G01 X57.2778 Y26.8711
G01 X57.2897 Y26.8681
G01 X57.3018 Y26.8663
G01 X57.3141 Y26.8657
G01 X58.4571 Y26.8657
G01 X58.4694 Y26.8663
G01 X58.4754 Y26.8671
G01 X58.4875 Y26.8694
G01 X58.4992 Y26.8730
G01 X58.5049 Y26.8752
G01 X58.5105 Y26.8777
G01 X58.5214 Y26.8835
G01 X58.5316 Y26.8903
G01 X58.5410 Y26.8981
G01 X58.5455 Y26.9023
G01 X58.5537 Y26.9114
G01 X58.5610 Y26.9213
G01 X58.5643 Y26.9264
G01 X58.5673 Y26.9318
G01 X58.5726 Y26.9429
G01 X58.5767 Y26.9544
G01 X58.5797 Y26.9663
G01 X58.5815 Y26.9784
G01 X58.5819 Y26.9846
G01 X58.5821 Y27.1321
G01 X58.9767 Y27.1321
G01 X58.9767 Y26.4426
G01 X58.9627 Y26.4420
G01 X58.9506 Y26.4402
G01 X58.9387 Y26.4372
G01 X58.9272 Y26.4331
G01 X58.9161 Y26.4278
G01 X58.9056 Y26.4215
G01 X58.8957 Y26.4142
G01 X58.8866 Y26.4060
G01 X58.8784 Y26.3969
G01 X58.8711 Y26.3870
G01 X58.8648 Y26.3765
G01 X58.8595 Y26.3654
G01 X58.8554 Y26.3539
G01 X58.8524 Y26.3420
G01 X58.8506 Y26.3299
G01 X58.8500 Y26.3176
G01 X58.8502 Y24.2795
G01 X58.8514 Y24.2673
G01 X58.8537 Y24.2552
G01 X58.8554 Y24.2493
G01 X58.8595 Y24.2378
G01 X58.8648 Y24.2267
G01 X58.8711 Y24.2162
G01 X58.8784 Y24.2063
G01 X58.8824 Y24.2017
G01 X58.8911 Y24.1930
G01 X58.9005 Y24.1852
G01 X58.9056 Y24.1817
G01 X58.9161 Y24.1754
G01 X58.9272 Y24.1701
G01 X58.9387 Y24.1660
G01 X58.9506 Y24.1630
G01 X58.9567 Y24.1620
G01 X58.9689 Y24.1608
G01 X58.9750 Y24.1606
G01 X60.5051 Y24.1608
G01 X60.5113 Y24.1612
G01 X60.5234 Y24.1630
G01 X60.5353 Y24.1660
G01 X60.5468 Y24.1701
G01 X60.5524 Y24.1726
G01 X60.5579 Y24.1754
G01 X60.5684 Y24.1817
G01 X60.5735 Y24.1852
G01 X60.5829 Y24.1930
G01 X60.5916 Y24.2017
G01 X60.5994 Y24.2111
G01 X60.6029 Y24.2162
G01 X60.6092 Y24.2267
G01 X60.6145 Y24.2378
G01 X60.6167 Y24.2435
G01 X60.6203 Y24.2552
G01 X60.6226 Y24.2673
G01 X60.6238 Y24.2795
G01 X60.6240 Y24.2856
G01 X60.6238 Y26.3237
G01 X60.6226 Y26.3359
G01 X60.6203 Y26.3480
G01 X60.6167 Y26.3597
G01 X60.6120 Y26.3710
G01 X60.6062 Y26.3819
G01 X60.5994 Y26.3921
G01 X60.5916 Y26.4015
G01 X60.5829 Y26.4102
G01 X60.5735 Y26.4180
G01 X60.5633 Y26.4248
G01 X60.5524 Y26.4306
G01 X60.5411 Y26.4353
G01 X60.5294 Y26.4389
G01 X60.5173 Y26.4412
G01 X60.5051 Y26.4424
G01 X60.4973 Y26.4426
G01 X60.4973 Y27.1321
G01 X61.7921 Y27.1321
G01 X61.7840 Y27.0954
G01 X61.7681 Y27.0033
G01 X61.7557 Y26.9044
G01 X61.7482 Y26.8051
G01 X61.7456 Y26.7055
G01 X61.7479 Y26.6059
G01 X61.7551 Y26.5065
G01 X61.7672 Y26.4076
G01 X61.7840 Y26.3094
G01 X61.8072 Y26.2062
G01 X61.8339 Y26.1102
G01 X61.8653 Y26.0156
G01 X61.9013 Y25.9227
G01 X61.9418 Y25.8317
G01 X61.9868 Y25.7428
G01 X62.0360 Y25.6562
G01 X62.0895 Y25.5721
G01 X62.1469 Y25.4907
G01 X62.2084 Y25.4122
G01 X62.2694 Y25.3414
G01 X62.3380 Y25.2692
G01 X62.4101 Y25.2004
G01 X62.4854 Y25.1352
G01 X62.5639 Y25.0737
G01 X62.6453 Y25.0163
G01 X62.7294 Y24.9628
G01 X62.8214 Y24.9107
G01 X62.9105 Y24.8660
G01 X63.0016 Y24.8258
G01 X63.0946 Y24.7901
G01 X63.1893 Y24.7590
G01 X63.2853 Y24.7325
G01 X63.3826 Y24.7108
G01 X63.4808 Y24.6940
G01 X63.5797 Y24.6819
G01 X63.6791 Y24.6747
G01 X63.7787 Y24.6724
G01 X63.8783 Y24.6750
G01 X63.9776 Y24.6825
G01 X64.0765 Y24.6949
G01 X64.1746 Y24.7120
G01 X64.2718 Y24.7340
G01 X64.3678 Y24.7607
G01 X64.4624 Y24.7921
G01 X64.5553 Y24.8281
G01 X64.6463 Y24.8686
G01 X64.7352 Y24.9136
G01 X64.8218 Y24.9628
G01 X64.9059 Y25.0163
G01 X64.9873 Y25.0737
G01 X65.0658 Y25.1352
G01 X65.1411 Y25.2004
G01 X65.2132 Y25.2692
G01 X65.2818 Y25.3414
G01 X65.3467 Y25.4170
G01 X65.4079 Y25.4956
G01 X65.4652 Y25.5772
G01 X65.5183 Y25.6614
G01 X65.5673 Y25.7482
G01 X65.6120 Y25.8373
G01 X65.6522 Y25.9284
G01 X65.6879 Y26.0214
G01 X65.7190 Y26.1161
G01 X65.7455 Y26.2121
G01 X65.7672 Y26.3094
G01 X65.7831 Y26.4015
G01 X65.7955 Y26.5004
G01 X65.8030 Y26.5997
G01 X65.8056 Y26.6993
G01 X65.8033 Y26.7989
G01 X65.7961 Y26.8983
G01 X65.7840 Y26.9972
G01 X65.7672 Y27.0954
G01 X65.7455 Y27.1927
G01 X65.7190 Y27.2887
G01 X65.6879 Y27.3834
G01 X65.6522 Y27.4764
G01 X65.6120 Y27.5675
G01 X65.5673 Y27.6566
G01 X65.5183 Y27.7434
G01 X65.4652 Y27.8276
G01 X65.4079 Y27.9092
G01 X65.3467 Y27.9878
G01 X65.2818 Y28.0634
G01 X65.2132 Y28.1356
G01 X65.1411 Y28.2044
G01 X65.0658 Y28.2696
G01 X64.9873 Y28.3311
G01 X64.9059 Y28.3885
G01 X64.8218 Y28.4420
G01 X64.7352 Y28.4912
G01 X64.6463 Y28.5362
G01 X64.5553 Y28.5767
G01 X64.4624 Y28.6127
G01 X64.3678 Y28.6441
G01 X64.2718 Y28.6708
G01 X64.1746 Y28.6928
G01 X64.0765 Y28.7099
G01 X63.9715 Y28.7229
G01 X63.8721 Y28.7301
G01 X63.7787 Y28.7324
G01 X63.6729 Y28.7298
G01 X63.5736 Y28.7223
G01 X63.4808 Y28.7108
G01 X63.3766 Y28.6928
G01 X63.2794 Y28.6708
G01 X63.1893 Y28.6458
G01 X63.0888 Y28.6127
G01 X63.0016 Y28.5790
G01 X62.9533 Y28.5577
G01 X62.9413 Y28.5644
G01 X62.9134 Y28.5784
G01 X62.8737 Y28.5960
G01 X62.8388 Y28.6093
G01 X62.8034 Y28.6208
G01 X62.7733 Y28.6291
G01 X62.7369 Y28.6375
G01 X62.6941 Y28.6449
G01 X62.6571 Y28.6493
G01 X62.6198 Y28.6519
G01 X62.5887 Y28.6527
G01 X58.5821 Y28.6527
G01 X58.5819 Y28.8002
G01 X58.5815 Y28.8064
G01 X58.5797 Y28.8185
G01 X58.5767 Y28.8304
G01 X58.5748 Y28.8362
G01 X58.5701 Y28.8475
G01 X58.5673 Y28.8530
G01 X58.5610 Y28.8635
G01 X58.5537 Y28.8734
G01 X58.5497 Y28.8780
G01 X58.5410 Y28.8867
G01 X58.5316 Y28.8945
G01 X58.5265 Y28.8980
G01 X58.5160 Y28.9043
G01 X58.5049 Y28.9096
G01 X58.4992 Y28.9118
G01 X58.4934 Y28.9137
G01 X58.4815 Y28.9167
G01 X58.4694 Y28.9185
G01 X58.4571 Y28.9191
G01 X57.3141 Y28.9191
G01 X57.3080 Y28.9189
G01 X57.2958 Y28.9177
G01 X57.2837 Y28.9154
G01 X57.2778 Y28.9137
G01 X57.2663 Y28.9096
G01 X57.2552 Y28.9043
G01 X57.2498 Y28.9013
G01 X57.2396 Y28.8945
G01 X57.2348 Y28.8907
G01 X57.2257 Y28.8825
G01 X57.2215 Y28.8780
G01 X57.2137 Y28.8686
G01 X57.2102 Y28.8635
G01 X57.2039 Y28.8530
G01 X57.2011 Y28.8475
G01 X57.1964 Y28.8362
G01 X57.1928 Y28.8245
G01 X57.1905 Y28.8124
G01 X57.1897 Y28.8064
G01 X57.1891 Y28.7941
G01 X57.1891 Y28.1969
G01 X57.1820 Y28.1805
G01 X57.1708 Y28.1514
G01 X57.1589 Y28.1160
G01 X57.1489 Y28.0801
G01 X57.1393 Y28.0377
G01 X57.1331 Y28.0009
G01 X57.1293 Y27.9700
G01 X57.1264 Y27.9328
G01 X57.1253 Y27.8893
G01 X57.1264 Y27.8520
G00 Z0.8000
G00 X61.7417 Y30.9421
G01 F80.00
G01 Z-0.0100
G01 F180.00
G01 X61.7417 Y30.8599
G01 X62.9331 Y29.6685
G01 X63.5489 Y29.6685
G01 X63.5489 Y29.6856
G01 X63.4747 Y29.6949
G01 X63.3826 Y29.7108
G01 X63.2794 Y29.7340
G01 X63.1834 Y29.7607
G01 X63.0888 Y29.7921
G01 X63.0016 Y29.8258
G01 X62.9049 Y29.8686
G01 X62.8160 Y29.9136
G01 X62.7294 Y29.9628
G01 X62.6504 Y30.0128
G01 X62.5688 Y30.0701
G01 X62.4854 Y30.1352
G01 X62.4101 Y30.2004
G01 X62.3424 Y30.2648
G01 X62.2694 Y30.3414
G01 X62.2084 Y30.4122
G01 X62.1469 Y30.4907
G01 X62.0860 Y30.5772
G01 X62.0360 Y30.6562
G01 X61.9868 Y30.7428
G01 X61.9392 Y30.8373
G01 X61.9013 Y30.9227
G01 X61.8937 Y30.9421
G01 X61.7417 Y30.9421
G00 Z0.8000
G00 X64.0023 Y29.6856
G01 F80.00
G01 Z-0.0100
G01 F180.00
G01 X64.0023 Y29.6685
G01 X64.6181 Y29.6685
G01 X65.8095 Y30.8599
G01 X65.8095 Y31.4757
G01 X65.7924 Y31.4757
G01 X65.7831 Y31.4015
G01 X65.7660 Y31.3034
G01 X65.7440 Y31.2062
G01 X65.7173 Y31.1102
G01 X65.6859 Y31.0156
G01 X65.6522 Y30.9284
G01 X65.6094 Y30.8317
G01 X65.5673 Y30.7482
G01 X65.5183 Y30.6614
G01 X65.4652 Y30.5772
G01 X65.4079 Y30.4956
G01 X65.3467 Y30.4170
G01 X65.2818 Y30.3414
G01 X65.2088 Y30.2648
G01 X65.1366 Y30.1962
G01 X65.0658 Y30.1352
G01 X64.9824 Y30.0701
G01 X64.9008 Y30.0128
G01 X64.8166 Y29.9597
G01 X64.7298 Y29.9107
G01 X64.6463 Y29.8686
G01 X64.5553 Y29.8281
G01 X64.4624 Y29.7921
G01 X64.3619 Y29.7590
G01 X64.2718 Y29.7340
G01 X64.1746 Y29.7120
G01 X64.0765 Y29.6949
G01 X64.0023 Y29.6856
G00 Z0.8000
G00 X53.8696 Y12.9719
G01 F80.00
G01 Z-0.0100
G01 F180.00
G01 X53.8712 Y12.9719
G01 X53.8712 Y11.3793
G01 X53.8726 Y11.3296
G01 X53.8764 Y11.2799
G01 X53.8817 Y11.2366
G01 X53.8913 Y11.1815
G01 X53.9023 Y11.1329
G01 X53.9140 Y11.0909
G01 X53.9315 Y11.0378
G01 X53.9496 Y10.9914
G01 X53.9699 Y10.9459
G01 X53.9895 Y10.9069
G01 X54.0171 Y10.8583
G01 X54.0439 Y10.8163
G01 X54.0726 Y10.7757
G01 X54.0995 Y10.7412
G01 X54.1360 Y10.6989
G01 X54.1705 Y10.6629
G01 X54.2021 Y10.6328
G01 X54.2397 Y10.6002
G01 X54.2789 Y10.5694
G01 X54.3246 Y10.5372
G01 X54.3667 Y10.5107
G01 X54.4101 Y10.4863
G01 X54.4491 Y10.4667
G01 X54.4946 Y10.4464
G01 X54.5410 Y10.4283
G01 X54.5941 Y10.4108
G01 X54.6361 Y10.3991
G01 X54.6847 Y10.3881
G01 X54.7398 Y10.3785
G01 X54.7831 Y10.3732
G01 X54.8328 Y10.3694
G01 X54.8856 Y10.3680
G01 X62.5056 Y10.3680
G01 X62.5523 Y10.3691
G01 X62.6020 Y10.3726
G01 X62.6575 Y10.3794
G01 X62.7065 Y10.3881
G01 X62.7491 Y10.3976
G01 X62.8030 Y10.4126
G01 X62.8502 Y10.4283
G01 X62.8966 Y10.4464
G01 X62.9421 Y10.4667
G01 X62.9811 Y10.4863
G01 X63.0297 Y10.5139
G01 X63.0666 Y10.5372
G01 X63.1074 Y10.5658
G01 X63.1515 Y10.6002
G01 X63.1891 Y10.6328
G01 X63.2229 Y10.6651
G01 X64.4929 Y11.9351
G01 X64.5252 Y11.9689
G01 X64.5578 Y12.0065
G01 X64.5886 Y12.0457
G01 X64.6065 Y12.0708
G01 X64.6463 Y12.0886
G01 X64.7298 Y12.1307
G01 X64.8166 Y12.1797
G01 X64.9008 Y12.2328
G01 X64.9873 Y12.2937
G01 X65.0658 Y12.3552
G01 X65.1366 Y12.4162
G01 X65.2088 Y12.4848
G01 X65.2776 Y12.5569
G01 X65.3428 Y12.6322
G01 X65.4043 Y12.7107
G01 X65.4617 Y12.7921
G01 X65.5152 Y12.8762
G01 X65.5644 Y12.9628
G01 X65.6094 Y13.0517
G01 X65.6499 Y13.1427
G01 X65.6859 Y13.2356
G01 X65.7173 Y13.3302
G01 X65.7440 Y13.4262
G01 X65.7660 Y13.5234
G01 X65.7831 Y13.6215
G01 X65.7955 Y13.7204
G01 X65.8030 Y13.8197
G01 X65.8056 Y13.9193
G01 X65.8033 Y14.0189
G01 X65.7961 Y14.1183
G01 X65.7840 Y14.2172
G01 X65.7672 Y14.3154
G01 X65.7455 Y14.4127
G01 X65.7190 Y14.5087
G01 X65.6879 Y14.6034
G01 X65.6522 Y14.6964
G01 X65.6120 Y14.7875
G01 X65.5673 Y14.8766
G01 X65.5183 Y14.9634
G01 X65.4652 Y15.0476
G01 X65.4079 Y15.1292
G01 X65.3467 Y15.2078
G01 X65.2818 Y15.2834
G01 X65.2132 Y15.3556
G01 X65.1411 Y15.4244
G01 X65.0658 Y15.4896
G01 X64.9873 Y15.5511
G01 X64.9059 Y15.6085
G01 X64.8218 Y15.6620
G01 X64.7352 Y15.7112
G01 X64.6463 Y15.7562
G01 X64.5553 Y15.7967
G01 X64.4624 Y15.8327
G01 X64.3678 Y15.8641
G01 X64.2718 Y15.8908
G01 X64.1746 Y15.9128
G01 X64.0765 Y15.9299
G01 X63.9776 Y15.9423
G01 X63.8783 Y15.9498
G01 X63.7787 Y15.9524
G01 X63.6791 Y15.9501
G01 X63.5797 Y15.9429
G01 X63.4808 Y15.9308
G01 X63.3766 Y15.9128
G01 X63.2794 Y15.8908
G01 X63.1893 Y15.8658
G01 X63.0946 Y15.8347
G01 X63.0016 Y15.7990
G01 X62.9049 Y15.7562
G01 X62.8214 Y15.7141
G01 X62.7346 Y15.6651
G01 X62.6504 Y15.6120
G01 X62.5639 Y15.5511
G01 X62.4854 Y15.4896
G01 X62.4146 Y15.4286
G01 X62.3424 Y15.3600
G01 X62.2736 Y15.2879
G01 X62.2084 Y15.2126
G01 X62.1433 Y15.1292
G01 X62.0860 Y15.0476
G01 X62.0360 Y14.9686
G01 X62.0178 Y14.9368
G01 X56.1556 Y14.9368
G01 X56.1089 Y14.9357
G01 X56.0592 Y14.9322
G01 X56.0098 Y14.9263
G01 X55.9607 Y14.9179
G01 X55.9121 Y14.9072
G01 X55.8641 Y14.8940
G01 X55.8167 Y14.8785
G01 X55.8017 Y14.8729
G01 X55.2395 Y14.8729
G01 X55.2245 Y14.8785
G01 X55.1771 Y14.8940
G01 X55.1291 Y14.9072
G01 X55.0805 Y14.9179
G01 X55.0314 Y14.9263
G01 X54.9820 Y14.9322
G01 X54.9323 Y14.9357
G01 X54.8825 Y14.9368
G01 X54.8328 Y14.9354
G01 X54.7831 Y14.9316
G01 X54.7398 Y14.9263
G01 X54.6907 Y14.9179
G01 X54.6421 Y14.9072
G01 X54.5941 Y14.8940
G01 X54.5467 Y14.8785
G01 X54.5317 Y14.8729
G01 X53.8696 Y14.8729
G01 X53.8635 Y14.8727
G01 X53.8513 Y14.8715
G01 X53.8452 Y14.8705
G01 X53.8333 Y14.8675
G01 X53.8218 Y14.8634
G01 X53.8162 Y14.8609
G01 X53.8053 Y14.8551
G01 X53.8002 Y14.8518
G01 X53.7951 Y14.8483
G01 X53.7857 Y14.8405
G01 X53.7812 Y14.8363
G01 X53.7730 Y14.8272
G01 X53.7657 Y14.8173
G01 X53.7624 Y14.8122
G01 X53.7566 Y14.8013
G01 X53.7519 Y14.7900
G01 X53.7483 Y14.7783
G01 X53.7470 Y14.7723
G01 X53.7452 Y14.7602
G01 X53.7448 Y14.7540
G01 X53.7446 Y13.0969
G01 X53.7452 Y13.0846
G01 X53.7470 Y13.0725
G01 X53.7500 Y13.0606
G01 X53.7541 Y13.0491
G01 X53.7594 Y13.0380
G01 X53.7657 Y13.0275
G01 X53.7730 Y13.0176
G01 X53.7812 Y13.0085
G01 X53.7903 Y13.0003
G01 X53.8002 Y12.9930
G01 X53.8107 Y12.9867
G01 X53.8218 Y12.9814
G01 X53.8333 Y12.9773
G01 X53.8452 Y12.9743
G01 X53.8573 Y12.9725
G01 X53.8696 Y12.9719
G00 Z0.8000
G00 X53.7446 Y5.8579
G01 F80.00
G01 Z-0.0100
G01 F180.00
G01 X53.7448 Y4.2008
G01 X53.7452 Y4.1946
G01 X53.7470 Y4.1825
G01 X53.7500 Y4.1706
G01 X53.7541 Y4.1591
G01 X53.7594 Y4.1480
G01 X53.7624 Y4.1426
G01 X53.7692 Y4.1324
G01 X53.7730 Y4.1276
G01 X53.7770 Y4.1230
G01 X53.7857 Y4.1143
G01 X53.7951 Y4.1065
G01 X53.8053 Y4.0997
G01 X53.8162 Y4.0939
G01 X53.8218 Y4.0914
G01 X53.8333 Y4.0873
G01 X53.8392 Y4.0856
G01 X53.8513 Y4.0833
G01 X53.8635 Y4.0821
G01 X53.8696 Y4.0819
G01 X54.5317 Y4.0819
G01 X54.5467 Y4.0763
G01 X54.5941 Y4.0608
G01 X54.6421 Y4.0476
G01 X54.6907 Y4.0369
G01 X54.7398 Y4.0285
G01 X54.7892 Y4.0226
G01 X54.8389 Y4.0191
G01 X54.8856 Y4.0180
G01 X61.2356 Y4.0180
G01 X61.2823 Y4.0191
G01 X61.3320 Y4.0226
G01 X61.3875 Y4.0294
G01 X61.4365 Y4.0381
G01 X61.4791 Y4.0476
G01 X61.5271 Y4.0608
G01 X61.5802 Y4.0783
G01 X61.6210 Y4.0940
G01 X61.6665 Y4.1141
G01 X61.7165 Y4.1392
G01 X61.7597 Y4.1639
G01 X61.7966 Y4.1872
G01 X61.8423 Y4.2194
G01 X61.8815 Y4.2502
G01 X61.9191 Y4.2828
G01 X61.9529 Y4.3151
G01 X63.2500 Y5.6122
G01 X63.2853 Y5.6025
G01 X63.3766 Y5.5820
G01 X63.4808 Y5.5640
G01 X63.5736 Y5.5525
G01 X63.6729 Y5.5450
G01 X63.7725 Y5.5424
G01 X63.8721 Y5.5447
G01 X63.9776 Y5.5525
G01 X64.0704 Y5.5640
G01 X64.1686 Y5.5808
G01 X64.2659 Y5.6025
G01 X64.3619 Y5.6290
G01 X64.4624 Y5.6621
G01 X64.5496 Y5.6958
G01 X64.6407 Y5.7360
G01 X64.7298 Y5.7807
G01 X64.8218 Y5.8328
G01 X64.9059 Y5.8863
G01 X64.9873 Y5.9437
G01 X65.0658 Y6.0052
G01 X65.1366 Y6.0662
G01 X65.2132 Y6.1392
G01 X65.2818 Y6.2114
G01 X65.3428 Y6.2822
G01 X65.4043 Y6.3607
G01 X65.4617 Y6.4421
G01 X65.5152 Y6.5262
G01 X65.5673 Y6.6182
G01 X65.6094 Y6.7017
G01 X65.6499 Y6.7927
G01 X65.6879 Y6.8914
G01 X65.7190 Y6.9861
G01 X65.7440 Y7.0762
G01 X65.7660 Y7.1734
G01 X65.7840 Y7.2776
G01 X65.7961 Y7.3765
G01 X65.8033 Y7.4759
G01 X65.8056 Y7.5755
G01 X65.8033 Y7.6689
G01 X65.7955 Y7.7744
G01 X65.7831 Y7.8733
G01 X65.7660 Y7.9714
G01 X65.7440 Y8.0686
G01 X65.7190 Y8.1587
G01 X65.6879 Y8.2534
G01 X65.6522 Y8.3464
G01 X65.6120 Y8.4375
G01 X65.5644 Y8.5320
G01 X65.5152 Y8.6186
G01 X65.4617 Y8.7027
G01 X65.4043 Y8.7841
G01 X65.3467 Y8.8578
G01 X65.2818 Y8.9334
G01 X65.2132 Y9.0056
G01 X65.1366 Y9.0786
G01 X65.0658 Y9.1396
G01 X64.9873 Y9.2011
G01 X64.9059 Y9.2585
G01 X64.8218 Y9.3120
G01 X64.7352 Y9.3612
G01 X64.6463 Y9.4062
G01 X64.5496 Y9.4490
G01 X64.4624 Y9.4827
G01 X64.3678 Y9.5141
G01 X64.2718 Y9.5408
G01 X64.1746 Y9.5628
G01 X64.0704 Y9.5808
G01 X63.9776 Y9.5923
G01 X63.8783 Y9.5998
G01 X63.7725 Y9.6024
G01 X63.6729 Y9.5998
G01 X63.5736 Y9.5923
G01 X63.4808 Y9.5808
G01 X63.3766 Y9.5628
G01 X63.2794 Y9.5408
G01 X63.1893 Y9.5158
G01 X63.0888 Y9.4827
G01 X63.0016 Y9.4490
G01 X62.9105 Y9.4088
G01 X62.8160 Y9.3612
G01 X62.7294 Y9.3120
G01 X62.6504 Y9.2620
G01 X62.5639 Y9.2011
G01 X62.4854 Y9.1396
G01 X62.4146 Y9.0786
G01 X62.3424 Y9.0100
G01 X62.2694 Y8.9334
G01 X62.2084 Y8.8626
G01 X62.1469 Y8.7841
G01 X62.0860 Y8.6976
G01 X62.0360 Y8.6186
G01 X62.0178 Y8.5868
G01 X54.8856 Y8.5868
G01 X54.8389 Y8.5857
G01 X54.7892 Y8.5822
G01 X54.7337 Y8.5754
G01 X54.6847 Y8.5667
G01 X54.6421 Y8.5572
G01 X54.5941 Y8.5440
G01 X54.5410 Y8.5265
G01 X54.5002 Y8.5108
G01 X54.4547 Y8.4907
G01 X54.4047 Y8.4656
G01 X54.3615 Y8.4409
G01 X54.3246 Y8.4176
G01 X54.2789 Y8.3854
G01 X54.2397 Y8.3546
G01 X54.2021 Y8.3220
G01 X54.1705 Y8.2919
G01 X54.1360 Y8.2559
G01 X54.1034 Y8.2183
G01 X54.0690 Y8.1742
G01 X54.0404 Y8.1334
G01 X54.0171 Y8.0965
G01 X53.9924 Y8.0533
G01 X53.9673 Y8.0033
G01 X53.9472 Y7.9578
G01 X53.9315 Y7.9170
G01 X53.9140 Y7.8639
G01 X53.9023 Y7.8219
G01 X53.8913 Y7.7733
G01 X53.8817 Y7.7182
G01 X53.8758 Y7.6688
G01 X53.8723 Y7.6191
G01 X53.8712 Y7.5724
G01 X53.8712 Y5.9829
G01 X53.8573 Y5.9823
G01 X53.8452 Y5.9805
G01 X53.8333 Y5.9775
G01 X53.8218 Y5.9734
G01 X53.8107 Y5.9681
G01 X53.8002 Y5.9618
G01 X53.7903 Y5.9545
G01 X53.7812 Y5.9463
G01 X53.7730 Y5.9372
G01 X53.7657 Y5.9273
G01 X53.7594 Y5.9168
G01 X53.7541 Y5.9057
G01 X53.7500 Y5.8942
G01 X53.7470 Y5.8823
G01 X53.7452 Y5.8702
G01 X53.7446 Y5.8579
G00 Z0.8000
G00 X12.6073 Y8.2689
G01 F80.00
G01 Z-0.0100
G01 F180.00
G01 X12.6134 Y8.2687
G01 X12.6256 Y8.2675
G01 X12.6377 Y8.2652
G01 X12.6436 Y8.2635
G01 X12.6551 Y8.2594
G01 X12.6607 Y8.2569
G01 X12.6716 Y8.2511
G01 X12.6818 Y8.2443
G01 X12.6912 Y8.2365
G01 X12.6957 Y8.2323
G01 X12.7039 Y8.2232
G01 X12.7112 Y8.2133
G01 X12.7175 Y8.2028
G01 X12.7203 Y8.1973
G01 X12.7250 Y8.1860
G01 X12.7286 Y8.1743
G01 X12.7309 Y8.1622
G01 X12.7317 Y8.1562
G01 X12.7323 Y8.1439
G01 X12.7323 Y7.7991
G01 X12.7362 Y7.7991
G01 X12.7362 Y8.2728
G01 X11.9323 Y8.2728
G01 X11.9323 Y8.2689
G01 X12.6073 Y8.2689
G00 Z0.8000
G00 X12.2118 Y6.8759
G01 F80.00
G01 Z-0.0100
G01 F180.00
G01 X12.2118 Y6.8720
G01 X12.7362 Y6.8720
G01 X12.7362 Y7.3457
G01 X12.7323 Y7.3457
G01 X12.7323 Y7.0009
G01 X12.7317 Y6.9886
G01 X12.7299 Y6.9765
G01 X12.7269 Y6.9646
G01 X12.7228 Y6.9531
G01 X12.7175 Y6.9420
G01 X12.7145 Y6.9366
G01 X12.7077 Y6.9264
G01 X12.6999 Y6.9170
G01 X12.6912 Y6.9083
G01 X12.6818 Y6.9005
G01 X12.6716 Y6.8937
G01 X12.6662 Y6.8907
G01 X12.6551 Y6.8854
G01 X12.6494 Y6.8832
G01 X12.6377 Y6.8796
G01 X12.6256 Y6.8773
G01 X12.6134 Y6.8761
G01 X12.2118 Y6.8759
G00 Z0.8000
G00 X8.1389 Y11.1439
G01 F80.00
G01 Z-0.0100
G01 F180.00
G01 X8.1389 Y10.0009
G01 X8.1395 Y9.9886
G01 X8.1413 Y9.9765
G01 X8.1443 Y9.9646
G01 X8.1484 Y9.9531
G01 X8.1509 Y9.9475
G01 X8.1567 Y9.9366
G01 X8.1600 Y9.9315
G01 X8.1635 Y9.9264
G01 X8.1713 Y9.9170
G01 X8.1800 Y9.9083
G01 X8.1894 Y9.9005
G01 X8.1945 Y9.8970
G01 X8.2050 Y9.8907
G01 X8.2161 Y9.8854
G01 X8.2218 Y9.8832
G01 X8.2276 Y9.8813
G01 X8.2395 Y9.8783
G01 X8.2516 Y9.8765
G01 X8.2639 Y9.8759
G01 X10.0734 Y9.8761
G01 X10.0856 Y9.8773
G01 X10.0917 Y9.8783
G01 X10.0977 Y9.8796
G01 X10.1094 Y9.8832
G01 X10.1207 Y9.8879
G01 X10.1316 Y9.8937
G01 X10.1367 Y9.8970
G01 X10.1466 Y9.9043
G01 X10.1557 Y9.9125
G01 X10.1599 Y9.9170
G01 X10.1639 Y9.9216
G01 X10.1712 Y9.9315
G01 X10.1775 Y9.9420
G01 X10.1803 Y9.9475
G01 X10.1850 Y9.9588
G01 X10.1874 Y9.9662
G01 X10.6789 Y9.9662
G01 X10.6789 Y9.9009
G01 X10.6791 Y9.8948
G01 X10.6803 Y9.8826
G01 X10.6826 Y9.8705
G01 X10.6862 Y9.8588
G01 X10.6909 Y9.8475
G01 X10.6967 Y9.8366
G01 X10.7035 Y9.8264
G01 X10.7113 Y9.8170
G01 X10.7155 Y9.8125
G01 X10.7200 Y9.8083
G01 X10.7294 Y9.8005
G01 X10.7396 Y9.7937
G01 X10.7450 Y9.7907
G01 X10.7561 Y9.7854
G01 X10.7676 Y9.7813
G01 X10.7795 Y9.7783
G01 X10.7916 Y9.7765
G01 X10.8039 Y9.7759
G01 X12.6073 Y9.7759
G01 X12.6134 Y9.7761
G01 X12.6256 Y9.7773
G01 X12.6377 Y9.7796
G01 X12.6494 Y9.7832
G01 X12.6551 Y9.7854
G01 X12.6662 Y9.7907
G01 X12.6767 Y9.7970
G01 X12.6818 Y9.8005
G01 X12.6912 Y9.8083
G01 X12.6999 Y9.8170
G01 X12.7077 Y9.8264
G01 X12.7112 Y9.8315
G01 X12.7175 Y9.8420
G01 X12.7228 Y9.8531
G01 X12.7269 Y9.8646
G01 X12.7286 Y9.8705
G01 X12.7309 Y9.8826
G01 X12.7317 Y9.8886
G01 X12.7323 Y9.9009
G01 X12.7323 Y9.9662
G01 X13.2189 Y9.9662
G01 X13.2189 Y9.9009
G01 X13.2191 Y9.8948
G01 X13.2203 Y9.8826
G01 X13.2226 Y9.8705
G01 X13.2262 Y9.8588
G01 X13.2309 Y9.8475
G01 X13.2367 Y9.8366
G01 X13.2435 Y9.8264
G01 X13.2513 Y9.8170
G01 X13.2555 Y9.8125
G01 X13.2600 Y9.8083
G01 X13.2694 Y9.8005
G01 X13.2796 Y9.7937
G01 X13.2850 Y9.7907
G01 X13.2961 Y9.7854
G01 X13.3076 Y9.7813
G01 X13.3195 Y9.7783
G01 X13.3316 Y9.7765
G01 X13.3439 Y9.7759
G01 X15.1473 Y9.7759
G01 X15.1596 Y9.7765
G01 X15.1717 Y9.7783
G01 X15.1836 Y9.7813
G01 X15.1951 Y9.7854
G01 X15.2007 Y9.7879
G01 X15.2116 Y9.7937
G01 X15.2218 Y9.8005
G01 X15.2312 Y9.8083
G01 X15.2399 Y9.8170
G01 X15.2477 Y9.8264
G01 X15.2545 Y9.8366
G01 X15.2603 Y9.8475
G01 X15.2650 Y9.8588
G01 X15.2686 Y9.8705
G01 X15.2709 Y9.8826
G01 X15.2721 Y9.8948
G01 X15.2723 Y11.0439
G01 X15.2717 Y11.0562
G01 X15.2699 Y11.0683
G01 X15.2686 Y11.0743
G01 X15.2650 Y11.0860
G01 X15.2628 Y11.0917
G01 X15.2575 Y11.1028
G01 X15.2545 Y11.1082
G01 X15.2477 Y11.1184
G01 X15.2439 Y11.1232
G01 X15.2357 Y11.1323
G01 X15.2266 Y11.1405
G01 X15.2218 Y11.1443
G01 X15.2116 Y11.1511
G01 X15.2007 Y11.1569
G01 X15.1894 Y11.1616
G01 X15.1836 Y11.1635
G01 X15.1777 Y11.1652
G01 X15.1656 Y11.1675
G01 X15.1534 Y11.1687
G01 X15.1473 Y11.1689
G01 X14.7518 Y11.1689
G01 X14.7518 Y15.4484
G01 X15.1346 Y15.4484
G01 X15.1469 Y15.4490
G01 X15.1590 Y15.4508
G01 X15.1650 Y15.4521
G01 X15.1767 Y15.4557
G01 X15.1880 Y15.4604
G01 X15.1989 Y15.4662
G01 X15.2040 Y15.4695
G01 X15.2139 Y15.4768
G01 X15.2185 Y15.4808
G01 X15.2272 Y15.4895
G01 X15.2312 Y15.4941
G01 X15.2350 Y15.4989
G01 X15.2418 Y15.5091
G01 X15.2448 Y15.5145
G01 X15.2501 Y15.5256
G01 X15.2523 Y15.5313
G01 X15.2559 Y15.5430
G01 X15.2582 Y15.5551
G01 X15.2594 Y15.5673
G01 X15.2596 Y15.5734
G01 X15.2596 Y17.3514
G01 X15.2590 Y17.3637
G01 X15.2572 Y17.3758
G01 X15.2542 Y17.3877
G01 X15.2501 Y17.3992
G01 X15.2448 Y17.4103
G01 X15.2385 Y17.4208
G01 X15.2350 Y17.4259
G01 X15.2272 Y17.4353
G01 X15.2185 Y17.4440
G01 X15.2091 Y17.4518
G01 X15.1989 Y17.4586
G01 X15.1880 Y17.4644
G01 X15.1767 Y17.4691
G01 X15.1650 Y17.4727
G01 X15.1529 Y17.4750
G01 X15.1407 Y17.4762
G01 X15.1346 Y17.4764
G01 X13.3505 Y17.4762
G01 X13.3443 Y17.4758
G01 X13.3322 Y17.4740
G01 X13.3203 Y17.4710
G01 X13.3145 Y17.4691
G01 X13.3032 Y17.4644
G01 X13.2923 Y17.4586
G01 X13.2872 Y17.4553
G01 X13.2773 Y17.4480
G01 X13.2682 Y17.4398
G01 X13.2640 Y17.4353
G01 X13.2562 Y17.4259
G01 X13.2494 Y17.4157
G01 X13.2464 Y17.4103
G01 X13.2411 Y17.3992
G01 X13.2370 Y17.3877
G01 X13.2353 Y17.3818
G01 X13.2330 Y17.3697
G01 X13.2322 Y17.3637
G01 X13.2316 Y17.3514
G01 X13.2316 Y15.5734
G01 X13.2322 Y15.5611
G01 X13.2340 Y15.5490
G01 X13.2353 Y15.5430
G01 X13.2370 Y15.5371
G01 X13.2411 Y15.5256
G01 X13.2436 Y15.5200
G01 X13.2494 Y15.5091
G01 X13.2527 Y15.5040
G01 X13.2600 Y15.4941
G01 X13.2682 Y15.4850
G01 X13.2727 Y15.4808
G01 X13.2821 Y15.4730
G01 X13.2872 Y15.4695
G01 X13.2977 Y15.4632
G01 X13.3032 Y15.4604
G01 X13.3145 Y15.4557
G01 X13.3262 Y15.4521
G01 X13.3322 Y15.4508
G01 X13.3443 Y15.4490
G01 X13.3566 Y15.4484
G01 X13.7394 Y15.4484
G01 X13.7394 Y11.1689
G01 X13.3439 Y11.1689
G01 X13.3316 Y11.1683
G01 X13.3195 Y11.1665
G01 X13.3076 Y11.1635
G01 X13.3018 Y11.1616
G01 X13.2905 Y11.1569
G01 X13.2796 Y11.1511
G01 X13.2694 Y11.1443
G01 X13.2600 Y11.1365
G01 X13.2513 Y11.1278
G01 X13.2435 Y11.1184
G01 X13.2367 Y11.1082
G01 X13.2309 Y11.0973
G01 X13.2262 Y11.0860
G01 X13.2226 Y11.0743
G01 X13.2213 Y11.0683
G01 X13.2195 Y11.0562
G01 X13.2189 Y11.0439
G01 X13.2189 Y10.9786
G01 X12.7323 Y10.9786
G01 X12.7323 Y11.0439
G01 X12.7321 Y11.0500
G01 X12.7309 Y11.0622
G01 X12.7286 Y11.0743
G01 X12.7250 Y11.0860
G01 X12.7203 Y11.0973
G01 X12.7175 Y11.1028
G01 X12.7112 Y11.1133
G01 X12.7039 Y11.1232
G01 X12.6957 Y11.1323
G01 X12.6912 Y11.1365
G01 X12.6818 Y11.1443
G01 X12.6716 Y11.1511
G01 X12.6662 Y11.1541
G01 X12.6551 Y11.1594
G01 X12.6436 Y11.1635
G01 X12.6377 Y11.1652
G01 X12.6317 Y11.1665
G01 X12.6196 Y11.1683
G01 X12.6073 Y11.1689
G01 X10.8039 Y11.1689
G01 X10.7916 Y11.1683
G01 X10.7856 Y11.1675
G01 X10.7735 Y11.1652
G01 X10.7618 Y11.1616
G01 X10.7561 Y11.1594
G01 X10.7450 Y11.1541
G01 X10.7345 Y11.1478
G01 X10.7246 Y11.1405
G01 X10.7200 Y11.1365
G01 X10.7113 Y11.1278
G01 X10.7035 Y11.1184
G01 X10.6967 Y11.1082
G01 X10.6909 Y11.0973
G01 X10.6862 Y11.0860
G01 X10.6826 Y11.0743
G01 X10.6803 Y11.0622
G01 X10.6795 Y11.0562
G01 X10.6789 Y11.0439
G01 X10.6789 Y10.9786
G01 X10.1923 Y10.9786
G01 X10.1921 Y11.1500
G01 X10.1917 Y11.1562
G01 X10.1899 Y11.1683
G01 X10.1869 Y11.1802
G01 X10.1828 Y11.1917
G01 X10.1803 Y11.1973
G01 X10.1745 Y11.2082
G01 X10.1712 Y11.2133
G01 X10.1639 Y11.2232
G01 X10.1557 Y11.2323
G01 X10.1466 Y11.2405
G01 X10.1418 Y11.2443
G01 X10.1316 Y11.2511
G01 X10.1262 Y11.2541
G01 X10.1207 Y11.2569
G01 X10.1094 Y11.2616
G01 X10.1036 Y11.2635
G01 X10.0917 Y11.2665
G01 X10.0796 Y11.2683
G01 X10.0734 Y11.2687
G01 X8.2578 Y11.2687
G01 X8.2456 Y11.2675
G01 X8.2335 Y11.2652
G01 X8.2218 Y11.2616
G01 X8.2105 Y11.2569
G01 X8.1996 Y11.2511
G01 X8.1894 Y11.2443
G01 X8.1800 Y11.2365
G01 X8.1713 Y11.2278
G01 X8.1635 Y11.2184
G01 X8.1567 Y11.2082
G01 X8.1509 Y11.1973
G01 X8.1462 Y11.1860
G01 X8.1426 Y11.1743
G01 X8.1413 Y11.1683
G01 X8.1395 Y11.1562
G01 X8.1389 Y11.1439
G00 Z0.8000
G00 X7.1318 Y11.9051
G01 F80.00
G01 Z-0.0100
G01 F180.00
G01 X7.1318 Y11.9012
G01 X7.5962 Y11.9012
G01 X7.5962 Y12.4257
G01 X7.5923 Y12.4257
G01 X7.5923 Y12.0301
G01 X7.5917 Y12.0178
G01 X7.5909 Y12.0118
G01 X7.5886 Y11.9997
G01 X7.5869 Y11.9938
G01 X7.5828 Y11.9823
G01 X7.5775 Y11.9712
G01 X7.5712 Y11.9607
G01 X7.5677 Y11.9556
G01 X7.5599 Y11.9462
G01 X7.5512 Y11.9375
G01 X7.5466 Y11.9335
G01 X7.5367 Y11.9262
G01 X7.5262 Y11.9199
G01 X7.5151 Y11.9146
G01 X7.5036 Y11.9105
G01 X7.4917 Y11.9075
G01 X7.4796 Y11.9057
G01 X7.4673 Y11.9051
G01 X7.1318 Y11.9051
G00 Z0.8000
G00 X7.4673 Y13.3997
G01 F80.00
G01 Z-0.0100
G01 F180.00
G01 X7.4796 Y13.3991
G01 X7.4917 Y13.3973
G01 X7.4977 Y13.3960
G01 X7.5094 Y13.3924
G01 X7.5207 Y13.3877
G01 X7.5316 Y13.3819
G01 X7.5367 Y13.3786
G01 X7.5466 Y13.3713
G01 X7.5557 Y13.3631
G01 X7.5639 Y13.3540
G01 X7.5677 Y13.3492
G01 X7.5745 Y13.3390
G01 X7.5775 Y13.3336
G01 X7.5828 Y13.3225
G01 X7.5850 Y13.3168
G01 X7.5886 Y13.3051
G01 X7.5909 Y13.2930
G01 X7.5921 Y13.2808
G01 X7.5923 Y13.2747
G01 X7.5923 Y12.8791
G01 X7.5962 Y12.8791
G01 X7.5962 Y13.4036
G01 X6.7923 Y13.4036
G01 X6.7923 Y13.3997
G01 X7.4673 Y13.3997
G00 Z0.8000
G00 X5.5350 Y13.1586
G01 F80.00
G01 Z-0.0100
G01 F180.00
G01 X5.5389 Y13.1586
G01 X5.5389 Y13.2747
G01 X5.5395 Y13.2870
G01 X5.5403 Y13.2930
G01 X5.5426 Y13.3051
G01 X5.5443 Y13.3110
G01 X5.5484 Y13.3225
G01 X5.5537 Y13.3336
G01 X5.5600 Y13.3441
G01 X5.5635 Y13.3492
G01 X5.5713 Y13.3586
G01 X5.5800 Y13.3673
G01 X5.5894 Y13.3751
G01 X5.5945 Y13.3786
G01 X5.6050 Y13.3849
G01 X5.6161 Y13.3902
G01 X5.6276 Y13.3943
G01 X5.6335 Y13.3960
G01 X5.6456 Y13.3983
G01 X5.6516 Y13.3991
G01 X5.6639 Y13.3997
G01 X6.3389 Y13.3997
G01 X6.3389 Y13.4036
G01 X5.5350 Y13.4036
G01 X5.5350 Y13.1586
G00 Z0.8000
G00 X5.5350 Y12.1462
G01 F80.00
G01 Z-0.0100
G01 F180.00
G01 X5.5350 Y11.9012
G01 X6.1194 Y11.9012
G01 X6.1194 Y11.9051
G01 X5.6578 Y11.9053
G01 X5.6516 Y11.9057
G01 X5.6395 Y11.9075
G01 X5.6276 Y11.9105
G01 X5.6161 Y11.9146
G01 X5.6050 Y11.9199
G01 X5.5945 Y11.9262
G01 X5.5846 Y11.9335
G01 X5.5755 Y11.9417
G01 X5.5673 Y11.9508
G01 X5.5635 Y11.9556
G01 X5.5567 Y11.9658
G01 X5.5509 Y11.9767
G01 X5.5462 Y11.9880
G01 X5.5426 Y11.9997
G01 X5.5413 Y12.0057
G01 X5.5403 Y12.0118
G01 X5.5391 Y12.0240
G01 X5.5389 Y12.1462
G01 X5.5350 Y12.1462
G00 Z0.8000
G00 X4.3396 Y15.3214
G01 F80.00
G01 Z-0.0100
G01 F180.00
G01 X6.3716 Y15.3214
G01 X6.3777 Y15.3216
G01 X6.3899 Y15.3228
G01 X6.3960 Y15.3238
G01 X6.4079 Y15.3268
G01 X6.4137 Y15.3287
G01 X6.4250 Y15.3334
G01 X6.4359 Y15.3392
G01 X6.4410 Y15.3425
G01 X6.4509 Y15.3498
G01 X6.4555 Y15.3538
G01 X6.4600 Y15.3580
G01 X6.4682 Y15.3671
G01 X6.4720 Y15.3719
G01 X6.4788 Y15.3821
G01 X6.4846 Y15.3930
G01 X6.4871 Y15.3986
G01 X6.4912 Y15.4101
G01 X6.4929 Y15.4160
G01 X6.4952 Y15.4281
G01 X6.4964 Y15.4403
G01 X6.4966 Y15.4464
G01 X6.4966 Y15.9562
G01 X8.1389 Y15.9562
G01 X8.1389 Y15.8909
G01 X8.1395 Y15.8786
G01 X8.1403 Y15.8726
G01 X8.1426 Y15.8605
G01 X8.1462 Y15.8488
G01 X8.1509 Y15.8375
G01 X8.1567 Y15.8266
G01 X8.1635 Y15.8164
G01 X8.1713 Y15.8070
G01 X8.1800 Y15.7983
G01 X8.1894 Y15.7905
G01 X8.1996 Y15.7837
G01 X8.2105 Y15.7779
G01 X8.2218 Y15.7732
G01 X8.2276 Y15.7713
G01 X8.2395 Y15.7683
G01 X8.2516 Y15.7665
G01 X8.2639 Y15.7659
G01 X8.6594 Y15.7659
G01 X8.6594 Y13.3997
G01 X8.2639 Y13.3997
G01 X8.2516 Y13.3991
G01 X8.2456 Y13.3983
G01 X8.2395 Y13.3973
G01 X8.2276 Y13.3943
G01 X8.2161 Y13.3902
G01 X8.2105 Y13.3877
G01 X8.1996 Y13.3819
G01 X8.1894 Y13.3751
G01 X8.1846 Y13.3713
G01 X8.1755 Y13.3631
G01 X8.1713 Y13.3586
G01 X8.1635 Y13.3492
G01 X8.1600 Y13.3441
G01 X8.1567 Y13.3390
G01 X8.1509 Y13.3281
G01 X8.1462 Y13.3168
G01 X8.1426 Y13.3051
G01 X8.1403 Y13.2930
G01 X8.1391 Y13.2808
G01 X8.1389 Y13.2747
G01 X8.1389 Y12.0301
G01 X8.1395 Y12.0178
G01 X8.1413 Y12.0057
G01 X8.1426 Y11.9997
G01 X8.1462 Y11.9880
G01 X8.1509 Y11.9767
G01 X8.1537 Y11.9712
G01 X8.1600 Y11.9607
G01 X8.1635 Y11.9556
G01 X8.1713 Y11.9462
G01 X8.1755 Y11.9417
G01 X8.1800 Y11.9375
G01 X8.1894 Y11.9297
G01 X8.1945 Y11.9262
G01 X8.2050 Y11.9199
G01 X8.2105 Y11.9171
G01 X8.2218 Y11.9124
G01 X8.2276 Y11.9105
G01 X8.2395 Y11.9075
G01 X8.2516 Y11.9057
G01 X8.2578 Y11.9053
G01 X10.0673 Y11.9051
G01 X10.0796 Y11.9057
G01 X10.0917 Y11.9075
G01 X10.0977 Y11.9088
G01 X10.1036 Y11.9105
G01 X10.1151 Y11.9146
G01 X10.1262 Y11.9199
G01 X10.1367 Y11.9262
G01 X10.1418 Y11.9297
G01 X10.1512 Y11.9375
G01 X10.1599 Y11.9462
G01 X10.1639 Y11.9508
G01 X10.1677 Y11.9556
G01 X10.1745 Y11.9658
G01 X10.1775 Y11.9712
G01 X10.1828 Y11.9823
G01 X10.1850 Y11.9880
G01 X10.1886 Y11.9997
G01 X10.1909 Y12.0118
G01 X10.1921 Y12.0240
G01 X10.1923 Y13.2747
G01 X10.1921 Y13.2808
G01 X10.1909 Y13.2930
G01 X10.1886 Y13.3051
G01 X10.1869 Y13.3110
G01 X10.1850 Y13.3168
G01 X10.1803 Y13.3281
G01 X10.1775 Y13.3336
G01 X10.1712 Y13.3441
G01 X10.1639 Y13.3540
G01 X10.1599 Y13.3586
G01 X10.1512 Y13.3673
G01 X10.1466 Y13.3713
G01 X10.1367 Y13.3786
G01 X10.1262 Y13.3849
G01 X10.1207 Y13.3877
G01 X10.1151 Y13.3902
G01 X10.1036 Y13.3943
G01 X10.0977 Y13.3960
G01 X10.0856 Y13.3983
G01 X10.0734 Y13.3995
G01 X10.0673 Y13.3997
G01 X9.6718 Y13.3997
G01 X9.6718 Y15.7659
G01 X10.0673 Y15.7659
G01 X10.0796 Y15.7665
G01 X10.0917 Y15.7683
G01 X10.1036 Y15.7713
G01 X10.1094 Y15.7732
G01 X10.1207 Y15.7779
G01 X10.1316 Y15.7837
G01 X10.1418 Y15.7905
G01 X10.1512 Y15.7983
G01 X10.1599 Y15.8070
G01 X10.1677 Y15.8164
G01 X10.1745 Y15.8266
G01 X10.1803 Y15.8375
G01 X10.1828 Y15.8431
G01 X10.1869 Y15.8546
G01 X10.1899 Y15.8665
G01 X10.1917 Y15.8786
G01 X10.1923 Y15.8909
G01 X10.1923 Y15.9562
G01 X10.6916 Y15.9562
G01 X10.6916 Y15.5734
G01 X10.6922 Y15.5611
G01 X10.6940 Y15.5490
G01 X10.6970 Y15.5371
G01 X10.6989 Y15.5313
G01 X10.7011 Y15.5256
G01 X10.7064 Y15.5145
G01 X10.7127 Y15.5040
G01 X10.7162 Y15.4989
G01 X10.7240 Y15.4895
G01 X10.7327 Y15.4808
G01 X10.7373 Y15.4768
G01 X10.7472 Y15.4695
G01 X10.7523 Y15.4662
G01 X10.7632 Y15.4604
G01 X10.7688 Y15.4579
G01 X10.7803 Y15.4538
G01 X10.7862 Y15.4521
G01 X10.7983 Y15.4498
G01 X10.8105 Y15.4486
G01 X10.8166 Y15.4484
G01 X12.5946 Y15.4484
G01 X12.6007 Y15.4486
G01 X12.6129 Y15.4498
G01 X12.6250 Y15.4521
G01 X12.6309 Y15.4538
G01 X12.6424 Y15.4579
G01 X12.6535 Y15.4632
G01 X12.6640 Y15.4695
G01 X12.6691 Y15.4730
G01 X12.6785 Y15.4808
G01 X12.6830 Y15.4850
G01 X12.6912 Y15.4941
G01 X12.6985 Y15.5040
G01 X12.7018 Y15.5091
G01 X12.7076 Y15.5200
G01 X12.7101 Y15.5256
G01 X12.7142 Y15.5371
G01 X12.7172 Y15.5490
G01 X12.7182 Y15.5551
G01 X12.7194 Y15.5673
G01 X12.7196 Y17.3514
G01 X12.7194 Y17.3575
G01 X12.7182 Y17.3697
G01 X12.7159 Y17.3818
G01 X12.7123 Y17.3935
G01 X12.7101 Y17.3992
G01 X12.7048 Y17.4103
G01 X12.6985 Y17.4208
G01 X12.6950 Y17.4259
G01 X12.6872 Y17.4353
G01 X12.6785 Y17.4440
G01 X12.6739 Y17.4480
G01 X12.6640 Y17.4553
G01 X12.6589 Y17.4586
G01 X12.6480 Y17.4644
G01 X12.6367 Y17.4691
G01 X12.6309 Y17.4710
G01 X12.6190 Y17.4740
G01 X12.6129 Y17.4750
G01 X12.6007 Y17.4762
G01 X10.8166 Y17.4764
G01 X10.8043 Y17.4758
G01 X10.7922 Y17.4740
G01 X10.7803 Y17.4710
G01 X10.7745 Y17.4691
G01 X10.7632 Y17.4644
G01 X10.7577 Y17.4616
G01 X10.7523 Y17.4586
G01 X10.7421 Y17.4518
G01 X10.7327 Y17.4440
G01 X10.7282 Y17.4398
G01 X10.7240 Y17.4353
G01 X10.7162 Y17.4259
G01 X10.7094 Y17.4157
G01 X10.7064 Y17.4103
G01 X10.7036 Y17.4048
G01 X10.6989 Y17.3935
G01 X10.6970 Y17.3877
G01 X10.6940 Y17.3758
G01 X10.6922 Y17.3637
G01 X10.6916 Y17.3514
G01 X10.6916 Y16.9686
G01 X10.1923 Y16.9686
G01 X10.1923 Y17.0339
G01 X10.1917 Y17.0462
G01 X10.1909 Y17.0522
G01 X10.1886 Y17.0643
G01 X10.1850 Y17.0760
G01 X10.1828 Y17.0817
G01 X10.1775 Y17.0928
G01 X10.1712 Y17.1033
G01 X10.1639 Y17.1132
G01 X10.1557 Y17.1223
G01 X10.1512 Y17.1265
G01 X10.1418 Y17.1343
G01 X10.1367 Y17.1378
G01 X10.1262 Y17.1441
G01 X10.1207 Y17.1469
G01 X10.1094 Y17.1516
G01 X10.0977 Y17.1552
G01 X10.0856 Y17.1575
G01 X10.0734 Y17.1587
G01 X10.0673 Y17.1589
G01 X8.2578 Y17.1587
G01 X8.2456 Y17.1575
G01 X8.2395 Y17.1565
G01 X8.2276 Y17.1535
G01 X8.2218 Y17.1516
G01 X8.2105 Y17.1469
G01 X8.1996 Y17.1411
G01 X8.1894 Y17.1343
G01 X8.1800 Y17.1265
G01 X8.1755 Y17.1223
G01 X8.1673 Y17.1132
G01 X8.1635 Y17.1084
G01 X8.1567 Y17.0982
G01 X8.1509 Y17.0873
G01 X8.1462 Y17.0760
G01 X8.1426 Y17.0643
G01 X8.1403 Y17.0522
G01 X8.1395 Y17.0462
G01 X8.1389 Y17.0339
G01 X8.1389 Y16.9686
G01 X6.4966 Y16.9686
G01 X6.4966 Y17.4784
G01 X6.4964 Y17.4845
G01 X6.4952 Y17.4967
G01 X6.4942 Y17.5028
G01 X6.4912 Y17.5147
G01 X6.4893 Y17.5205
G01 X6.4846 Y17.5318
G01 X6.4788 Y17.5427
G01 X6.4720 Y17.5529
G01 X6.4682 Y17.5577
G01 X6.4600 Y17.5668
G01 X6.4555 Y17.5710
G01 X6.4461 Y17.5788
G01 X6.4410 Y17.5823
G01 X6.4359 Y17.5856
G01 X6.4250 Y17.5914
G01 X6.4194 Y17.5939
G01 X6.4079 Y17.5980
G01 X6.3960 Y17.6010
G01 X6.3899 Y17.6020
G01 X6.3839 Y17.6028
G01 X6.3716 Y17.6034
G01 X4.3396 Y17.6034
G01 X4.3273 Y17.6028
G01 X4.3152 Y17.6010
G01 X4.3092 Y17.5997
G01 X4.3033 Y17.5980
G01 X4.2918 Y17.5939
G01 X4.2807 Y17.5886
G01 X4.2702 Y17.5823
G01 X4.2651 Y17.5788
G01 X4.2557 Y17.5710
G01 X4.2512 Y17.5668
G01 X4.2430 Y17.5577
G01 X4.2357 Y17.5478
G01 X4.2294 Y17.5373
G01 X4.2266 Y17.5318
G01 X4.2219 Y17.5205
G01 X4.2183 Y17.5088
G01 X4.2170 Y17.5028
G01 X4.2152 Y17.4907
G01 X4.2148 Y17.4845
G01 X4.2146 Y15.4464
G01 X4.2152 Y15.4341
G01 X4.2170 Y15.4220
G01 X4.2200 Y15.4101
G01 X4.2241 Y15.3986
G01 X4.2294 Y15.3875
G01 X4.2357 Y15.3770
G01 X4.2430 Y15.3671
G01 X4.2512 Y15.3580
G01 X4.2603 Y15.3498
G01 X4.2702 Y15.3425
G01 X4.2807 Y15.3362
G01 X4.2918 Y15.3309
G01 X4.3033 Y15.3268
G01 X4.3152 Y15.3238
G01 X4.3273 Y15.3220
G01 X4.3396 Y15.3214
G00 Z0.8000
G00 X4.3396 Y17.8614
G01 F80.00
G01 Z-0.0100
G01 F180.00
G01 X6.3716 Y17.8614
G01 X6.3777 Y17.8616
G01 X6.3899 Y17.8628
G01 X6.4020 Y17.8651
G01 X6.4079 Y17.8668
G01 X6.4194 Y17.8709
G01 X6.4250 Y17.8734
G01 X6.4305 Y17.8762
G01 X6.4410 Y17.8825
G01 X6.4461 Y17.8860
G01 X6.4555 Y17.8938
G01 X6.4642 Y17.9025
G01 X6.4682 Y17.9071
G01 X6.4755 Y17.9170
G01 X6.4788 Y17.9221
G01 X6.4846 Y17.9330
G01 X6.4871 Y17.9386
G01 X6.4912 Y17.9501
G01 X6.4942 Y17.9620
G01 X6.4952 Y17.9681
G01 X6.4964 Y17.9803
G01 X6.4966 Y17.9864
G01 X6.4966 Y18.4962
G01 X8.8056 Y18.4962
G01 X8.8274 Y18.4967
G01 X8.8522 Y18.4984
G01 X8.8768 Y18.5013
G01 X8.9013 Y18.5054
G01 X8.9256 Y18.5107
G01 X8.9496 Y18.5172
G01 X8.9790 Y18.5269
G01 X9.0021 Y18.5359
G01 X9.0248 Y18.5462
G01 X9.0469 Y18.5575
G01 X9.0684 Y18.5698
G01 X9.0894 Y18.5833
G01 X9.1096 Y18.5977
G01 X9.1291 Y18.6131
G01 X9.1432 Y18.6253
G01 X9.1613 Y18.6423
G01 X9.1850 Y18.6659
G01 X10.0673 Y18.6659
G01 X10.0734 Y18.6661
G01 X10.0856 Y18.6673
G01 X10.0917 Y18.6683
G01 X10.1036 Y18.6713
G01 X10.1094 Y18.6732
G01 X10.1207 Y18.6779
G01 X10.1262 Y18.6807
G01 X10.1367 Y18.6870
G01 X10.1466 Y18.6943
G01 X10.1512 Y18.6983
G01 X10.1599 Y18.7070
G01 X10.1639 Y18.7116
G01 X10.1677 Y18.7164
G01 X10.1745 Y18.7266
G01 X10.1803 Y18.7375
G01 X10.1828 Y18.7431
G01 X10.1869 Y18.7546
G01 X10.1886 Y18.7605
G01 X10.1899 Y18.7665
G01 X10.1917 Y18.7786
G01 X10.1923 Y18.7909
G01 X10.1923 Y19.5619
G01 X11.1994 Y19.5619
G01 X11.1994 Y19.2389
G01 X10.8039 Y19.2389
G01 X10.7916 Y19.2383
G01 X10.7856 Y19.2375
G01 X10.7795 Y19.2365
G01 X10.7676 Y19.2335
G01 X10.7618 Y19.2316
G01 X10.7505 Y19.2269
G01 X10.7396 Y19.2211
G01 X10.7345 Y19.2178
G01 X10.7246 Y19.2105
G01 X10.7155 Y19.2023
G01 X10.7113 Y19.1978
G01 X10.7035 Y19.1884
G01 X10.7000 Y19.1833
G01 X10.6937 Y19.1728
G01 X10.6909 Y19.1673
G01 X10.6884 Y19.1617
G01 X10.6843 Y19.1502
G01 X10.6826 Y19.1443
G01 X10.6803 Y19.1322
G01 X10.6795 Y19.1262
G01 X10.6789 Y19.1139
G01 X10.6791 Y17.9648
G01 X10.6803 Y17.9526
G01 X10.6826 Y17.9405
G01 X10.6862 Y17.9288
G01 X10.6884 Y17.9231
G01 X10.6937 Y17.9120
G01 X10.7000 Y17.9015
G01 X10.7073 Y17.8916
G01 X10.7113 Y17.8870
G01 X10.7200 Y17.8783
G01 X10.7294 Y17.8705
G01 X10.7396 Y17.8637
G01 X10.7505 Y17.8579
G01 X10.7561 Y17.8554
G01 X10.7676 Y17.8513
G01 X10.7795 Y17.8483
G01 X10.7856 Y17.8473
G01 X10.7978 Y17.8461
G01 X10.8039 Y17.8459
G01 X12.6134 Y17.8461
G01 X12.6256 Y17.8473
G01 X12.6377 Y17.8496
G01 X12.6494 Y17.8532
G01 X12.6551 Y17.8554
G01 X12.6662 Y17.8607
G01 X12.6767 Y17.8670
G01 X12.6866 Y17.8743
G01 X12.6912 Y17.8783
G01 X12.6999 Y17.8870
G01 X12.7077 Y17.8964
G01 X12.7145 Y17.9066
G01 X12.7203 Y17.9175
G01 X12.7250 Y17.9288
G01 X12.7286 Y17.9405
G01 X12.7299 Y17.9465
G01 X12.7317 Y17.9586
G01 X12.7323 Y17.9709
G01 X12.7323 Y19.1139
G01 X12.7317 Y19.1262
G01 X12.7309 Y19.1322
G01 X12.7286 Y19.1443
G01 X12.7269 Y19.1502
G01 X12.7228 Y19.1617
G01 X12.7203 Y19.1673
G01 X12.7145 Y19.1782
G01 X12.7077 Y19.1884
G01 X12.7039 Y19.1932
G01 X12.6999 Y19.1978
G01 X12.6912 Y19.2065
G01 X12.6818 Y19.2143
G01 X12.6767 Y19.2178
G01 X12.6716 Y19.2211
G01 X12.6607 Y19.2269
G01 X12.6551 Y19.2294
G01 X12.6436 Y19.2335
G01 X12.6317 Y19.2365
G01 X12.6196 Y19.2383
G01 X12.6073 Y19.2389
G01 X12.2118 Y19.2389
G01 X12.2118 Y19.5619
G01 X26.2640 Y19.5619
G01 X26.2689 Y19.5535
G01 X26.2856 Y19.5271
G01 X26.3106 Y19.4916
G01 X26.3337 Y19.4623
G01 X26.3540 Y19.4387
G01 X26.3840 Y19.4073
G01 X26.4111 Y19.3817
G01 X26.4347 Y19.3613
G01 X26.4640 Y19.3382
G01 X26.4995 Y19.3132
G01 X26.5259 Y19.2965
G01 X26.5583 Y19.2780
G01 X26.5970 Y19.2585
G01 X26.6312 Y19.2435
G01 X26.6603 Y19.2323
G01 X26.7015 Y19.2187
G01 X26.7375 Y19.2089
G01 X26.7739 Y19.2009
G01 X26.8047 Y19.1955
G01 X26.8478 Y19.1902
G01 X26.8850 Y19.1876
G01 X26.9223 Y19.1868
G01 X26.9534 Y19.1876
G01 X26.9906 Y19.1902
G01 X27.0277 Y19.1946
G01 X27.0645 Y19.2009
G01 X27.1009 Y19.2089
G01 X27.1369 Y19.2187
G01 X27.1723 Y19.2302
G01 X27.2072 Y19.2435
G01 X27.2469 Y19.2611
G01 X27.2801 Y19.2780
G01 X27.3125 Y19.2965
G01 X27.3440 Y19.3166
G01 X27.3744 Y19.3382
G01 X27.4037 Y19.3613
G01 X27.4318 Y19.3858
G01 X27.4587 Y19.4116
G01 X27.4844 Y19.4387
G01 X27.5086 Y19.4671
G01 X27.5314 Y19.4966
G01 X27.5528 Y19.5271
G01 X27.5726 Y19.5587
G01 X27.5909 Y19.5913
G01 X27.6049 Y19.6191
G01 X27.6201 Y19.6532
G01 X27.6337 Y19.6879
G01 X27.6455 Y19.7233
G01 X27.6556 Y19.7592
G01 X27.6640 Y19.7955
G01 X27.6705 Y19.8323
G01 X27.6752 Y19.8693
G01 X27.6781 Y19.9065
G01 X27.6792 Y19.9437
G01 X27.6784 Y19.9810
G01 X27.6758 Y20.0182
G01 X27.6714 Y20.0553
G01 X27.6652 Y20.0921
G01 X27.6571 Y20.1285
G01 X27.6473 Y20.1645
G01 X27.6337 Y20.2057
G01 X27.6201 Y20.2405
G01 X27.6049 Y20.2745
G01 X27.5909 Y20.3023
G01 X27.5726 Y20.3349
G01 X27.5528 Y20.3665
G01 X27.5314 Y20.3971
G01 X27.5086 Y20.4266
G01 X27.4844 Y20.4549
G01 X27.4587 Y20.4820
G01 X27.4318 Y20.5078
G01 X27.4037 Y20.5323
G01 X27.3744 Y20.5554
G01 X27.3440 Y20.5770
G01 X27.3125 Y20.5971
G01 X27.2747 Y20.6185
G01 X27.2414 Y20.6351
G01 X27.2072 Y20.6501
G01 X27.1781 Y20.6613
G01 X27.1427 Y20.6732
G01 X27.1068 Y20.6833
G01 X27.0705 Y20.6916
G01 X27.0337 Y20.6981
G01 X26.9967 Y20.7028
G01 X26.9596 Y20.7057
G01 X26.9223 Y20.7068
G01 X26.8788 Y20.7057
G01 X26.8417 Y20.7028
G01 X26.8047 Y20.6981
G01 X26.7679 Y20.6916
G01 X26.7375 Y20.6847
G01 X26.6957 Y20.6732
G01 X26.6603 Y20.6613
G01 X26.6312 Y20.6501
G01 X26.5915 Y20.6325
G01 X26.5637 Y20.6185
G01 X26.5311 Y20.6002
G01 X26.4995 Y20.5804
G01 X26.4906 Y20.5743
G01 X9.8713 Y20.5743
G01 X9.8434 Y20.5735
G01 X9.8186 Y20.5715
G01 X9.8001 Y20.5692
G01 X9.7696 Y20.5639
G01 X9.7453 Y20.5583
G01 X9.7273 Y20.5534
G01 X9.6979 Y20.5436
G01 X9.6748 Y20.5346
G01 X9.6521 Y20.5244
G01 X9.6354 Y20.5159
G01 X9.6085 Y20.5007
G01 X9.5927 Y20.4907
G01 X9.5723 Y20.4765
G01 X9.5478 Y20.4574
G01 X9.5291 Y20.4411
G01 X9.5134 Y20.4260
G01 X9.1462 Y20.0589
G01 X8.2639 Y20.0589
G01 X8.2516 Y20.0583
G01 X8.2395 Y20.0565
G01 X8.2335 Y20.0552
G01 X8.2218 Y20.0516
G01 X8.2161 Y20.0494
G01 X8.2105 Y20.0469
G01 X8.1996 Y20.0411
G01 X8.1894 Y20.0343
G01 X8.1846 Y20.0305
G01 X8.1755 Y20.0223
G01 X8.1673 Y20.0132
G01 X8.1600 Y20.0033
G01 X8.1537 Y19.9928
G01 X8.1509 Y19.9873
G01 X8.1462 Y19.9760
G01 X8.1443 Y19.9702
G01 X8.1413 Y19.9583
G01 X8.1395 Y19.9462
G01 X8.1389 Y19.9339
G01 X8.1389 Y19.5086
G01 X6.4966 Y19.5086
G01 X6.4966 Y20.0184
G01 X6.4964 Y20.0245
G01 X6.4952 Y20.0367
G01 X6.4942 Y20.0428
G01 X6.4912 Y20.0547
G01 X6.4871 Y20.0662
G01 X6.4846 Y20.0718
G01 X6.4788 Y20.0827
G01 X6.4720 Y20.0929
G01 X6.4642 Y20.1023
G01 X6.4600 Y20.1068
G01 X6.4555 Y20.1110
G01 X6.4461 Y20.1188
G01 X6.4410 Y20.1223
G01 X6.4305 Y20.1286
G01 X6.4250 Y20.1314
G01 X6.4137 Y20.1361
G01 X6.4020 Y20.1397
G01 X6.3899 Y20.1420
G01 X6.3839 Y20.1428
G01 X6.3716 Y20.1434
G01 X4.3396 Y20.1434
G01 X4.3273 Y20.1428
G01 X4.3152 Y20.1410
G01 X4.3033 Y20.1380
G01 X4.2918 Y20.1339
G01 X4.2862 Y20.1314
G01 X4.2753 Y20.1256
G01 X4.2651 Y20.1188
G01 X4.2557 Y20.1110
G01 X4.2470 Y20.1023
G01 X4.2392 Y20.0929
G01 X4.2324 Y20.0827
G01 X4.2294 Y20.0773
G01 X4.2241 Y20.0662
G01 X4.2219 Y20.0605
G01 X4.2183 Y20.0488
G01 X4.2160 Y20.0367
G01 X4.2148 Y20.0245
G01 X4.2146 Y17.9864
G01 X4.2152 Y17.9741
G01 X4.2170 Y17.9620
G01 X4.2200 Y17.9501
G01 X4.2241 Y17.9386
G01 X4.2294 Y17.9275
G01 X4.2357 Y17.9170
G01 X4.2430 Y17.9071
G01 X4.2512 Y17.8980
G01 X4.2603 Y17.8898
G01 X4.2702 Y17.8825
G01 X4.2807 Y17.8762
G01 X4.2918 Y17.8709
G01 X4.3033 Y17.8668
G01 X4.3152 Y17.8638
G01 X4.3273 Y17.8620
G01 X4.3396 Y17.8614
G00 Z0.8000
G00 X4.3396 Y20.4014
G01 F80.00
G01 Z-0.0100
G01 F180.00
G01 X4.3273 Y20.4020
G01 X4.3152 Y20.4038
G01 X4.3092 Y20.4051
G01 X4.2975 Y20.4087
G01 X4.2862 Y20.4134
G01 X4.2753 Y20.4192
G01 X4.2702 Y20.4225
G01 X4.2603 Y20.4298
G01 X4.2512 Y20.4380
G01 X4.2430 Y20.4471
G01 X4.2357 Y20.4570
G01 X4.2324 Y20.4621
G01 X4.2266 Y20.4730
G01 X4.2241 Y20.4786
G01 X4.2200 Y20.4901
G01 X4.2170 Y20.5020
G01 X4.2152 Y20.5141
G01 X4.2146 Y20.5264
G01 X4.2146 Y21.0362
G01 X4.2107 Y21.0362
G01 X4.2107 Y15.3175
G01 X6.5005 Y15.3175
G01 X6.5006 Y15.7289
G01 X6.5014 Y15.7450
G01 X6.5035 Y15.7621
G01 X6.5066 Y15.7779
G01 X6.5112 Y15.7945
G01 X6.5167 Y15.8097
G01 X6.5236 Y15.8255
G01 X6.5312 Y15.8397
G01 X6.5405 Y15.8543
G01 X6.5501 Y15.8672
G01 X6.5613 Y15.8803
G01 X6.5727 Y15.8917
G01 X6.5858 Y15.9029
G01 X6.5987 Y15.9125
G01 X6.6133 Y15.9218
G01 X6.6275 Y15.9294
G01 X6.6433 Y15.9363
G01 X6.6585 Y15.9418
G01 X6.6751 Y15.9464
G01 X6.6909 Y15.9495
G01 X6.7080 Y15.9516
G01 X6.7272 Y15.9525
G01 X7.9083 Y15.9525
G01 X7.9225 Y15.9520
G01 X7.9385 Y15.9504
G01 X7.9495 Y15.9487
G01 X7.9604 Y15.9464
G01 X7.9770 Y15.9418
G01 X7.9922 Y15.9363
G01 X8.0080 Y15.9294
G01 X8.0222 Y15.9218
G01 X8.0317 Y15.9159
G01 X8.0408 Y15.9097
G01 X8.0544 Y15.8990
G01 X8.0664 Y15.8882
G01 X8.0783 Y15.8757
G01 X8.0854 Y15.8672
G01 X8.0922 Y15.8583
G01 X8.1011 Y15.8449
G01 X8.1096 Y15.8299
G01 X8.1145 Y15.8199
G01 X8.1188 Y15.8097
G01 X8.1243 Y15.7945
G01 X8.1289 Y15.7779
G01 X8.1320 Y15.7620
G01 X8.4290 Y15.7620
G01 X8.4432 Y15.7615
G01 X8.4592 Y15.7599
G01 X8.4762 Y15.7570
G01 X8.4919 Y15.7531
G01 X8.5082 Y15.7476
G01 X8.5231 Y15.7415
G01 X8.5385 Y15.7337
G01 X8.5524 Y15.7254
G01 X8.5665 Y15.7155
G01 X8.5789 Y15.7053
G01 X8.5871 Y15.6977
G01 X8.5949 Y15.6898
G01 X8.6022 Y15.6814
G01 X8.6092 Y15.6728
G01 X8.6157 Y15.6638
G01 X8.6218 Y15.6544
G01 X8.6274 Y15.6448
G01 X8.6326 Y15.6350
G01 X8.6372 Y15.6249
G01 X8.6413 Y15.6145
G01 X8.6468 Y15.5982
G01 X8.6496 Y15.5874
G01 X8.6519 Y15.5765
G01 X8.6536 Y15.5655
G01 X8.6548 Y15.5545
G01 X8.6555 Y15.5434
G01 X8.6557 Y13.6303
G01 X8.6552 Y13.6161
G01 X8.6542 Y13.6050
G01 X8.6519 Y13.5891
G01 X8.6496 Y13.5782
G01 X8.6450 Y13.5616
G01 X8.6395 Y13.5464
G01 X8.6352 Y13.5362
G01 X8.6274 Y13.5208
G01 X8.6191 Y13.5069
G01 X8.6092 Y13.4928
G01 X8.5990 Y13.4804
G01 X8.5914 Y13.4722
G01 X8.5789 Y13.4603
G01 X8.5665 Y13.4501
G01 X8.5524 Y13.4402
G01 X8.5385 Y13.4319
G01 X8.5287 Y13.4267
G01 X8.5129 Y13.4198
G01 X8.4977 Y13.4143
G01 X8.4870 Y13.4112
G01 X8.4762 Y13.4086
G01 X8.4592 Y13.4057
G01 X8.4482 Y13.4045
G01 X8.4371 Y13.4038
G01 X8.1350 Y13.4036
G01 X8.1350 Y11.9012
G01 X10.1962 Y11.9012
G01 X10.1962 Y13.4036
G01 X9.8941 Y13.4038
G01 X9.8769 Y13.4051
G01 X9.8659 Y13.4066
G01 X9.8550 Y13.4086
G01 X9.8393 Y13.4125
G01 X9.8287 Y13.4159
G01 X9.8183 Y13.4198
G01 X9.8081 Y13.4241
G01 X9.7927 Y13.4319
G01 X9.7788 Y13.4402
G01 X9.7647 Y13.4501
G01 X9.7523 Y13.4603
G01 X9.7441 Y13.4679
G01 X9.7322 Y13.4804
G01 X9.7220 Y13.4928
G01 X9.7121 Y13.5069
G01 X9.7038 Y13.5208
G01 X9.6986 Y13.5306
G01 X9.6917 Y13.5464
G01 X9.6862 Y13.5616
G01 X9.6816 Y13.5782
G01 X9.6793 Y13.5891
G01 X9.6770 Y13.6050
G01 X9.6760 Y13.6161
G01 X9.6755 Y13.6303
G01 X9.6757 Y15.5434
G01 X9.6770 Y15.5606
G01 X9.6785 Y15.5716
G01 X9.6805 Y15.5825
G01 X9.6831 Y15.5933
G01 X9.6878 Y15.6088
G01 X9.6917 Y15.6192
G01 X9.6960 Y15.6294
G01 X9.7009 Y15.6394
G01 X9.7062 Y15.6492
G01 X9.7155 Y15.6638
G01 X9.7220 Y15.6728
G01 X9.7290 Y15.6814
G01 X9.7363 Y15.6898
G01 X9.7441 Y15.6977
G01 X9.7523 Y15.7053
G01 X9.7647 Y15.7155
G01 X9.7788 Y15.7254
G01 X9.7927 Y15.7337
G01 X9.8025 Y15.7389
G01 X9.8183 Y15.7458
G01 X9.8335 Y15.7513
G01 X9.8501 Y15.7559
G01 X9.8610 Y15.7582
G01 X9.8769 Y15.7605
G01 X9.8880 Y15.7615
G01 X9.9022 Y15.7620
G01 X10.1992 Y15.7620
G01 X10.2012 Y15.7730
G01 X10.2038 Y15.7838
G01 X10.2069 Y15.7945
G01 X10.2106 Y15.8050
G01 X10.2147 Y15.8154
G01 X10.2193 Y15.8255
G01 X10.2245 Y15.8353
G01 X10.2301 Y15.8449
G01 X10.2362 Y15.8543
G01 X10.2427 Y15.8633
G01 X10.2497 Y15.8719
G01 X10.2570 Y15.8803
G01 X10.2648 Y15.8882
G01 X10.2730 Y15.8958
G01 X10.2854 Y15.9060
G01 X10.2944 Y15.9125
G01 X10.3038 Y15.9186
G01 X10.3134 Y15.9242
G01 X10.3232 Y15.9294
G01 X10.3333 Y15.9340
G01 X10.3437 Y15.9381
G01 X10.3542 Y15.9418
G01 X10.3649 Y15.9449
G01 X10.3757 Y15.9475
G01 X10.3927 Y15.9504
G01 X10.4037 Y15.9516
G01 X10.4148 Y15.9523
G01 X10.4610 Y15.9525
G01 X10.4802 Y15.9516
G01 X10.4973 Y15.9495
G01 X10.5131 Y15.9464
G01 X10.5297 Y15.9418
G01 X10.5449 Y15.9363
G01 X10.5551 Y15.9320
G01 X10.5705 Y15.9242
G01 X10.5844 Y15.9159
G01 X10.5985 Y15.9060
G01 X10.6109 Y15.8958
G01 X10.6191 Y15.8882
G01 X10.6310 Y15.8757
G01 X10.6412 Y15.8633
G01 X10.6511 Y15.8492
G01 X10.6594 Y15.8353
G01 X10.6646 Y15.8255
G01 X10.6715 Y15.8097
G01 X10.6770 Y15.7945
G01 X10.6801 Y15.7838
G01 X10.6827 Y15.7730
G01 X10.6856 Y15.7560
G01 X10.6868 Y15.7450
G01 X10.6875 Y15.7339
G01 X10.6877 Y15.4445
G01 X12.7235 Y15.4445
G01 X12.7235 Y17.6153
G01 X12.7244 Y17.6345
G01 X12.7265 Y17.6516
G01 X12.7285 Y17.6625
G01 X12.7311 Y17.6733
G01 X12.7362 Y17.6900
G01 X12.7362 Y19.3315
G01 X12.7367 Y19.3457
G01 X12.7377 Y19.3568
G01 X12.7400 Y19.3727
G01 X12.7438 Y19.3896
G01 X12.7469 Y19.4002
G01 X12.7506 Y19.4108
G01 X12.7567 Y19.4256
G01 X12.7645 Y19.4411
G01 X12.7701 Y19.4507
G01 X12.7762 Y19.4600
G01 X12.7858 Y19.4729
G01 X12.7970 Y19.4860
G01 X12.8084 Y19.4974
G01 X12.8168 Y19.5047
G01 X12.8254 Y19.5117
G01 X12.8395 Y19.5216
G01 X12.8534 Y19.5299
G01 X12.8688 Y19.5377
G01 X12.8837 Y19.5439
G01 X12.8942 Y19.5475
G01 X12.9049 Y19.5506
G01 X12.9217 Y19.5544
G01 X12.9376 Y19.5567
G01 X12.9548 Y19.5580
G01 X12.9914 Y19.5581
G01 X13.0075 Y19.5573
G01 X13.0246 Y19.5552
G01 X13.0404 Y19.5521
G01 X13.0512 Y19.5493
G01 X13.0618 Y19.5459
G01 X13.0779 Y19.5397
G01 X13.0924 Y19.5328
G01 X13.1074 Y19.5243
G01 X13.1168 Y19.5182
G01 X13.1258 Y19.5117
G01 X13.1382 Y19.5015
G01 X13.1507 Y19.4896
G01 X13.1583 Y19.4814
G01 X13.1654 Y19.4729
G01 X13.1750 Y19.4600
G01 X13.1843 Y19.4454
G01 X13.1896 Y19.4356
G01 X13.1965 Y19.4211
G01 X13.2027 Y19.4050
G01 X13.2074 Y19.3896
G01 X13.2100 Y19.3787
G01 X13.2129 Y19.3617
G01 X13.2145 Y19.3457
G01 X13.2150 Y19.3315
G01 X13.2150 Y17.6900
G01 X13.2201 Y17.6733
G01 X13.2227 Y17.6625
G01 X13.2247 Y17.6516
G01 X13.2268 Y17.6345
G01 X13.2277 Y17.6153
G01 X13.2277 Y15.4445
G01 X13.5090 Y15.4445
G01 X13.5232 Y15.4440
G01 X13.5392 Y15.4424
G01 X13.5502 Y15.4407
G01 X13.5611 Y15.4384
G01 X13.5719 Y15.4356
G01 X13.5825 Y15.4322
G01 X13.5986 Y15.4260
G01 X13.6131 Y15.4191
G01 X13.6281 Y15.4106
G01 X13.6415 Y15.4017
G01 X13.6504 Y15.3949
G01 X13.6635 Y15.3837
G01 X13.6714 Y15.3759
G01 X13.6822 Y15.3639
G01 X13.6929 Y15.3503
G01 X13.7018 Y15.3369
G01 X13.7103 Y15.3219
G01 X13.7172 Y15.3074
G01 X13.7213 Y15.2970
G01 X13.7268 Y15.2807
G01 X13.7307 Y15.2650
G01 X13.7336 Y15.2480
G01 X13.7352 Y15.2320
G01 X13.7357 Y15.2178
G01 X13.7357 Y11.3995
G01 X13.7352 Y11.3853
G01 X13.7336 Y11.3693
G01 X13.7307 Y11.3523
G01 X13.7268 Y11.3366
G01 X13.7213 Y11.3203
G01 X13.7172 Y11.3099
G01 X13.7103 Y11.2954
G01 X13.7018 Y11.2804
G01 X13.6957 Y11.2710
G01 X13.6892 Y11.2620
G01 X13.6822 Y11.2534
G01 X13.6749 Y11.2450
G01 X13.6671 Y11.2371
G01 X13.6589 Y11.2295
G01 X13.6504 Y11.2224
G01 X13.6415 Y11.2156
G01 X13.6324 Y11.2094
G01 X13.6185 Y11.2011
G01 X13.6087 Y11.1959
G01 X13.5986 Y11.1913
G01 X13.5882 Y11.1872
G01 X13.5777 Y11.1835
G01 X13.5670 Y11.1804
G01 X13.5562 Y11.1778
G01 X13.5453 Y11.1758
G01 X13.5343 Y11.1743
G01 X13.5232 Y11.1733
G01 X13.5121 Y11.1729
G01 X13.2120 Y11.1728
G01 X13.2089 Y11.1569
G01 X13.2061 Y11.1461
G01 X13.2027 Y11.1355
G01 X13.1965 Y11.1194
G01 X13.1919 Y11.1093
G01 X13.1867 Y11.0995
G01 X13.1811 Y11.0899
G01 X13.1750 Y11.0805
G01 X13.1685 Y11.0715
G01 X13.1615 Y11.0629
G01 X13.1507 Y11.0509
G01 X13.1428 Y11.0431
G01 X13.1344 Y11.0358
G01 X13.1208 Y11.0251
G01 X13.1117 Y11.0189
G01 X13.1022 Y11.0130
G01 X13.0880 Y11.0054
G01 X13.0779 Y11.0008
G01 X13.0675 Y10.9967
G01 X13.0570 Y10.9930
G01 X13.0463 Y10.9899
G01 X13.0295 Y10.9861
G01 X13.0185 Y10.9844
G01 X13.0075 Y10.9832
G01 X12.9883 Y10.9823
G01 X12.9548 Y10.9825
G01 X12.9376 Y10.9838
G01 X12.9266 Y10.9853
G01 X12.9157 Y10.9873
G01 X12.9000 Y10.9912
G01 X12.8894 Y10.9946
G01 X12.8790 Y10.9985
G01 X12.8688 Y11.0028
G01 X12.8588 Y11.0077
G01 X12.8490 Y11.0130
G01 X12.8395 Y11.0189
G01 X12.8254 Y11.0288
G01 X12.8168 Y11.0358
G01 X12.8084 Y11.0431
G01 X12.8005 Y11.0509
G01 X12.7929 Y11.0591
G01 X12.7858 Y11.0676
G01 X12.7790 Y11.0765
G01 X12.7728 Y11.0856
G01 X12.7669 Y11.0951
G01 X12.7616 Y11.1049
G01 X12.7567 Y11.1149
G01 X12.7524 Y11.1251
G01 X12.7485 Y11.1355
G01 X12.7451 Y11.1461
G01 X12.7423 Y11.1569
G01 X12.7392 Y11.1728
G01 X10.6720 Y11.1728
G01 X10.6689 Y11.1569
G01 X10.6661 Y11.1461
G01 X10.6627 Y11.1355
G01 X10.6588 Y11.1251
G01 X10.6545 Y11.1149
G01 X10.6496 Y11.1049
G01 X10.6443 Y11.0951
G01 X10.6384 Y11.0856
G01 X10.6322 Y11.0765
G01 X10.6254 Y11.0676
G01 X10.6183 Y11.0591
G01 X10.6107 Y11.0509
G01 X10.6028 Y11.0431
G01 X10.5944 Y11.0358
G01 X10.5858 Y11.0288
G01 X10.5717 Y11.0189
G01 X10.5622 Y11.0130
G01 X10.5524 Y11.0077
G01 X10.5424 Y11.0028
G01 X10.5322 Y10.9985
G01 X10.5218 Y10.9946
G01 X10.5112 Y10.9912
G01 X10.5004 Y10.9884
G01 X10.4895 Y10.9861
G01 X10.4785 Y10.9844
G01 X10.4675 Y10.9832
G01 X10.4514 Y10.9824
G01 X10.4198 Y10.9824
G01 X10.4087 Y10.9828
G01 X10.3976 Y10.9838
G01 X10.3817 Y10.9861
G01 X10.3708 Y10.9884
G01 X10.3600 Y10.9912
G01 X10.3437 Y10.9967
G01 X10.3333 Y11.0008
G01 X10.3232 Y11.0054
G01 X10.3134 Y11.0106
G01 X10.2995 Y11.0189
G01 X10.2904 Y11.0251
G01 X10.2815 Y11.0319
G01 X10.2684 Y11.0431
G01 X10.2605 Y11.0509
G01 X10.2529 Y11.0591
G01 X10.2427 Y11.0715
G01 X10.2362 Y11.0805
G01 X10.2301 Y11.0899
G01 X10.2245 Y11.0995
G01 X10.2193 Y11.1093
G01 X10.2147 Y11.1194
G01 X10.2106 Y11.1298
G01 X10.2051 Y11.1461
G01 X10.2023 Y11.1569
G01 X10.1992 Y11.1727
G01 X10.1977 Y11.1837
G01 X10.1967 Y11.1948
G01 X10.1962 Y11.2090
G01 X10.1962 Y11.2728
G01 X8.1350 Y11.2728
G01 X8.1350 Y9.8720
G01 X10.2417 Y9.8720
G01 X10.2497 Y9.8819
G01 X10.2605 Y9.8939
G01 X10.2684 Y9.9017
G01 X10.2815 Y9.9129
G01 X10.2904 Y9.9197
G01 X10.3038 Y9.9286
G01 X10.3188 Y9.9371
G01 X10.3333 Y9.9440
G01 X10.3437 Y9.9481
G01 X10.3600 Y9.9536
G01 X10.3757 Y9.9575
G01 X10.3866 Y9.9595
G01 X10.3976 Y9.9610
G01 X10.4148 Y9.9623
G01 X10.4564 Y9.9623
G01 X10.4736 Y9.9610
G01 X10.4846 Y9.9595
G01 X10.4955 Y9.9575
G01 X10.5112 Y9.9536
G01 X10.5218 Y9.9502
G01 X10.5322 Y9.9463
G01 X10.5424 Y9.9420
G01 X10.5524 Y9.9371
G01 X10.5674 Y9.9286
G01 X10.5768 Y9.9225
G01 X10.5858 Y9.9160
G01 X10.5982 Y9.9058
G01 X10.6107 Y9.8939
G01 X10.6183 Y9.8857
G01 X10.6254 Y9.8772
G01 X10.6350 Y9.8643
G01 X10.6411 Y9.8549
G01 X10.6467 Y9.8453
G01 X10.6519 Y9.8355
G01 X10.6565 Y9.8254
G01 X10.6627 Y9.8093
G01 X10.6661 Y9.7987
G01 X10.6689 Y9.7879
G01 X10.6720 Y9.7720
G01 X12.7392 Y9.7720
G01 X12.7423 Y9.7879
G01 X12.7451 Y9.7987
G01 X12.7485 Y9.8093
G01 X12.7524 Y9.8197
G01 X12.7567 Y9.8299
G01 X12.7616 Y9.8399
G01 X12.7669 Y9.8497
G01 X12.7728 Y9.8592
G01 X12.7790 Y9.8683
G01 X12.7858 Y9.8772
G01 X12.7929 Y9.8857
G01 X12.8005 Y9.8939
G01 X12.8084 Y9.9017
G01 X12.8168 Y9.9090
G01 X12.8254 Y9.9160
G01 X12.8395 Y9.9259
G01 X12.8490 Y9.9318
G01 X12.8588 Y9.9371
G01 X12.8688 Y9.9420
G01 X12.8790 Y9.9463
G01 X12.8894 Y9.9502
G01 X12.9000 Y9.9536
G01 X12.9108 Y9.9564
G01 X12.9217 Y9.9587
G01 X12.9376 Y9.9610
G01 X12.9548 Y9.9623
G01 X12.9883 Y9.9625
G01 X13.0075 Y9.9616
G01 X13.0185 Y9.9604
G01 X13.0295 Y9.9587
G01 X13.0463 Y9.9549
G01 X13.0570 Y9.9518
G01 X13.0675 Y9.9481
G01 X13.0824 Y9.9420
G01 X13.0924 Y9.9371
G01 X13.1022 Y9.9318
G01 X13.1117 Y9.9259
G01 X13.1208 Y9.9197
G01 X13.1344 Y9.9090
G01 X13.1464 Y9.8982
G01 X13.1542 Y9.8903
G01 X13.1615 Y9.8819
G01 X13.1685 Y9.8733
G01 X13.1750 Y9.8643
G01 X13.1811 Y9.8549
G01 X13.1867 Y9.8453
G01 X13.1919 Y9.8355
G01 X13.1965 Y9.8254
G01 X13.2027 Y9.8093
G01 X13.2061 Y9.7987
G01 X13.2089 Y9.7879
G01 X13.2120 Y9.7720
G01 X15.2762 Y9.7720
G01 X15.2762 Y11.1728
G01 X14.9741 Y11.1730
G01 X14.9569 Y11.1743
G01 X14.9459 Y11.1758
G01 X14.9350 Y11.1778
G01 X14.9193 Y11.1817
G01 X14.9087 Y11.1851
G01 X14.8983 Y11.1890
G01 X14.8881 Y11.1933
G01 X14.8727 Y11.2011
G01 X14.8588 Y11.2094
G01 X14.8447 Y11.2193
G01 X14.8323 Y11.2295
G01 X14.8198 Y11.2414
G01 X14.8090 Y11.2534
G01 X14.7983 Y11.2670
G01 X14.7894 Y11.2804
G01 X14.7809 Y11.2954
G01 X14.7740 Y11.3099
G01 X14.7699 Y11.3203
G01 X14.7644 Y11.3366
G01 X14.7605 Y11.3523
G01 X14.7585 Y11.3632
G01 X14.7564 Y11.3803
G01 X14.7555 Y11.3995
G01 X14.7557 Y15.2259
G01 X14.7570 Y15.2431
G01 X14.7593 Y15.2590
G01 X14.7631 Y15.2758
G01 X14.7678 Y15.2913
G01 X14.7717 Y15.3017
G01 X14.7786 Y15.3175
G01 X14.7862 Y15.3317
G01 X14.7955 Y15.3463
G01 X14.8020 Y15.3553
G01 X14.8122 Y15.3677
G01 X14.8241 Y15.3802
G01 X14.8361 Y15.3910
G01 X14.8497 Y15.4017
G01 X14.8631 Y15.4106
G01 X14.8781 Y15.4191
G01 X14.8926 Y15.4260
G01 X14.9087 Y15.4322
G01 X14.9193 Y15.4356
G01 X14.9301 Y15.4384
G01 X14.9459 Y15.4415
G01 X14.9569 Y15.4430
G01 X14.9680 Y15.4440
G01 X14.9822 Y15.4445
G01 X15.2635 Y15.4445
G01 X15.2635 Y17.6153
G01 X15.2644 Y17.6345
G01 X15.2665 Y17.6516
G01 X15.2685 Y17.6625
G01 X15.2711 Y17.6733
G01 X15.2762 Y17.6900
G01 X15.2762 Y17.8058
G01 X15.2767 Y17.8200
G01 X15.2777 Y17.8311
G01 X15.2792 Y17.8421
G01 X15.2812 Y17.8530
G01 X15.2838 Y17.8638
G01 X15.2869 Y17.8745
G01 X15.2906 Y17.8850
G01 X15.2947 Y17.8954
G01 X15.2993 Y17.9055
G01 X15.3045 Y17.9153
G01 X15.3101 Y17.9249
G01 X15.3162 Y17.9343
G01 X15.3227 Y17.9433
G01 X15.3297 Y17.9519
G01 X15.3370 Y17.9603
G01 X15.3448 Y17.9682
G01 X15.3530 Y17.9758
G01 X15.3615 Y17.9829
G01 X15.3704 Y17.9897
G01 X15.3795 Y17.9959
G01 X15.3890 Y18.0018
G01 X15.3988 Y18.0071
G01 X15.4088 Y18.0120
G01 X15.4190 Y18.0163
G01 X15.4294 Y18.0202
G01 X15.4400 Y18.0236
G01 X15.4508 Y18.0264
G01 X15.4617 Y18.0287
G01 X15.4776 Y18.0310
G01 X15.4948 Y18.0323
G01 X15.5283 Y18.0325
G01 X15.5425 Y18.0320
G01 X15.5536 Y18.0310
G01 X15.5695 Y18.0287
G01 X15.5804 Y18.0264
G01 X15.5912 Y18.0236
G01 X15.6075 Y18.0181
G01 X15.6179 Y18.0140
G01 X15.6280 Y18.0094
G01 X15.6378 Y18.0042
G01 X15.6517 Y17.9959
G01 X15.6658 Y17.9860
G01 X15.6744 Y17.9790
G01 X15.6864 Y17.9682
G01 X15.6942 Y17.9603
G01 X15.7015 Y17.9519
G01 X15.7095 Y17.9420
G01 X16.0571 Y17.9418
G01 X16.0743 Y17.9405
G01 X16.0853 Y17.9390
G01 X16.0962 Y17.9370
G01 X16.1119 Y17.9331
G01 X16.1225 Y17.9297
G01 X16.1329 Y17.9258
G01 X16.1431 Y17.9215
G01 X16.1585 Y17.9137
G01 X16.1724 Y17.9054
G01 X16.1865 Y17.8955
G01 X16.1989 Y17.8853
G01 X16.2114 Y17.8734
G01 X16.2222 Y17.8614
G01 X16.2329 Y17.8478
G01 X16.2418 Y17.8344
G01 X16.2503 Y17.8194
G01 X16.2572 Y17.8049
G01 X16.2634 Y17.7888
G01 X16.2681 Y17.7733
G01 X16.2719 Y17.7565
G01 X16.2742 Y17.7406
G01 X16.2755 Y17.7234
G01 X16.2756 Y17.7039
G01 X16.2748 Y17.6878
G01 X16.2727 Y17.6707
G01 X16.2696 Y17.6549
G01 X16.2650 Y17.6383
G01 X16.2595 Y17.6231
G01 X16.2526 Y17.6073
G01 X16.2450 Y17.5931
G01 X16.2357 Y17.5785
G01 X16.2261 Y17.5656
G01 X16.2149 Y17.5525
G01 X16.2035 Y17.5411
G01 X16.1904 Y17.5299
G01 X16.1775 Y17.5203
G01 X16.1629 Y17.5110
G01 X16.1487 Y17.5034
G01 X16.1386 Y17.4988
G01 X16.1282 Y17.4947
G01 X16.1177 Y17.4910
G01 X16.1070 Y17.4879
G01 X16.0962 Y17.4853
G01 X16.0853 Y17.4833
G01 X16.0743 Y17.4818
G01 X16.0632 Y17.4808
G01 X16.0490 Y17.4803
G01 X15.7677 Y17.4803
G01 X15.7677 Y15.4445
G01 X16.0571 Y15.4443
G01 X16.0743 Y15.4430
G01 X16.0853 Y15.4415
G01 X16.0962 Y15.4395
G01 X16.1119 Y15.4356
G01 X16.1225 Y15.4322
G01 X16.1329 Y15.4283
G01 X16.1431 Y15.4240
G01 X16.1585 Y15.4162
G01 X16.1724 Y15.4079
G01 X16.1865 Y15.3980
G01 X16.1989 Y15.3878
G01 X16.2114 Y15.3759
G01 X16.2222 Y15.3639
G01 X16.2329 Y15.3503
G01 X16.2418 Y15.3369
G01 X16.2503 Y15.3219
G01 X16.2572 Y15.3074
G01 X16.2613 Y15.2970
G01 X16.2668 Y15.2807
G01 X16.2707 Y15.2650
G01 X16.2727 Y15.2541
G01 X16.2748 Y15.2370
G01 X16.2757 Y15.2178
G01 X16.2757 Y11.3995
G01 X16.2752 Y11.3853
G01 X16.2736 Y11.3693
G01 X16.2707 Y11.3523
G01 X16.2668 Y11.3366
G01 X16.2613 Y11.3203
G01 X16.2552 Y11.3054
G01 X16.2474 Y11.2900
G01 X16.2391 Y11.2761
G01 X16.2292 Y11.2620
G01 X16.2190 Y11.2496
G01 X16.2071 Y11.2371
G01 X16.1951 Y11.2263
G01 X16.1815 Y11.2156
G01 X16.1681 Y11.2067
G01 X16.1531 Y11.1982
G01 X16.1386 Y11.1913
G01 X16.1282 Y11.1872
G01 X16.1177 Y11.1835
G01 X16.1070 Y11.1804
G01 X16.0962 Y11.1778
G01 X16.0792 Y11.1749
G01 X16.0682 Y11.1737
G01 X16.0571 Y11.1730
G01 X15.7550 Y11.1728
G01 X15.7550 Y9.7720
G01 X17.8162 Y9.7720
G01 X17.8162 Y11.1728
G01 X17.5141 Y11.1730
G01 X17.5030 Y11.1737
G01 X17.4920 Y11.1749
G01 X17.4810 Y11.1766
G01 X17.4701 Y11.1789
G01 X17.4593 Y11.1817
G01 X17.4487 Y11.1851
G01 X17.4326 Y11.1913
G01 X17.4181 Y11.1982
G01 X17.4031 Y11.2067
G01 X17.3897 Y11.2156
G01 X17.3761 Y11.2263
G01 X17.3641 Y11.2371
G01 X17.3522 Y11.2496
G01 X17.3420 Y11.2620
G01 X17.3321 Y11.2761
G01 X17.3238 Y11.2900
G01 X17.3160 Y11.3054
G01 X17.3099 Y11.3203
G01 X17.3044 Y11.3366
G01 X17.3005 Y11.3523
G01 X17.2976 Y11.3693
G01 X17.2960 Y11.3853
G01 X17.2955 Y11.3995
G01 X17.2955 Y15.2178
G01 X17.2964 Y15.2370
G01 X17.2985 Y15.2541
G01 X17.3016 Y15.2699
G01 X17.3062 Y15.2865
G01 X17.3117 Y15.3017
G01 X17.3160 Y15.3119
G01 X17.3238 Y15.3273
G01 X17.3321 Y15.3412
G01 X17.3420 Y15.3553
G01 X17.3522 Y15.3677
G01 X17.3598 Y15.3759
G01 X17.3723 Y15.3878
G01 X17.3847 Y15.3980
G01 X17.3988 Y15.4079
G01 X17.4127 Y15.4162
G01 X17.4225 Y15.4214
G01 X17.4383 Y15.4283
G01 X17.4535 Y15.4338
G01 X17.4642 Y15.4369
G01 X17.4750 Y15.4395
G01 X17.4920 Y15.4424
G01 X17.5030 Y15.4436
G01 X17.5141 Y15.4443
G01 X17.8035 Y15.4445
G01 X17.8035 Y17.4803
G01 X17.5222 Y17.4803
G01 X17.5080 Y17.4808
G01 X17.4969 Y17.4818
G01 X17.4859 Y17.4833
G01 X17.4750 Y17.4853
G01 X17.4642 Y17.4879
G01 X17.4535 Y17.4910
G01 X17.4430 Y17.4947
G01 X17.4326 Y17.4988
G01 X17.4225 Y17.5034
G01 X17.4083 Y17.5110
G01 X17.3937 Y17.5203
G01 X17.3808 Y17.5299
G01 X17.3677 Y17.5411
G01 X17.3563 Y17.5525
G01 X17.3451 Y17.5656
G01 X17.3355 Y17.5785
G01 X17.3262 Y17.5931
G01 X17.3186 Y17.6073
G01 X17.3117 Y17.6231
G01 X17.3062 Y17.6383
G01 X17.3016 Y17.6549
G01 X17.2985 Y17.6707
G01 X17.2964 Y17.6878
G01 X17.2956 Y17.7039
G01 X17.2957 Y17.7234
G01 X17.2970 Y17.7406
G01 X17.2993 Y17.7565
G01 X17.3031 Y17.7733
G01 X17.3078 Y17.7888
G01 X17.3117 Y17.7992
G01 X17.3186 Y17.8150
G01 X17.3262 Y17.8292
G01 X17.3355 Y17.8438
G01 X17.3420 Y17.8528
G01 X17.3522 Y17.8652
G01 X17.3641 Y17.8777
G01 X17.3761 Y17.8885
G01 X17.3897 Y17.8992
G01 X17.4031 Y17.9081
G01 X17.4181 Y17.9166
G01 X17.4326 Y17.9235
G01 X17.4430 Y17.9276
G01 X17.4535 Y17.9313
G01 X17.4642 Y17.9344
G01 X17.4750 Y17.9370
G01 X17.4920 Y17.9399
G01 X17.5030 Y17.9411
G01 X17.5141 Y17.9418
G01 X17.8162 Y17.9420
G01 X17.8162 Y19.3315
G01 X17.8171 Y19.3507
G01 X17.8192 Y19.3678
G01 X17.8223 Y19.3836
G01 X17.8251 Y19.3944
G01 X17.8285 Y19.4050
G01 X17.8324 Y19.4154
G01 X17.8367 Y19.4256
G01 X17.8416 Y19.4356
G01 X17.8469 Y19.4454
G01 X17.8528 Y19.4549
G01 X17.8590 Y19.4640
G01 X17.8658 Y19.4729
G01 X17.8729 Y19.4814
G01 X17.8805 Y19.4896
G01 X17.8884 Y19.4974
G01 X17.8968 Y19.5047
G01 X17.9054 Y19.5117
G01 X17.9195 Y19.5216
G01 X17.9290 Y19.5275
G01 X17.9388 Y19.5328
G01 X17.9488 Y19.5377
G01 X17.9590 Y19.5421
G01 X17.9694 Y19.5459
G01 X17.9800 Y19.5493
G01 X17.9908 Y19.5521
G01 X18.0017 Y19.5544
G01 X18.0176 Y19.5567
G01 X18.0348 Y19.5580
G01 X18.0683 Y19.5582
G01 X18.0875 Y19.5573
G01 X18.0985 Y19.5561
G01 X18.1095 Y19.5544
G01 X18.1263 Y19.5506
G01 X18.1370 Y19.5475
G01 X18.1475 Y19.5439
G01 X18.1624 Y19.5377
G01 X18.1724 Y19.5328
G01 X18.1822 Y19.5275
G01 X18.1917 Y19.5216
G01 X18.2008 Y19.5154
G01 X18.2097 Y19.5086
G01 X18.2182 Y19.5015
G01 X18.2307 Y19.4896
G01 X18.2383 Y19.4814
G01 X18.2454 Y19.4729
G01 X18.2550 Y19.4600
G01 X18.2611 Y19.4507
G01 X18.2667 Y19.4411
G01 X18.2719 Y19.4312
G01 X18.2765 Y19.4211
G01 X18.2827 Y19.4050
G01 X18.2861 Y19.3944
G01 X18.2889 Y19.3836
G01 X18.2912 Y19.3727
G01 X18.2929 Y19.3617
G01 X18.2945 Y19.3457
G01 X18.2950 Y19.3315
G01 X18.2950 Y17.9420
G01 X18.5971 Y17.9418
G01 X18.6082 Y17.9411
G01 X18.6192 Y17.9399
G01 X18.6302 Y17.9382
G01 X18.6411 Y17.9359
G01 X18.6519 Y17.9331
G01 X18.6625 Y17.9297
G01 X18.6786 Y17.9235
G01 X18.6931 Y17.9166
G01 X18.7081 Y17.9081
G01 X18.7215 Y17.8992
G01 X18.7351 Y17.8885
G01 X18.7471 Y17.8777
G01 X18.7590 Y17.8652
G01 X18.7692 Y17.8528
G01 X18.7791 Y17.8387
G01 X18.7874 Y17.8248
G01 X18.7926 Y17.8150
G01 X18.7995 Y17.7992
G01 X18.8050 Y17.7840
G01 X18.8096 Y17.7674
G01 X18.8127 Y17.7516
G01 X18.8148 Y17.7345
G01 X18.8156 Y17.7184
G01 X18.8155 Y17.6989
G01 X18.8142 Y17.6817
G01 X18.8119 Y17.6658
G01 X18.8081 Y17.6490
G01 X18.8034 Y17.6335
G01 X18.7972 Y17.6174
G01 X18.7903 Y17.6029
G01 X18.7818 Y17.5879
G01 X18.7729 Y17.5745
G01 X18.7622 Y17.5609
G01 X18.7514 Y17.5489
G01 X18.7389 Y17.5370
G01 X18.7265 Y17.5268
G01 X18.7124 Y17.5169
G01 X18.6985 Y17.5086
G01 X18.6831 Y17.5008
G01 X18.6729 Y17.4965
G01 X18.6625 Y17.4926
G01 X18.6519 Y17.4892
G01 X18.6411 Y17.4864
G01 X18.6253 Y17.4833
G01 X18.6143 Y17.4818
G01 X18.6032 Y17.4808
G01 X18.5890 Y17.4803
G01 X18.3077 Y17.4803
G01 X18.3077 Y15.4445
G01 X18.5971 Y15.4443
G01 X18.6143 Y15.4430
G01 X18.6253 Y15.4415
G01 X18.6362 Y15.4395
G01 X18.6519 Y15.4356
G01 X18.6625 Y15.4322
G01 X18.6729 Y15.4283
G01 X18.6831 Y15.4240
G01 X18.6985 Y15.4162
G01 X18.7124 Y15.4079
G01 X18.7265 Y15.3980
G01 X18.7389 Y15.3878
G01 X18.7514 Y15.3759
G01 X18.7622 Y15.3639
G01 X18.7729 Y15.3503
G01 X18.7818 Y15.3369
G01 X18.7903 Y15.3219
G01 X18.7972 Y15.3074
G01 X18.8013 Y15.2970
G01 X18.8068 Y15.2807
G01 X18.8107 Y15.2650
G01 X18.8127 Y15.2541
G01 X18.8148 Y15.2370
G01 X18.8157 Y15.2178
G01 X18.8157 Y11.3995
G01 X18.8152 Y11.3853
G01 X18.8136 Y11.3693
G01 X18.8107 Y11.3523
G01 X18.8068 Y11.3366
G01 X18.8013 Y11.3203
G01 X18.7952 Y11.3054
G01 X18.7874 Y11.2900
G01 X18.7791 Y11.2761
G01 X18.7692 Y11.2620
G01 X18.7590 Y11.2496
G01 X18.7471 Y11.2371
G01 X18.7351 Y11.2263
G01 X18.7215 Y11.2156
G01 X18.7081 Y11.2067
G01 X18.6931 Y11.1982
G01 X18.6786 Y11.1913
G01 X18.6682 Y11.1872
G01 X18.6577 Y11.1835
G01 X18.6470 Y11.1804
G01 X18.6362 Y11.1778
G01 X18.6192 Y11.1749
G01 X18.6082 Y11.1737
G01 X18.5971 Y11.1730
G01 X18.2950 Y11.1728
G01 X18.2950 Y9.7720
G01 X20.3562 Y9.7720
G01 X20.3562 Y11.1728
G01 X20.0541 Y11.1730
G01 X20.0430 Y11.1737
G01 X20.0320 Y11.1749
G01 X20.0210 Y11.1766
G01 X20.0101 Y11.1789
G01 X19.9993 Y11.1817
G01 X19.9887 Y11.1851
G01 X19.9726 Y11.1913
G01 X19.9581 Y11.1982
G01 X19.9431 Y11.2067
G01 X19.9297 Y11.2156
G01 X19.9161 Y11.2263
G01 X19.9041 Y11.2371
G01 X19.8922 Y11.2496
G01 X19.8820 Y11.2620
G01 X19.8721 Y11.2761
G01 X19.8638 Y11.2900
G01 X19.8560 Y11.3054
G01 X19.8499 Y11.3203
G01 X19.8444 Y11.3366
G01 X19.8405 Y11.3523
G01 X19.8376 Y11.3693
G01 X19.8360 Y11.3853
G01 X19.8355 Y11.3995
G01 X19.8355 Y15.2178
G01 X19.8364 Y15.2370
G01 X19.8385 Y15.2541
G01 X19.8416 Y15.2699
G01 X19.8462 Y15.2865
G01 X19.8517 Y15.3017
G01 X19.8560 Y15.3119
G01 X19.8638 Y15.3273
G01 X19.8721 Y15.3412
G01 X19.8820 Y15.3553
G01 X19.8922 Y15.3677
G01 X19.8998 Y15.3759
G01 X19.9123 Y15.3878
G01 X19.9247 Y15.3980
G01 X19.9388 Y15.4079
G01 X19.9527 Y15.4162
G01 X19.9625 Y15.4214
G01 X19.9783 Y15.4283
G01 X19.9935 Y15.4338
G01 X20.0042 Y15.4369
G01 X20.0150 Y15.4395
G01 X20.0320 Y15.4424
G01 X20.0430 Y15.4436
G01 X20.0541 Y15.4443
G01 X20.3435 Y15.4445
G01 X20.3435 Y17.4803
G01 X20.0622 Y17.4803
G01 X20.0480 Y17.4808
G01 X20.0369 Y17.4818
G01 X20.0259 Y17.4833
G01 X20.0150 Y17.4853
G01 X20.0042 Y17.4879
G01 X19.9935 Y17.4910
G01 X19.9830 Y17.4947
G01 X19.9726 Y17.4988
G01 X19.9625 Y17.5034
G01 X19.9483 Y17.5110
G01 X19.9337 Y17.5203
G01 X19.9208 Y17.5299
G01 X19.9077 Y17.5411
G01 X19.8963 Y17.5525
G01 X19.8851 Y17.5656
G01 X19.8755 Y17.5785
G01 X19.8662 Y17.5931
G01 X19.8586 Y17.6073
G01 X19.8517 Y17.6231
G01 X19.8462 Y17.6383
G01 X19.8416 Y17.6549
G01 X19.8385 Y17.6707
G01 X19.8364 Y17.6878
G01 X19.8356 Y17.7039
G01 X19.8357 Y17.7234
G01 X19.8370 Y17.7406
G01 X19.8393 Y17.7565
G01 X19.8416 Y17.7674
G01 X19.8462 Y17.7840
G01 X19.8517 Y17.7992
G01 X19.8560 Y17.8094
G01 X19.8638 Y17.8248
G01 X19.8721 Y17.8387
G01 X19.8820 Y17.8528
G01 X19.8890 Y17.8614
G01 X19.8998 Y17.8734
G01 X19.9077 Y17.8812
G01 X19.9208 Y17.8924
G01 X19.9337 Y17.9020
G01 X19.9483 Y17.9113
G01 X19.9581 Y17.9166
G01 X19.9681 Y17.9215
G01 X19.9783 Y17.9258
G01 X19.9887 Y17.9297
G01 X20.0042 Y17.9344
G01 X20.0150 Y17.9370
G01 X20.0259 Y17.9390
G01 X20.0369 Y17.9405
G01 X20.0480 Y17.9415
G01 X20.0622 Y17.9420
G01 X20.3592 Y17.9420
G01 X20.3623 Y17.9579
G01 X20.3651 Y17.9687
G01 X20.3685 Y17.9793
G01 X20.3724 Y17.9897
G01 X20.3767 Y17.9999
G01 X20.3816 Y18.0099
G01 X20.3869 Y18.0197
G01 X20.3928 Y18.0292
G01 X20.3990 Y18.0383
G01 X20.4058 Y18.0472
G01 X20.4129 Y18.0557
G01 X20.4205 Y18.0639
G01 X20.4284 Y18.0717
G01 X20.4368 Y18.0790
G01 X20.4454 Y18.0860
G01 X20.4595 Y18.0959
G01 X20.4690 Y18.1018
G01 X20.4788 Y18.1071
G01 X20.4888 Y18.1120
G01 X20.4990 Y18.1163
G01 X20.5094 Y18.1202
G01 X20.5200 Y18.1236
G01 X20.5308 Y18.1264
G01 X20.5417 Y18.1287
G01 X20.5576 Y18.1310
G01 X20.5748 Y18.1323
G01 X20.6083 Y18.1325
G01 X20.6275 Y18.1316
G01 X20.6385 Y18.1304
G01 X20.6495 Y18.1287
G01 X20.6604 Y18.1264
G01 X20.6712 Y18.1236
G01 X20.6818 Y18.1202
G01 X20.6922 Y18.1163
G01 X20.7024 Y18.1120
G01 X20.7124 Y18.1071
G01 X20.7274 Y18.0986
G01 X20.7368 Y18.0925
G01 X20.7458 Y18.0860
G01 X20.7544 Y18.0790
G01 X20.7628 Y18.0717
G01 X20.7707 Y18.0639
G01 X20.7783 Y18.0557
G01 X20.7854 Y18.0472
G01 X20.7922 Y18.0383
G01 X20.7984 Y18.0292
G01 X20.8043 Y18.0197
G01 X20.8119 Y18.0055
G01 X20.8165 Y17.9954
G01 X20.8206 Y17.9850
G01 X20.8243 Y17.9745
G01 X20.8274 Y17.9638
G01 X20.8312 Y17.9470
G01 X20.8329 Y17.9360
G01 X20.8341 Y17.9250
G01 X20.8350 Y17.9058
G01 X20.8350 Y17.6900
G01 X20.8401 Y17.6733
G01 X20.8427 Y17.6625
G01 X20.8447 Y17.6516
G01 X20.8468 Y17.6345
G01 X20.8477 Y17.6153
G01 X20.8477 Y15.4445
G01 X21.1290 Y15.4445
G01 X21.1432 Y15.4440
G01 X21.1592 Y15.4424
G01 X21.1702 Y15.4407
G01 X21.1811 Y15.4384
G01 X21.1919 Y15.4356
G01 X21.2025 Y15.4322
G01 X21.2186 Y15.4260
G01 X21.2331 Y15.4191
G01 X21.2481 Y15.4106
G01 X21.2615 Y15.4017
G01 X21.2704 Y15.3949
G01 X21.2835 Y15.3837
G01 X21.2949 Y15.3723
G01 X21.3061 Y15.3592
G01 X21.3157 Y15.3463
G01 X21.3250 Y15.3317
G01 X21.3303 Y15.3219
G01 X21.3372 Y15.3074
G01 X21.3434 Y15.2913
G01 X21.3481 Y15.2758
G01 X21.3519 Y15.2590
G01 X21.3542 Y15.2431
G01 X21.3555 Y15.2259
G01 X21.3557 Y11.3995
G01 X21.3548 Y11.3803
G01 X21.3527 Y11.3632
G01 X21.3496 Y11.3474
G01 X21.3450 Y11.3308
G01 X21.3395 Y11.3156
G01 X21.3352 Y11.3054
G01 X21.3274 Y11.2900
G01 X21.3191 Y11.2761
G01 X21.3092 Y11.2620
G01 X21.2990 Y11.2496
G01 X21.2914 Y11.2414
G01 X21.2789 Y11.2295
G01 X21.2665 Y11.2193
G01 X21.2524 Y11.2094
G01 X21.2385 Y11.2011
G01 X21.2287 Y11.1959
G01 X21.2129 Y11.1890
G01 X21.1977 Y11.1835
G01 X21.1870 Y11.1804
G01 X21.1762 Y11.1778
G01 X21.1592 Y11.1749
G01 X21.1482 Y11.1737
G01 X21.1371 Y11.1730
G01 X20.8350 Y11.1728
G01 X20.8350 Y9.7720
G01 X22.8962 Y9.7720
G01 X22.8962 Y11.3951
G01 X22.8967 Y11.4093
G01 X22.8983 Y11.4253
G01 X22.9012 Y11.4423
G01 X22.9038 Y11.4531
G01 X22.9085 Y11.4686
G01 X22.9124 Y11.4790
G01 X22.9167 Y11.4892
G01 X22.9245 Y11.5046
G01 X22.9301 Y11.5142
G01 X22.9390 Y11.5276
G01 X22.9458 Y11.5365
G01 X22.9570 Y11.5496
G01 X22.9648 Y11.5575
G01 X22.9768 Y11.5683
G01 X22.9904 Y11.5790
G01 X22.9995 Y11.5852
G01 X23.0134 Y11.5935
G01 X23.0232 Y11.5987
G01 X23.0390 Y11.6056
G01 X23.0494 Y11.6095
G01 X23.0649 Y11.6142
G01 X23.0817 Y11.6180
G01 X23.0976 Y11.6203
G01 X23.1148 Y11.6216
G01 X23.3760 Y11.6218
G01 X23.3760 Y13.6830
G01 X22.6022 Y13.6830
G01 X22.5880 Y13.6835
G01 X22.5769 Y13.6845
G01 X22.5610 Y13.6868
G01 X22.5501 Y13.6891
G01 X22.5393 Y13.6919
G01 X22.5287 Y13.6953
G01 X22.5183 Y13.6992
G01 X22.5081 Y13.7035
G01 X22.4927 Y13.7113
G01 X22.4831 Y13.7169
G01 X22.4737 Y13.7230
G01 X22.4647 Y13.7295
G01 X22.4523 Y13.7397
G01 X22.4441 Y13.7473
G01 X22.4363 Y13.7552
G01 X22.4251 Y13.7683
G01 X22.4183 Y13.7772
G01 X22.4121 Y13.7863
G01 X22.4038 Y13.8002
G01 X22.3986 Y13.8100
G01 X22.3917 Y13.8258
G01 X22.3862 Y13.8410
G01 X22.3816 Y13.8576
G01 X22.3793 Y13.8685
G01 X22.3770 Y13.8844
G01 X22.3757 Y13.9016
G01 X22.3755 Y15.2178
G01 X22.3760 Y15.2320
G01 X22.3776 Y15.2480
G01 X22.3805 Y15.2650
G01 X22.3844 Y15.2807
G01 X22.3899 Y15.2970
G01 X22.3960 Y15.3119
G01 X22.4038 Y15.3273
G01 X22.4121 Y15.3412
G01 X22.4220 Y15.3553
G01 X22.4322 Y15.3677
G01 X22.4398 Y15.3759
G01 X22.4523 Y15.3878
G01 X22.4647 Y15.3980
G01 X22.4788 Y15.4079
G01 X22.4927 Y15.4162
G01 X22.5081 Y15.4240
G01 X22.5183 Y15.4283
G01 X22.5287 Y15.4322
G01 X22.5393 Y15.4356
G01 X22.5501 Y15.4384
G01 X22.5659 Y15.4415
G01 X22.5769 Y15.4430
G01 X22.5880 Y15.4440
G01 X22.6022 Y15.4445
G01 X22.8835 Y15.4445
G01 X22.8835 Y17.6153
G01 X22.8844 Y17.6345
G01 X22.8865 Y17.6516
G01 X22.8885 Y17.6625
G01 X22.8911 Y17.6733
G01 X22.8962 Y17.6900
G01 X22.8962 Y19.3315
G01 X22.8967 Y19.3457
G01 X22.8977 Y19.3568
G01 X22.9000 Y19.3727
G01 X22.9023 Y19.3836
G01 X22.9051 Y19.3944
G01 X22.9106 Y19.4108
G01 X22.9147 Y19.4211
G01 X22.9193 Y19.4312
G01 X22.9269 Y19.4454
G01 X22.9362 Y19.4600
G01 X22.9427 Y19.4690
G01 X22.9529 Y19.4814
G01 X22.9605 Y19.4896
G01 X22.9730 Y19.5015
G01 X22.9854 Y19.5117
G01 X22.9995 Y19.5216
G01 X23.0134 Y19.5299
G01 X23.0232 Y19.5351
G01 X23.0390 Y19.5421
G01 X23.0542 Y19.5475
G01 X23.0708 Y19.5521
G01 X23.0817 Y19.5544
G01 X23.0976 Y19.5567
G01 X23.1148 Y19.5580
G01 X26.1336 Y19.5582
G01 X26.1478 Y19.5577
G01 X26.1638 Y19.5561
G01 X26.1748 Y19.5544
G01 X26.1857 Y19.5521
G01 X26.2023 Y19.5475
G01 X26.2175 Y19.5421
G01 X26.2332 Y19.5351
G01 X26.2475 Y19.5275
G01 X26.2569 Y19.5216
G01 X26.2661 Y19.5154
G01 X26.2797 Y19.5047
G01 X26.2938 Y19.4918
G01 X26.6028 Y19.1829
G01 X27.2356 Y19.1829
G01 X27.6831 Y19.6304
G01 X27.6831 Y20.2632
G01 X27.2356 Y20.7107
G01 X26.6028 Y20.7107
G01 X26.5306 Y20.6389
G01 X26.5223 Y20.6315
G01 X26.5136 Y20.6245
G01 X26.5046 Y20.6180
G01 X26.4953 Y20.6119
G01 X26.4803 Y20.6034
G01 X26.4703 Y20.5985
G01 X26.4601 Y20.5942
G01 X26.4449 Y20.5887
G01 X26.4283 Y20.5841
G01 X26.4174 Y20.5818
G01 X26.4014 Y20.5795
G01 X26.3842 Y20.5782
G01 X23.1229 Y20.5780
G01 X23.1037 Y20.5789
G01 X23.0927 Y20.5801
G01 X23.0757 Y20.5830
G01 X23.0600 Y20.5870
G01 X23.0437 Y20.5924
G01 X23.0333 Y20.5965
G01 X23.0188 Y20.6034
G01 X23.0038 Y20.6119
G01 X22.9904 Y20.6209
G01 X22.9815 Y20.6276
G01 X22.9684 Y20.6389
G01 X22.9605 Y20.6466
G01 X22.9497 Y20.6586
G01 X22.9390 Y20.6722
G01 X22.9328 Y20.6814
G01 X22.9245 Y20.6952
G01 X22.9167 Y20.7106
G01 X22.9124 Y20.7208
G01 X22.9085 Y20.7312
G01 X22.9051 Y20.7419
G01 X22.9023 Y20.7526
G01 X22.8992 Y20.7684
G01 X22.8977 Y20.7794
G01 X22.8967 Y20.7905
G01 X22.8962 Y20.8047
G01 X22.8962 Y21.0362
G01 X22.8923 Y21.0362
G01 X22.8923 Y20.9709
G01 X22.8921 Y20.9648
G01 X22.8909 Y20.9526
G01 X22.8886 Y20.9405
G01 X22.8850 Y20.9288
G01 X22.8803 Y20.9175
G01 X22.8745 Y20.9066
G01 X22.8712 Y20.9015
G01 X22.8639 Y20.8916
G01 X22.8557 Y20.8825
G01 X22.8512 Y20.8783
G01 X22.8418 Y20.8705
G01 X22.8316 Y20.8637
G01 X22.8207 Y20.8579
G01 X22.8094 Y20.8532
G01 X22.8036 Y20.8513
G01 X22.7917 Y20.8483
G01 X22.7796 Y20.8465
G01 X22.7673 Y20.8459
G01 X20.9639 Y20.8459
G01 X20.9578 Y20.8461
G01 X20.9456 Y20.8473
G01 X20.9335 Y20.8496
G01 X20.9218 Y20.8532
G01 X20.9105 Y20.8579
G01 X20.9050 Y20.8607
G01 X20.8945 Y20.8670
G01 X20.8894 Y20.8705
G01 X20.8800 Y20.8783
G01 X20.8713 Y20.8870
G01 X20.8673 Y20.8916
G01 X20.8600 Y20.9015
G01 X20.8537 Y20.9120
G01 X20.8484 Y20.9231
G01 X20.8443 Y20.9346
G01 X20.8413 Y20.9465
G01 X20.8403 Y20.9526
G01 X20.8391 Y20.9648
G01 X20.8389 Y21.0362
G01 X20.8350 Y21.0362
G01 X20.8350 Y20.8047
G01 X20.8341 Y20.7855
G01 X20.8329 Y20.7745
G01 X20.8312 Y20.7635
G01 X20.8289 Y20.7526
G01 X20.8261 Y20.7419
G01 X20.8206 Y20.7255
G01 X20.8165 Y20.7151
G01 X20.8119 Y20.7050
G01 X20.8067 Y20.6952
G01 X20.7984 Y20.6814
G01 X20.7885 Y20.6672
G01 X20.7783 Y20.6548
G01 X20.7664 Y20.6423
G01 X20.7544 Y20.6315
G01 X20.7408 Y20.6209
G01 X20.7274 Y20.6119
G01 X20.7124 Y20.6034
G01 X20.6979 Y20.5965
G01 X20.6818 Y20.5903
G01 X20.6663 Y20.5856
G01 X20.6495 Y20.5818
G01 X20.6336 Y20.5795
G01 X20.6225 Y20.5785
G01 X20.6083 Y20.5780
G01 X20.5829 Y20.5780
G01 X20.5687 Y20.5785
G01 X20.5527 Y20.5801
G01 X20.5357 Y20.5830
G01 X20.5200 Y20.5870
G01 X20.5037 Y20.5924
G01 X20.4933 Y20.5965
G01 X20.4788 Y20.6034
G01 X20.4638 Y20.6119
G01 X20.4504 Y20.6209
G01 X20.4415 Y20.6276
G01 X20.4284 Y20.6389
G01 X20.4170 Y20.6502
G01 X20.4058 Y20.6633
G01 X20.3962 Y20.6762
G01 X20.3869 Y20.6908
G01 X20.3793 Y20.7050
G01 X20.3747 Y20.7151
G01 X20.3706 Y20.7255
G01 X20.3669 Y20.7360
G01 X20.3638 Y20.7467
G01 X20.3612 Y20.7575
G01 X20.3592 Y20.7684
G01 X20.3577 Y20.7794
G01 X20.3567 Y20.7905
G01 X20.3562 Y20.8047
G01 X20.3562 Y21.0362
G01 X20.3523 Y21.0362
G01 X20.3523 Y20.9709
G01 X20.3521 Y20.9648
G01 X20.3509 Y20.9526
G01 X20.3486 Y20.9405
G01 X20.3450 Y20.9288
G01 X20.3403 Y20.9175
G01 X20.3345 Y20.9066
G01 X20.3277 Y20.8964
G01 X20.3199 Y20.8870
G01 X20.3112 Y20.8783
G01 X20.3018 Y20.8705
G01 X20.2967 Y20.8670
G01 X20.2862 Y20.8607
G01 X20.2807 Y20.8579
G01 X20.2694 Y20.8532
G01 X20.2577 Y20.8496
G01 X20.2456 Y20.8473
G01 X20.2396 Y20.8465
G01 X20.2273 Y20.8459
G01 X18.4239 Y20.8459
G01 X18.4178 Y20.8461
G01 X18.4056 Y20.8473
G01 X18.3935 Y20.8496
G01 X18.3818 Y20.8532
G01 X18.3705 Y20.8579
G01 X18.3650 Y20.8607
G01 X18.3545 Y20.8670
G01 X18.3494 Y20.8705
G01 X18.3400 Y20.8783
G01 X18.3313 Y20.8870
G01 X18.3273 Y20.8916
G01 X18.3200 Y20.9015
G01 X18.3137 Y20.9120
G01 X18.3084 Y20.9231
G01 X18.3043 Y20.9346
G01 X18.3013 Y20.9465
G01 X18.3003 Y20.9526
G01 X18.2991 Y20.9648
G01 X18.2989 Y21.0362
G01 X18.2950 Y21.0362
G01 X18.2950 Y20.8047
G01 X18.2941 Y20.7855
G01 X18.2929 Y20.7745
G01 X18.2912 Y20.7635
G01 X18.2889 Y20.7526
G01 X18.2861 Y20.7419
G01 X18.2806 Y20.7255
G01 X18.2765 Y20.7151
G01 X18.2719 Y20.7050
G01 X18.2667 Y20.6952
G01 X18.2584 Y20.6814
G01 X18.2485 Y20.6672
G01 X18.2383 Y20.6548
G01 X18.2264 Y20.6423
G01 X18.2144 Y20.6315
G01 X18.2008 Y20.6209
G01 X18.1874 Y20.6119
G01 X18.1724 Y20.6034
G01 X18.1579 Y20.5965
G01 X18.1418 Y20.5903
G01 X18.1263 Y20.5856
G01 X18.1095 Y20.5818
G01 X18.0936 Y20.5795
G01 X18.0825 Y20.5785
G01 X18.0683 Y20.5780
G01 X18.0429 Y20.5780
G01 X18.0287 Y20.5785
G01 X18.0127 Y20.5801
G01 X17.9957 Y20.5830
G01 X17.9800 Y20.5870
G01 X17.9637 Y20.5924
G01 X17.9533 Y20.5965
G01 X17.9388 Y20.6034
G01 X17.9238 Y20.6119
G01 X17.9104 Y20.6209
G01 X17.9015 Y20.6276
G01 X17.8884 Y20.6389
G01 X17.8770 Y20.6502
G01 X17.8658 Y20.6633
G01 X17.8562 Y20.6762
G01 X17.8469 Y20.6908
G01 X17.8393 Y20.7050
G01 X17.8347 Y20.7151
G01 X17.8306 Y20.7255
G01 X17.8269 Y20.7360
G01 X17.8238 Y20.7467
G01 X17.8212 Y20.7575
G01 X17.8192 Y20.7684
G01 X17.8177 Y20.7794
G01 X17.8167 Y20.7905
G01 X17.8162 Y20.8047
G01 X17.8162 Y21.0362
G01 X17.8123 Y21.0362
G01 X17.8123 Y20.9709
G01 X17.8121 Y20.9648
G01 X17.8109 Y20.9526
G01 X17.8086 Y20.9405
G01 X17.8050 Y20.9288
G01 X17.8003 Y20.9175
G01 X17.7945 Y20.9066
G01 X17.7877 Y20.8964
G01 X17.7799 Y20.8870
G01 X17.7712 Y20.8783
G01 X17.7618 Y20.8705
G01 X17.7567 Y20.8670
G01 X17.7462 Y20.8607
G01 X17.7407 Y20.8579
G01 X17.7294 Y20.8532
G01 X17.7177 Y20.8496
G01 X17.7056 Y20.8473
G01 X17.6996 Y20.8465
G01 X17.6873 Y20.8459
G01 X15.8839 Y20.8459
G01 X15.8778 Y20.8461
G01 X15.8656 Y20.8473
G01 X15.8535 Y20.8496
G01 X15.8476 Y20.8513
G01 X15.8361 Y20.8554
G01 X15.8250 Y20.8607
G01 X15.8145 Y20.8670
G01 X15.8094 Y20.8705
G01 X15.8000 Y20.8783
G01 X15.7913 Y20.8870
G01 X15.7835 Y20.8964
G01 X15.7800 Y20.9015
G01 X15.7737 Y20.9120
G01 X15.7684 Y20.9231
G01 X15.7643 Y20.9346
G01 X15.7613 Y20.9465
G01 X15.7603 Y20.9526
G01 X15.7591 Y20.9648
G01 X15.7589 Y21.0362
G01 X15.7550 Y21.0362
G01 X15.7550 Y20.8047
G01 X15.7541 Y20.7855
G01 X15.7529 Y20.7745
G01 X15.7512 Y20.7635
G01 X15.7489 Y20.7526
G01 X15.7461 Y20.7419
G01 X15.7406 Y20.7255
G01 X15.7365 Y20.7151
G01 X15.7319 Y20.7050
G01 X15.7267 Y20.6952
G01 X15.7184 Y20.6814
G01 X15.7085 Y20.6672
G01 X15.6983 Y20.6548
G01 X15.6864 Y20.6423
G01 X15.6744 Y20.6315
G01 X15.6608 Y20.6209
G01 X15.6474 Y20.6119
G01 X15.6324 Y20.6034
G01 X15.6179 Y20.5965
G01 X15.6018 Y20.5903
G01 X15.5863 Y20.5856
G01 X15.5695 Y20.5818
G01 X15.5536 Y20.5795
G01 X15.5425 Y20.5785
G01 X15.5283 Y20.5780
G01 X15.5029 Y20.5780
G01 X15.4887 Y20.5785
G01 X15.4727 Y20.5801
G01 X15.4557 Y20.5830
G01 X15.4400 Y20.5870
G01 X15.4237 Y20.5924
G01 X15.4133 Y20.5965
G01 X15.3988 Y20.6034
G01 X15.3838 Y20.6119
G01 X15.3704 Y20.6209
G01 X15.3615 Y20.6276
G01 X15.3484 Y20.6389
G01 X15.3370 Y20.6502
G01 X15.3258 Y20.6633
G01 X15.3162 Y20.6762
G01 X15.3069 Y20.6908
G01 X15.2993 Y20.7050
G01 X15.2947 Y20.7151
G01 X15.2906 Y20.7255
G01 X15.2869 Y20.7360
G01 X15.2838 Y20.7467
G01 X15.2812 Y20.7575
G01 X15.2792 Y20.7684
G01 X15.2777 Y20.7794
G01 X15.2767 Y20.7905
G01 X15.2762 Y20.8047
G01 X15.2762 Y21.0362
G01 X15.2723 Y21.0362
G01 X15.2723 Y20.9709
G01 X15.2717 Y20.9586
G01 X15.2709 Y20.9526
G01 X15.2686 Y20.9405
G01 X15.2650 Y20.9288
G01 X15.2603 Y20.9175
G01 X15.2545 Y20.9066
G01 X15.2477 Y20.8964
G01 X15.2399 Y20.8870
G01 X15.2312 Y20.8783
G01 X15.2218 Y20.8705
G01 X15.2167 Y20.8670
G01 X15.2062 Y20.8607
G01 X15.1951 Y20.8554
G01 X15.1894 Y20.8532
G01 X15.1836 Y20.8513
G01 X15.1717 Y20.8483
G01 X15.1596 Y20.8465
G01 X15.1473 Y20.8459
G01 X13.3439 Y20.8459
G01 X13.3378 Y20.8461
G01 X13.3256 Y20.8473
G01 X13.3135 Y20.8496
G01 X13.3018 Y20.8532
G01 X13.2905 Y20.8579
G01 X13.2850 Y20.8607
G01 X13.2745 Y20.8670
G01 X13.2694 Y20.8705
G01 X13.2600 Y20.8783
G01 X13.2555 Y20.8825
G01 X13.2473 Y20.8916
G01 X13.2400 Y20.9015
G01 X13.2337 Y20.9120
G01 X13.2284 Y20.9231
G01 X13.2243 Y20.9346
G01 X13.2213 Y20.9465
G01 X13.2203 Y20.9526
G01 X13.2191 Y20.9648
G01 X13.2189 Y21.0362
G01 X13.2150 Y21.0362
G01 X13.2150 Y20.8047
G01 X13.2141 Y20.7855
G01 X13.2129 Y20.7745
G01 X13.2112 Y20.7635
G01 X13.2089 Y20.7526
G01 X13.2061 Y20.7419
G01 X13.2006 Y20.7255
G01 X13.1965 Y20.7151
G01 X13.1919 Y20.7050
G01 X13.1867 Y20.6952
G01 X13.1784 Y20.6814
G01 X13.1685 Y20.6672
G01 X13.1583 Y20.6548
G01 X13.1464 Y20.6423
G01 X13.1344 Y20.6315
G01 X13.1208 Y20.6209
G01 X13.1074 Y20.6119
G01 X13.0924 Y20.6034
G01 X13.0779 Y20.5965
G01 X13.0618 Y20.5903
G01 X13.0463 Y20.5856
G01 X13.0295 Y20.5818
G01 X13.0136 Y20.5795
G01 X13.0025 Y20.5785
G01 X12.9883 Y20.5780
G01 X12.9629 Y20.5780
G01 X12.9487 Y20.5785
G01 X12.9327 Y20.5801
G01 X12.9157 Y20.5830
G01 X12.9000 Y20.5870
G01 X12.8837 Y20.5924
G01 X12.8733 Y20.5965
G01 X12.8588 Y20.6034
G01 X12.8438 Y20.6119
G01 X12.8304 Y20.6209
G01 X12.8215 Y20.6276
G01 X12.8084 Y20.6389
G01 X12.7970 Y20.6502
G01 X12.7858 Y20.6633
G01 X12.7762 Y20.6762
G01 X12.7669 Y20.6908
G01 X12.7593 Y20.7050
G01 X12.7547 Y20.7151
G01 X12.7506 Y20.7255
G01 X12.7469 Y20.7360
G01 X12.7438 Y20.7467
G01 X12.7412 Y20.7575
G01 X12.7392 Y20.7684
G01 X12.7377 Y20.7794
G01 X12.7367 Y20.7905
G01 X12.7362 Y20.8047
G01 X12.7362 Y21.0362
G01 X12.7323 Y21.0362
G01 X12.7323 Y20.9709
G01 X12.7317 Y20.9586
G01 X12.7309 Y20.9526
G01 X12.7286 Y20.9405
G01 X12.7250 Y20.9288
G01 X12.7203 Y20.9175
G01 X12.7145 Y20.9066
G01 X12.7077 Y20.8964
G01 X12.6999 Y20.8870
G01 X12.6912 Y20.8783
G01 X12.6818 Y20.8705
G01 X12.6767 Y20.8670
G01 X12.6662 Y20.8607
G01 X12.6551 Y20.8554
G01 X12.6494 Y20.8532
G01 X12.6436 Y20.8513
G01 X12.6317 Y20.8483
G01 X12.6196 Y20.8465
G01 X12.6073 Y20.8459
G01 X10.8039 Y20.8459
G01 X10.7978 Y20.8461
G01 X10.7856 Y20.8473
G01 X10.7735 Y20.8496
G01 X10.7618 Y20.8532
G01 X10.7505 Y20.8579
G01 X10.7450 Y20.8607
G01 X10.7345 Y20.8670
G01 X10.7294 Y20.8705
G01 X10.7200 Y20.8783
G01 X10.7155 Y20.8825
G01 X10.7073 Y20.8916
G01 X10.7000 Y20.9015
G01 X10.6937 Y20.9120
