(G-CODE GENERATED BY FLATCAM v8.991 - www.flatcam.org - Version Date: 2019/12/27)

(Name: Achizitie_Semnale - CADCAM Drill.DRL_cnc)
(Type: G-code from Excellon)
(Units: MM)

(Created on Friday, 26 February 2021 at 22:30)

(Feedrate: 80.0 mm/min)
(Feedrate rapids 800.0009 mm/min)

(Z_Cut: -0.03 mm)
(Z_Move: 2.0 mm)
(Z Toolchange: 12.7 mm)
(X,Y Toolchange: 0.0000, 0.0000 mm)
(Z Start: None mm)
(Z End: 5.0 mm)
(Steps per circle: 128)
(Preprocessor Excellon: default)

(X range:    4.8476 ...   64.5376  mm)
(Y range:    4.5244 ...   32.4644  mm)

(Spindle Speed: None RPM)
G21
G90
G94




G01 F80.00
G00 Z2.0000

M03
G00 X37.3356 Y19.9544
G01 Z-0.0300
G01 Z0
G00 Z2.0000
M03
G00 X46.7166 Y13.1374
G01 Z-0.0300
G01 Z0
G00 Z2.0000
G00 X46.6996 Y8.3294
G01 Z-0.0300
G01 Z0
G00 Z2.0000
G00 X26.9196 Y19.9464
G01 Z-0.0300
G01 Z0
G00 Z2.0000
G00 X37.3286 Y19.9464
G01 Z-0.0300
G01 Z0
G00 Z2.0000
M03
G00 X11.7056 Y16.4624
G01 Z-0.0300
G01 Z0
G00 Z2.0000
G00 X14.2456 Y16.4624
G01 Z-0.0300
G01 Z0
G00 Z2.0000
G00 X16.7856 Y16.4624
G01 Z-0.0300
G01 Z0
G00 Z2.0000
G00 X19.3256 Y16.4624
G01 Z-0.0300
G01 Z0
G00 Z2.0000
G00 X21.8656 Y16.4624
G01 Z-0.0300
G01 Z0
G00 Z2.0000
G00 X24.4056 Y16.4624
G01 Z-0.0300
G01 Z0
G00 Z2.0000
G00 X26.9456 Y16.4624
G01 Z-0.0300
G01 Z0
G00 Z2.0000
G00 X29.4856 Y16.4624
G01 Z-0.0300
G01 Z0
G00 Z2.0000
G00 X32.0256 Y16.4624
G01 Z-0.0300
G01 Z0
G00 Z2.0000
G00 X34.5656 Y16.4624
G01 Z-0.0300
G01 Z0
G00 Z2.0000
G00 X37.1056 Y16.4624
G01 Z-0.0300
G01 Z0
G00 Z2.0000
G00 X39.6456 Y16.4624
G01 Z-0.0300
G01 Z0
G00 Z2.0000
G00 X42.1856 Y16.4624
G01 Z-0.0300
G01 Z0
G00 Z2.0000
G00 X44.7256 Y16.4624
G01 Z-0.0300
G01 Z0
G00 Z2.0000
G00 X44.7256 Y24.0824
G01 Z-0.0300
G01 Z0
G00 Z2.0000
G00 X42.1856 Y24.0824
G01 Z-0.0300
G01 Z0
G00 Z2.0000
G00 X39.6456 Y24.0824
G01 Z-0.0300
G01 Z0
G00 Z2.0000
G00 X37.1056 Y24.0824
G01 Z-0.0300
G01 Z0
G00 Z2.0000
G00 X34.5656 Y24.0824
G01 Z-0.0300
G01 Z0
G00 Z2.0000
G00 X32.0256 Y24.0824
G01 Z-0.0300
G01 Z0
G00 Z2.0000
G00 X29.4856 Y24.0824
G01 Z-0.0300
G01 Z0
G00 Z2.0000
G00 X26.9456 Y24.0824
G01 Z-0.0300
G01 Z0
G00 Z2.0000
G00 X24.4056 Y24.0824
G01 Z-0.0300
G01 Z0
G00 Z2.0000
G00 X21.8656 Y24.0824
G01 Z-0.0300
G01 Z0
G00 Z2.0000
G00 X19.3256 Y24.0824
G01 Z-0.0300
G01 Z0
G00 Z2.0000
G00 X16.7856 Y24.0824
G01 Z-0.0300
G01 Z0
G00 Z2.0000
G00 X14.2456 Y24.0824
G01 Z-0.0300
G01 Z0
G00 Z2.0000
G00 X11.7256 Y24.0824
G01 Z-0.0300
G01 Z0
G00 Z2.0000
M03
G00 X5.3556 Y16.4624
G01 Z-0.0300
G01 Z0
G00 Z2.0000
G00 X5.3556 Y19.0024
G01 Z-0.0300
G01 Z0
G00 Z2.0000
G00 X5.3556 Y21.5424
G01 Z-0.0300
G01 Z0
G00 Z2.0000
G00 X5.3556 Y24.0824
G01 Z-0.0300
G01 Z0
G00 Z2.0000
G00 X5.3556 Y26.6224
G01 Z-0.0300
G01 Z0
G00 Z2.0000
G00 X51.0756 Y31.7024
G01 Z-0.0300
G01 Z0
G00 Z2.0000
G00 X51.0756 Y26.6224
G01 Z-0.0300
G01 Z0
G00 Z2.0000
G00 X51.0756 Y24.0824
G01 Z-0.0300
G01 Z0
G00 Z2.0000
G00 X51.0756 Y21.5424
G01 Z-0.0300
G01 Z0
G00 Z2.0000
G00 X51.0756 Y19.0024
G01 Z-0.0300
G01 Z0
G00 Z2.0000
G00 X19.3256 Y5.0324
G01 Z-0.0300
G01 Z0
G00 Z2.0000
G00 X16.7856 Y5.0324
G01 Z-0.0300
G01 Z0
G00 Z2.0000
G00 X14.2456 Y5.0324
G01 Z-0.0300
G01 Z0
G00 Z2.0000
G00 X11.7056 Y5.0324
G01 Z-0.0300
G01 Z0
G00 Z2.0000
M03
G00 X30.7556 Y12.6524
G01 Z-0.0300
G01 Z0
G00 Z2.0000
G00 X35.8356 Y12.6524
G01 Z-0.0300
G01 Z0
G00 Z2.0000
M03
G00 X63.7756 Y26.7024
G01 Z-0.0300
G01 Z0
G00 Z2.0000
G00 X63.7756 Y31.7024
G01 Z-0.0300
G01 Z0
G00 Z2.0000
G00 X63.7756 Y13.9224
G01 Z-0.0300
G01 Z0
G00 Z2.0000
G00 X63.7756 Y7.5724
G01 Z-0.0300
G01 Z0
G00 Z2.0000
M05
G00 Z5.00
G00 X0.0 Y0.0

