(G-CODE GENERATED BY FLATCAM v8.991 - www.flatcam.org - Version Date: 2019/12/27)

(Name: Achizitie_Semnale - CADCAM Bottom Copper.GBR_iso_1_cnc)
(Type: G-code from Geometry)
(Units: MM)

(Created on Saturday, 27 February 2021 at 09:06)

(TOOL DIAMETER: 0.25 mm)
(Feedrate: 200.0 mm/min)
(Feedrate_Z: 80.0 mm/min)
(Feedrate rapids 79.9998 mm/min)

(Z_Cut: -0.01 mm)
(Z_Move: 1.0 mm)
(Z Toolchange: 12.7 mm)
(X,Y Toolchange: 0.0000, 0.0000 mm)
(Z Start: None mm)
(Z End: 5.0 mm)
(Steps per circle: 128)
(Preprocessor Geometry: default)

(X range:    0.7093 ...   67.3723  mm)
(Y range:    0.3861 ...   34.4691  mm)

(Spindle Speed: None RPM)
G21
G90
G94




G01 F200.00
G00 Z1.0000

M03
G00 X0.7094 Y0.6097
G01 F80.00
G01 Z-0.0100
G01 F200.00

G00 Z1.0000
G00 X8.1350 Y7.0662
G01 F80.00
G01 Z-0.0100
G01 F200.00
G01 X8.1350 Y6.8720
G01 X8.9389 Y6.8720
G01 X8.9389 Y6.8759
G01 X8.2639 Y6.8759
G01 X8.2516 Y6.8765
G01 X8.2456 Y6.8773
G01 X8.2335 Y6.8796
G01 X8.2218 Y6.8832
G01 X8.2105 Y6.8879
G01 X8.1996 Y6.8937
G01 X8.1894 Y6.9005
G01 X8.1800 Y6.9083
G01 X8.1755 Y6.9125
G01 X8.1673 Y6.9216
G01 X8.1600 Y6.9315
G01 X8.1537 Y6.9420
G01 X8.1484 Y6.9531
G01 X8.1462 Y6.9588
G01 X8.1426 Y6.9705
G01 X8.1403 Y6.9826
G01 X8.1395 Y6.9886
G01 X8.1389 Y7.0009
G01 X8.1389 Y7.0662
G01 X8.1350 Y7.0662
G00 Z1.0000
G00 X8.1350 Y8.0786
G01 F80.00
G01 Z-0.0100
G01 F200.00
G01 X8.1389 Y8.0786
G01 X8.1389 Y8.1439
G01 X8.1391 Y8.1500
G01 X8.1403 Y8.1622
G01 X8.1426 Y8.1743
G01 X8.1462 Y8.1860
G01 X8.1484 Y8.1917
G01 X8.1537 Y8.2028
G01 X8.1600 Y8.2133
G01 X8.1673 Y8.2232
G01 X8.1755 Y8.2323
G01 X8.1846 Y8.2405
G01 X8.1894 Y8.2443
G01 X8.1996 Y8.2511
G01 X8.2105 Y8.2569
G01 X8.2218 Y8.2616
G01 X8.2335 Y8.2652
G01 X8.2395 Y8.2665
G01 X8.2516 Y8.2683
G01 X8.2639 Y8.2689
G01 X8.9389 Y8.2689
G01 X8.9389 Y8.2728
G01 X8.1350 Y8.2728
G01 X8.1350 Y8.0786
G00 Z1.0000
G00 X9.3923 Y8.2728
G01 F80.00
G01 Z-0.0100
G01 F200.00
G01 X9.3923 Y8.2689
G01 X10.0673 Y8.2689
G01 X10.0734 Y8.2687
G01 X10.0856 Y8.2675
G01 X10.0977 Y8.2652
G01 X10.1094 Y8.2616
G01 X10.1207 Y8.2569
G01 X10.1262 Y8.2541
G01 X10.1367 Y8.2478
G01 X10.1466 Y8.2405
G01 X10.1557 Y8.2323
G01 X10.1639 Y8.2232
G01 X10.1712 Y8.2133
G01 X10.1775 Y8.2028
G01 X10.1803 Y8.1973
G01 X10.1850 Y8.1860
G01 X10.1886 Y8.1743
G01 X10.1909 Y8.1622
G01 X10.1917 Y8.1562
G01 X10.1923 Y8.1439
G01 X10.1923 Y8.0786
G01 X10.1962 Y8.0786
G01 X10.1962 Y8.2728
G01 X9.3923 Y8.2728
G00 Z1.0000
G00 X10.6789 Y8.0786
G01 F80.00
G01 Z-0.0100
G01 F200.00
G01 X10.6789 Y8.1439
G01 X10.6795 Y8.1562
G01 X10.6813 Y8.1683
G01 X10.6843 Y8.1802
G01 X10.6884 Y8.1917
G01 X10.6937 Y8.2028
G01 X10.7000 Y8.2133
G01 X10.7073 Y8.2232
G01 X10.7155 Y8.2323
G01 X10.7246 Y8.2405
G01 X10.7345 Y8.2478
G01 X10.7396 Y8.2511
G01 X10.7505 Y8.2569
G01 X10.7618 Y8.2616
G01 X10.7735 Y8.2652
G01 X10.7856 Y8.2675
G01 X10.7978 Y8.2687
G01 X10.8039 Y8.2689
G01 X11.4789 Y8.2689
G01 X11.4789 Y8.2728
G01 X10.6750 Y8.2728
G01 X10.6750 Y8.0786
G01 X10.6789 Y8.0786
G00 Z1.0000
G00 X10.6750 Y7.0662
G01 F80.00
G01 Z-0.0100
G01 F200.00
G01 X10.6750 Y6.8720
G01 X11.1994 Y6.8720
G01 X11.1994 Y6.8759
G01 X10.7978 Y6.8761
G01 X10.7856 Y6.8773
G01 X10.7795 Y6.8783
G01 X10.7735 Y6.8796
G01 X10.7618 Y6.8832
G01 X10.7505 Y6.8879
G01 X10.7396 Y6.8937
G01 X10.7294 Y6.9005
G01 X10.7200 Y6.9083
G01 X10.7113 Y6.9170
G01 X10.7035 Y6.9264
G01 X10.6967 Y6.9366
G01 X10.6909 Y6.9475
G01 X10.6884 Y6.9531
G01 X10.6843 Y6.9646
G01 X10.6826 Y6.9705
G01 X10.6803 Y6.9826
G01 X10.6795 Y6.9886
G01 X10.6789 Y7.0009
G01 X10.6789 Y7.0662
G01 X10.6750 Y7.0662
G00 Z1.0000
G00 X9.3923 Y6.8759
G01 F80.00
G01 Z-0.0100
G01 F200.00
G01 X9.3923 Y6.8720
G01 X10.1962 Y6.8720
G01 X10.1962 Y7.0662
G01 X10.1923 Y7.0662
G01 X10.1923 Y7.0009
G01 X10.1921 Y6.9948
G01 X10.1909 Y6.9826
G01 X10.1886 Y6.9705
G01 X10.1850 Y6.9588
G01 X10.1828 Y6.9531
G01 X10.1775 Y6.9420
G01 X10.1712 Y6.9315
G01 X10.1677 Y6.9264
G01 X10.1599 Y6.9170
G01 X10.1512 Y6.9083
G01 X10.1418 Y6.9005
G01 X10.1316 Y6.8937
G01 X10.1207 Y6.8879
G01 X10.1094 Y6.8832
G01 X10.0977 Y6.8796
G01 X10.0917 Y6.8783
G01 X10.0796 Y6.8765
G01 X10.0673 Y6.8759
G01 X9.3923 Y6.8759
G00 Z1.0000
G00 X10.5646 Y5.2591
G01 F80.00
G01 Z-0.0100
G01 F200.00
G01 X10.5646 Y6.0484
G01 X10.5648 Y6.0545
G01 X10.5660 Y6.0667
G01 X10.5670 Y6.0728
G01 X10.5700 Y6.0847
G01 X10.5741 Y6.0962
G01 X10.5766 Y6.1018
G01 X10.5824 Y6.1127
G01 X10.5857 Y6.1178
G01 X10.5930 Y6.1277
G01 X10.6012 Y6.1368
G01 X10.6103 Y6.1450
G01 X10.6151 Y6.1488
G01 X10.6253 Y6.1556
G01 X10.6362 Y6.1614
G01 X10.6475 Y6.1661
G01 X10.6592 Y6.1697
G01 X10.6713 Y6.1720
G01 X10.6773 Y6.1728
G01 X10.6896 Y6.1734
G01 X11.1994 Y6.1734
G01 X11.1994 Y6.1773
G01 X10.5607 Y6.1773
G01 X10.5607 Y5.2591
G01 X10.5646 Y5.2591
G00 Z1.0000
G00 X10.5607 Y4.8057
G01 F80.00
G01 Z-0.0100
G01 F200.00
G01 X10.5607 Y3.8875
G01 X11.1994 Y3.8875
G01 X11.1994 Y3.8914
G01 X10.6896 Y3.8914
G01 X10.6773 Y3.8920
G01 X10.6652 Y3.8938
G01 X10.6533 Y3.8968
G01 X10.6475 Y3.8987
G01 X10.6362 Y3.9034
G01 X10.6253 Y3.9092
G01 X10.6151 Y3.9160
G01 X10.6103 Y3.9198
G01 X10.6012 Y3.9280
G01 X10.5930 Y3.9371
G01 X10.5857 Y3.9470
G01 X10.5794 Y3.9575
G01 X10.5741 Y3.9686
G01 X10.5719 Y3.9743
G01 X10.5683 Y3.9860
G01 X10.5670 Y3.9920
G01 X10.5652 Y4.0041
G01 X10.5648 Y4.0103
G01 X10.5646 Y4.8057
G01 X10.5607 Y4.8057
G00 Z1.0000
G00 X12.2118 Y3.8914
G01 F80.00
G01 Z-0.0100
G01 F200.00
G01 X12.2118 Y3.8875
G01 X20.4705 Y3.8875
G01 X20.4705 Y6.1773
G01 X20.0541 Y6.1775
G01 X20.0369 Y6.1788
G01 X20.0210 Y6.1811
G01 X20.0042 Y6.1849
G01 X19.9887 Y6.1896
G01 X19.9726 Y6.1958
G01 X19.9581 Y6.2027
G01 X19.9483 Y6.2080
G01 X19.9388 Y6.2139
G01 X19.9247 Y6.2238
G01 X19.9123 Y6.2340
G01 X19.8998 Y6.2459
G01 X19.8890 Y6.2579
G01 X19.8783 Y6.2715
G01 X19.8694 Y6.2849
G01 X19.8609 Y6.2999
G01 X19.8540 Y6.3144
G01 X19.8478 Y6.3305
G01 X19.8431 Y6.3460
G01 X19.8393 Y6.3628
G01 X19.8370 Y6.3787
G01 X19.8357 Y6.3959
G01 X19.8355 Y6.6453
G01 X19.8364 Y6.6645
G01 X19.8385 Y6.6816
G01 X19.8416 Y6.6974
G01 X19.8444 Y6.7082
G01 X19.8478 Y6.7188
G01 X19.8540 Y6.7349
G01 X19.8609 Y6.7494
G01 X19.8662 Y6.7592
G01 X19.8721 Y6.7687
G01 X19.8820 Y6.7828
G01 X19.8890 Y6.7914
G01 X19.8963 Y6.7998
G01 X19.9077 Y6.8112
G01 X19.9208 Y6.8224
G01 X19.9337 Y6.8320
G01 X19.9431 Y6.8381
G01 X19.9527 Y6.8437
G01 X19.9681 Y6.8515
G01 X19.9830 Y6.8576
G01 X19.9993 Y6.8631
G01 X20.0150 Y6.8670
G01 X20.0320 Y6.8699
G01 X20.0480 Y6.8715
G01 X20.0622 Y6.8720
G01 X20.3562 Y6.8720
G01 X20.3562 Y8.2728
G01 X18.2950 Y8.2728
G01 X18.2950 Y6.8720
G01 X18.5890 Y6.8720
G01 X18.6082 Y6.8711
G01 X18.6253 Y6.8690
G01 X18.6411 Y6.8659
G01 X18.6519 Y6.8631
G01 X18.6625 Y6.8597
G01 X18.6786 Y6.8535
G01 X18.6931 Y6.8466
G01 X18.7029 Y6.8413
G01 X18.7124 Y6.8354
G01 X18.7265 Y6.8255
G01 X18.7351 Y6.8185
G01 X18.7435 Y6.8112
G01 X18.7549 Y6.7998
G01 X18.7622 Y6.7914
G01 X18.7692 Y6.7828
G01 X18.7791 Y6.7687
G01 X18.7874 Y6.7548
G01 X18.7926 Y6.7450
G01 X18.7972 Y6.7349
G01 X18.8034 Y6.7188
G01 X18.8068 Y6.7082
G01 X18.8096 Y6.6974
G01 X18.8127 Y6.6816
G01 X18.8148 Y6.6645
G01 X18.8157 Y6.6453
G01 X18.8155 Y6.3959
G01 X18.8142 Y6.3787
G01 X18.8127 Y6.3677
G01 X18.8107 Y6.3568
G01 X18.8068 Y6.3411
G01 X18.8013 Y6.3248
G01 X18.7952 Y6.3099
G01 X18.7874 Y6.2945
G01 X18.7791 Y6.2806
G01 X18.7692 Y6.2665
G01 X18.7590 Y6.2541
G01 X18.7514 Y6.2459
G01 X18.7389 Y6.2340
G01 X18.7265 Y6.2238
G01 X18.7124 Y6.2139
G01 X18.6985 Y6.2056
G01 X18.6887 Y6.2004
G01 X18.6729 Y6.1935
G01 X18.6577 Y6.1880
G01 X18.6411 Y6.1834
G01 X18.6302 Y6.1811
G01 X18.6143 Y6.1788
G01 X18.6032 Y6.1778
G01 X18.5890 Y6.1773
G01 X17.5222 Y6.1773
G01 X17.5080 Y6.1778
G01 X17.4920 Y6.1794
G01 X17.4750 Y6.1823
G01 X17.4593 Y6.1862
G01 X17.4430 Y6.1917
G01 X17.4281 Y6.1978
G01 X17.4127 Y6.2056
G01 X17.3988 Y6.2139
G01 X17.3847 Y6.2238
G01 X17.3723 Y6.2340
G01 X17.3641 Y6.2416
G01 X17.3522 Y6.2541
G01 X17.3420 Y6.2665
G01 X17.3321 Y6.2806
G01 X17.3238 Y6.2945
G01 X17.3160 Y6.3099
G01 X17.3117 Y6.3201
G01 X17.3078 Y6.3305
G01 X17.3044 Y6.3411
G01 X17.3016 Y6.3519
G01 X17.2985 Y6.3677
G01 X17.2970 Y6.3787
G01 X17.2960 Y6.3898
G01 X17.2955 Y6.4040
G01 X17.2955 Y6.6453
G01 X17.2960 Y6.6595
G01 X17.2976 Y6.6755
G01 X17.3005 Y6.6925
G01 X17.3031 Y6.7033
G01 X17.3078 Y6.7188
G01 X17.3140 Y6.7349
G01 X17.3209 Y6.7494
G01 X17.3294 Y6.7644
G01 X17.3383 Y6.7778
G01 X17.3451 Y6.7867
G01 X17.3563 Y6.7998
G01 X17.3641 Y6.8077
G01 X17.3761 Y6.8185
G01 X17.3897 Y6.8292
G01 X17.4031 Y6.8381
G01 X17.4181 Y6.8466
G01 X17.4326 Y6.8535
G01 X17.4430 Y6.8576
G01 X17.4535 Y6.8613
G01 X17.4642 Y6.8644
G01 X17.4810 Y6.8682
G01 X17.4969 Y6.8705
G01 X17.5141 Y6.8718
G01 X17.8162 Y6.8720
G01 X17.8162 Y8.2728
G01 X15.7550 Y8.2728
G01 X15.7550 Y6.8720
G01 X16.0490 Y6.8720
G01 X16.0682 Y6.8711
G01 X16.0853 Y6.8690
G01 X16.1011 Y6.8659
G01 X16.1119 Y6.8631
G01 X16.1225 Y6.8597
G01 X16.1386 Y6.8535
G01 X16.1531 Y6.8466
G01 X16.1629 Y6.8413
G01 X16.1724 Y6.8354
G01 X16.1865 Y6.8255
G01 X16.1951 Y6.8185
G01 X16.2035 Y6.8112
G01 X16.2149 Y6.7998
G01 X16.2222 Y6.7914
G01 X16.2292 Y6.7828
G01 X16.2391 Y6.7687
G01 X16.2474 Y6.7548
G01 X16.2526 Y6.7450
G01 X16.2572 Y6.7349
G01 X16.2634 Y6.7188
G01 X16.2668 Y6.7082
G01 X16.2696 Y6.6974
G01 X16.2727 Y6.6816
G01 X16.2748 Y6.6645
G01 X16.2757 Y6.6453
G01 X16.2755 Y6.3959
G01 X16.2742 Y6.3787
G01 X16.2727 Y6.3677
G01 X16.2707 Y6.3568
G01 X16.2668 Y6.3411
G01 X16.2613 Y6.3248
G01 X16.2552 Y6.3099
G01 X16.2474 Y6.2945
G01 X16.2391 Y6.2806
G01 X16.2292 Y6.2665
G01 X16.2190 Y6.2541
G01 X16.2114 Y6.2459
G01 X16.1989 Y6.2340
G01 X16.1865 Y6.2238
G01 X16.1724 Y6.2139
G01 X16.1585 Y6.2056
G01 X16.1487 Y6.2004
G01 X16.1329 Y6.1935
G01 X16.1177 Y6.1880
G01 X16.1011 Y6.1834
G01 X16.0902 Y6.1811
G01 X16.0743 Y6.1788
G01 X16.0632 Y6.1778
G01 X16.0490 Y6.1773
G01 X14.9822 Y6.1773
G01 X14.9680 Y6.1778
G01 X14.9520 Y6.1794
G01 X14.9350 Y6.1823
G01 X14.9193 Y6.1862
G01 X14.9030 Y6.1917
G01 X14.8881 Y6.1978
G01 X14.8727 Y6.2056
G01 X14.8588 Y6.2139
G01 X14.8447 Y6.2238
G01 X14.8323 Y6.2340
G01 X14.8241 Y6.2416
G01 X14.8122 Y6.2541
G01 X14.8020 Y6.2665
G01 X14.7921 Y6.2806
G01 X14.7838 Y6.2945
G01 X14.7760 Y6.3099
G01 X14.7717 Y6.3201
G01 X14.7678 Y6.3305
G01 X14.7644 Y6.3411
G01 X14.7616 Y6.3519
G01 X14.7585 Y6.3677
G01 X14.7570 Y6.3787
G01 X14.7560 Y6.3898
G01 X14.7555 Y6.4040
G01 X14.7555 Y6.6453
G01 X14.7560 Y6.6595
G01 X14.7576 Y6.6755
G01 X14.7605 Y6.6925
G01 X14.7631 Y6.7033
G01 X14.7678 Y6.7188
G01 X14.7740 Y6.7349
G01 X14.7809 Y6.7494
G01 X14.7894 Y6.7644
G01 X14.7983 Y6.7778
G01 X14.8051 Y6.7867
G01 X14.8163 Y6.7998
G01 X14.8241 Y6.8077
G01 X14.8361 Y6.8185
G01 X14.8497 Y6.8292
G01 X14.8631 Y6.8381
G01 X14.8781 Y6.8466
G01 X14.8926 Y6.8535
G01 X14.9030 Y6.8576
G01 X14.9135 Y6.8613
G01 X14.9242 Y6.8644
G01 X14.9410 Y6.8682
G01 X14.9569 Y6.8705
G01 X14.9741 Y6.8718
G01 X15.2762 Y6.8720
G01 X15.2762 Y8.2728
G01 X13.2150 Y8.2728
G01 X13.2150 Y6.8720
G01 X13.5090 Y6.8720
G01 X13.5282 Y6.8711
G01 X13.5453 Y6.8690
G01 X13.5611 Y6.8659
G01 X13.5719 Y6.8631
G01 X13.5825 Y6.8597
G01 X13.5986 Y6.8535
G01 X13.6131 Y6.8466
G01 X13.6229 Y6.8413
G01 X13.6324 Y6.8354
G01 X13.6465 Y6.8255
G01 X13.6589 Y6.8153
G01 X13.6714 Y6.8034
G01 X13.6790 Y6.7952
G01 X13.6861 Y6.7867
G01 X13.6957 Y6.7738
G01 X13.7050 Y6.7592
G01 X13.7126 Y6.7450
G01 X13.7195 Y6.7292
G01 X13.7250 Y6.7140
G01 X13.7281 Y6.7033
G01 X13.7307 Y6.6925
G01 X13.7336 Y6.6755
G01 X13.7352 Y6.6595
G01 X13.7357 Y6.6453
G01 X13.7356 Y6.4009
G01 X13.7352 Y6.3898
G01 X13.7342 Y6.3787
G01 X13.7319 Y6.3628
G01 X13.7296 Y6.3519
G01 X13.7250 Y6.3353
G01 X13.7195 Y6.3201
G01 X13.7126 Y6.3043
G01 X13.7050 Y6.2901
G01 X13.6957 Y6.2755
G01 X13.6861 Y6.2626
G01 X13.6790 Y6.2541
G01 X13.6714 Y6.2459
G01 X13.6589 Y6.2340
G01 X13.6465 Y6.2238
G01 X13.6324 Y6.2139
G01 X13.6185 Y6.2056
G01 X13.6087 Y6.2004
G01 X13.5986 Y6.1958
G01 X13.5825 Y6.1896
G01 X13.5670 Y6.1849
G01 X13.5502 Y6.1811
G01 X13.5343 Y6.1788
G01 X13.5232 Y6.1778
G01 X13.5090 Y6.1773
G01 X12.2118 Y6.1773
G01 X12.2118 Y6.1734
G01 X12.7216 Y6.1734
G01 X12.7277 Y6.1732
G01 X12.7399 Y6.1720
G01 X12.7520 Y6.1697
G01 X12.7579 Y6.1680
G01 X12.7694 Y6.1639
G01 X12.7750 Y6.1614
G01 X12.7859 Y6.1556
G01 X12.7961 Y6.1488
G01 X12.8009 Y6.1450
G01 X12.8100 Y6.1368
G01 X12.8142 Y6.1323
G01 X12.8182 Y6.1277
G01 X12.8255 Y6.1178
G01 X12.8288 Y6.1127
G01 X12.8346 Y6.1018
G01 X12.8393 Y6.0905
G01 X12.8412 Y6.0847
G01 X12.8442 Y6.0728
G01 X12.8452 Y6.0667
G01 X12.8464 Y6.0545
G01 X12.8466 Y6.0484
G01 X12.8466 Y4.0164
G01 X12.8460 Y4.0041
G01 X12.8442 Y3.9920
G01 X12.8429 Y3.9860
G01 X12.8393 Y3.9743
G01 X12.8371 Y3.9686
G01 X12.8318 Y3.9575
G01 X12.8255 Y3.9470
G01 X12.8182 Y3.9371
G01 X12.8100 Y3.9280
G01 X12.8055 Y3.9238
G01 X12.7961 Y3.9160
G01 X12.7859 Y3.9092
G01 X12.7750 Y3.9034
G01 X12.7694 Y3.9009
G01 X12.7579 Y3.8968
G01 X12.7460 Y3.8938
G01 X12.7339 Y3.8920
G01 X12.7216 Y3.8914
G01 X12.2118 Y3.8914
G00 Z1.0000
G00 X13.2296 Y3.8914
G01 F80.00
G01 Z-0.0100
G01 F200.00
G01 X15.2677 Y3.8916
G01 X15.2739 Y3.8920
G01 X15.2860 Y3.8938
G01 X15.2920 Y3.8951
G01 X15.3037 Y3.8987
G01 X15.3150 Y3.9034
G01 X15.3205 Y3.9062
G01 X15.3310 Y3.9125
G01 X15.3361 Y3.9160
G01 X15.3455 Y3.9238
G01 X15.3500 Y3.9280
G01 X15.3582 Y3.9371
G01 X15.3655 Y3.9470
G01 X15.3688 Y3.9521
G01 X15.3746 Y3.9630
G01 X15.3793 Y3.9743
G01 X15.3812 Y3.9801
G01 X15.3842 Y3.9920
G01 X15.3860 Y4.0041
G01 X15.3866 Y4.0164
G01 X15.3866 Y6.0484
G01 X15.3864 Y6.0545
G01 X15.3852 Y6.0667
G01 X15.3842 Y6.0728
G01 X15.3812 Y6.0847
G01 X15.3793 Y6.0905
G01 X15.3746 Y6.1018
G01 X15.3688 Y6.1127
G01 X15.3655 Y6.1178
G01 X15.3582 Y6.1277
G01 X15.3542 Y6.1323
G01 X15.3500 Y6.1368
G01 X15.3409 Y6.1450
G01 X15.3361 Y6.1488
G01 X15.3259 Y6.1556
G01 X15.3150 Y6.1614
G01 X15.3094 Y6.1639
G01 X15.2979 Y6.1680
G01 X15.2920 Y6.1697
G01 X15.2799 Y6.1720
G01 X15.2677 Y6.1732
G01 X15.2616 Y6.1734
G01 X14.7518 Y6.1734
G01 X14.7518 Y6.8759
G01 X15.1473 Y6.8759
G01 X15.1596 Y6.8765
G01 X15.1717 Y6.8783
G01 X15.1777 Y6.8796
G01 X15.1894 Y6.8832
G01 X15.2007 Y6.8879
G01 X15.2062 Y6.8907
G01 X15.2167 Y6.8970
G01 X15.2218 Y6.9005
G01 X15.2266 Y6.9043
G01 X15.2357 Y6.9125
G01 X15.2439 Y6.9216
G01 X15.2477 Y6.9264
G01 X15.2512 Y6.9315
G01 X15.2575 Y6.9420
G01 X15.2603 Y6.9475
G01 X15.2650 Y6.9588
G01 X15.2669 Y6.9646
G01 X15.2699 Y6.9765
G01 X15.2717 Y6.9886
G01 X15.2723 Y7.0009
G01 X15.2721 Y8.1500
G01 X15.2709 Y8.1622
G01 X15.2686 Y8.1743
G01 X15.2669 Y8.1802
G01 X15.2628 Y8.1917
G01 X15.2603 Y8.1973
G01 X15.2545 Y8.2082
G01 X15.2512 Y8.2133
G01 X15.2477 Y8.2184
G01 X15.2399 Y8.2278
G01 X15.2312 Y8.2365
G01 X15.2218 Y8.2443
G01 X15.2167 Y8.2478
G01 X15.2062 Y8.2541
G01 X15.2007 Y8.2569
G01 X15.1894 Y8.2616
G01 X15.1777 Y8.2652
G01 X15.1717 Y8.2665
G01 X15.1596 Y8.2683
G01 X15.1473 Y8.2689
G01 X13.3378 Y8.2687
G01 X13.3256 Y8.2675
G01 X13.3135 Y8.2652
G01 X13.3076 Y8.2635
G01 X13.2961 Y8.2594
G01 X13.2905 Y8.2569
G01 X13.2796 Y8.2511
G01 X13.2745 Y8.2478
G01 X13.2646 Y8.2405
G01 X13.2600 Y8.2365
G01 X13.2555 Y8.2323
G01 X13.2473 Y8.2232
G01 X13.2435 Y8.2184
G01 X13.2367 Y8.2082
G01 X13.2309 Y8.1973
G01 X13.2284 Y8.1917
G01 X13.2243 Y8.1802
G01 X13.2213 Y8.1683
G01 X13.2195 Y8.1562
G01 X13.2189 Y8.1439
G01 X13.2189 Y7.0009
G01 X13.2195 Y6.9886
G01 X13.2203 Y6.9826
G01 X13.2226 Y6.9705
G01 X13.2243 Y6.9646
G01 X13.2284 Y6.9531
G01 X13.2309 Y6.9475
G01 X13.2367 Y6.9366
G01 X13.2400 Y6.9315
G01 X13.2473 Y6.9216
G01 X13.2513 Y6.9170
G01 X13.2600 Y6.9083
G01 X13.2646 Y6.9043
G01 X13.2745 Y6.8970
G01 X13.2850 Y6.8907
G01 X13.2905 Y6.8879
G01 X13.2961 Y6.8854
G01 X13.3076 Y6.8813
G01 X13.3195 Y6.8783
G01 X13.3316 Y6.8765
G01 X13.3439 Y6.8759
G01 X13.7394 Y6.8759
G01 X13.7394 Y6.1734
G01 X13.2296 Y6.1734
G01 X13.2235 Y6.1732
G01 X13.2113 Y6.1720
G01 X13.1992 Y6.1697
G01 X13.1875 Y6.1661
G01 X13.1762 Y6.1614
G01 X13.1707 Y6.1586
G01 X13.1653 Y6.1556
G01 X13.1551 Y6.1488
G01 X13.1503 Y6.1450
G01 X13.1412 Y6.1368
G01 X13.1370 Y6.1323
G01 X13.1292 Y6.1229
G01 X13.1257 Y6.1178
G01 X13.1194 Y6.1073
G01 X13.1166 Y6.1018
G01 X13.1119 Y6.0905
G01 X13.1100 Y6.0847
G01 X13.1070 Y6.0728
G01 X13.1052 Y6.0607
G01 X13.1046 Y6.0484
G01 X13.1048 Y4.0103
G01 X13.1052 Y4.0041
G01 X13.1070 Y3.9920
G01 X13.1100 Y3.9801
G01 X13.1141 Y3.9686
G01 X13.1194 Y3.9575
G01 X13.1257 Y3.9470
G01 X13.1330 Y3.9371
G01 X13.1412 Y3.9280
G01 X13.1503 Y3.9198
G01 X13.1602 Y3.9125
G01 X13.1707 Y3.9062
G01 X13.1818 Y3.9009
G01 X13.1933 Y3.8968
G01 X13.2052 Y3.8938
G01 X13.2173 Y3.8920
G01 X13.2296 Y3.8914
G00 Z1.0000
G00 X15.7696 Y3.8914
G01 F80.00
G01 Z-0.0100
G01 F200.00
G01 X17.8077 Y3.8916
G01 X17.8139 Y3.8920
G01 X17.8260 Y3.8938
G01 X17.8320 Y3.8951
G01 X17.8437 Y3.8987
G01 X17.8550 Y3.9034
G01 X17.8659 Y3.9092
G01 X17.8710 Y3.9125
G01 X17.8809 Y3.9198
G01 X17.8855 Y3.9238
G01 X17.8942 Y3.9325
G01 X17.8982 Y3.9371
G01 X17.9055 Y3.9470
G01 X17.9118 Y3.9575
G01 X17.9146 Y3.9630
G01 X17.9193 Y3.9743
G01 X17.9229 Y3.9860
G01 X17.9252 Y3.9981
G01 X17.9260 Y4.0041
G01 X17.9266 Y4.0164
G01 X17.9266 Y6.0484
G01 X17.9264 Y6.0545
G01 X17.9252 Y6.0667
G01 X17.9229 Y6.0788
G01 X17.9212 Y6.0847
G01 X17.9171 Y6.0962
G01 X17.9118 Y6.1073
G01 X17.9088 Y6.1127
G01 X17.9020 Y6.1229
G01 X17.8982 Y6.1277
G01 X17.8900 Y6.1368
G01 X17.8855 Y6.1410
G01 X17.8761 Y6.1488
G01 X17.8710 Y6.1523
G01 X17.8605 Y6.1586
G01 X17.8550 Y6.1614
G01 X17.8494 Y6.1639
G01 X17.8379 Y6.1680
G01 X17.8260 Y6.1710
G01 X17.8199 Y6.1720
G01 X17.8077 Y6.1732
G01 X17.8016 Y6.1734
G01 X17.2918 Y6.1734
G01 X17.2918 Y6.8759
G01 X17.6873 Y6.8759
G01 X17.6996 Y6.8765
G01 X17.7117 Y6.8783
G01 X17.7177 Y6.8796
G01 X17.7294 Y6.8832
G01 X17.7407 Y6.8879
G01 X17.7462 Y6.8907
G01 X17.7567 Y6.8970
G01 X17.7618 Y6.9005
G01 X17.7712 Y6.9083
G01 X17.7757 Y6.9125
G01 X17.7839 Y6.9216
G01 X17.7877 Y6.9264
G01 X17.7945 Y6.9366
G01 X17.7975 Y6.9420
G01 X17.8003 Y6.9475
G01 X17.8050 Y6.9588
G01 X17.8069 Y6.9646
G01 X17.8099 Y6.9765
G01 X17.8117 Y6.9886
G01 X17.8123 Y7.0009
G01 X17.8121 Y8.1500
G01 X17.8117 Y8.1562
G01 X17.8099 Y8.1683
G01 X17.8086 Y8.1743
G01 X17.8050 Y8.1860
G01 X17.8003 Y8.1973
G01 X17.7945 Y8.2082
G01 X17.7912 Y8.2133
G01 X17.7839 Y8.2232
G01 X17.7757 Y8.2323
G01 X17.7712 Y8.2365
G01 X17.7618 Y8.2443
G01 X17.7567 Y8.2478
G01 X17.7462 Y8.2541
G01 X17.7407 Y8.2569
G01 X17.7294 Y8.2616
G01 X17.7177 Y8.2652
G01 X17.7117 Y8.2665
G01 X17.6996 Y8.2683
G01 X17.6873 Y8.2689
G01 X15.8778 Y8.2687
G01 X15.8656 Y8.2675
G01 X15.8535 Y8.2652
G01 X15.8476 Y8.2635
G01 X15.8361 Y8.2594
G01 X15.8305 Y8.2569
G01 X15.8196 Y8.2511
G01 X15.8145 Y8.2478
G01 X15.8046 Y8.2405
G01 X15.8000 Y8.2365
G01 X15.7955 Y8.2323
G01 X15.7873 Y8.2232
G01 X15.7835 Y8.2184
G01 X15.7767 Y8.2082
G01 X15.7709 Y8.1973
G01 X15.7684 Y8.1917
G01 X15.7643 Y8.1802
G01 X15.7613 Y8.1683
G01 X15.7595 Y8.1562
G01 X15.7589 Y8.1439
G01 X15.7589 Y7.0009
G01 X15.7595 Y6.9886
G01 X15.7603 Y6.9826
G01 X15.7626 Y6.9705
G01 X15.7662 Y6.9588
G01 X15.7684 Y6.9531
G01 X15.7737 Y6.9420
G01 X15.7767 Y6.9366
G01 X15.7835 Y6.9264
G01 X15.7873 Y6.9216
G01 X15.7955 Y6.9125
G01 X15.8046 Y6.9043
G01 X15.8094 Y6.9005
G01 X15.8196 Y6.8937
G01 X15.8250 Y6.8907
G01 X15.8361 Y6.8854
G01 X15.8418 Y6.8832
G01 X15.8476 Y6.8813
G01 X15.8595 Y6.8783
G01 X15.8716 Y6.8765
G01 X15.8839 Y6.8759
G01 X16.2794 Y6.8759
G01 X16.2794 Y6.1734
G01 X15.7696 Y6.1734
G01 X15.7635 Y6.1732
G01 X15.7513 Y6.1720
G01 X15.7392 Y6.1697
G01 X15.7275 Y6.1661
G01 X15.7162 Y6.1614
G01 X15.7107 Y6.1586
G01 X15.7053 Y6.1556
G01 X15.6951 Y6.1488
G01 X15.6903 Y6.1450
G01 X15.6812 Y6.1368
G01 X15.6770 Y6.1323
G01 X15.6692 Y6.1229
G01 X15.6657 Y6.1178
G01 X15.6594 Y6.1073
G01 X15.6566 Y6.1018
G01 X15.6519 Y6.0905
G01 X15.6500 Y6.0847
G01 X15.6470 Y6.0728
G01 X15.6452 Y6.0607
G01 X15.6446 Y6.0484
G01 X15.6448 Y4.0103
G01 X15.6452 Y4.0041
G01 X15.6470 Y3.9920
G01 X15.6500 Y3.9801
G01 X15.6541 Y3.9686
G01 X15.6594 Y3.9575
G01 X15.6657 Y3.9470
G01 X15.6730 Y3.9371
G01 X15.6812 Y3.9280
G01 X15.6903 Y3.9198
G01 X15.7002 Y3.9125
G01 X15.7107 Y3.9062
G01 X15.7218 Y3.9009
G01 X15.7333 Y3.8968
G01 X15.7452 Y3.8938
G01 X15.7573 Y3.8920
G01 X15.7696 Y3.8914
G00 Z1.0000
G00 X18.3096 Y3.8914
G01 F80.00
G01 Z-0.0100
G01 F200.00
G01 X20.3477 Y3.8916
G01 X20.3539 Y3.8920
G01 X20.3660 Y3.8938
G01 X20.3720 Y3.8951
G01 X20.3837 Y3.8987
G01 X20.3950 Y3.9034
G01 X20.4059 Y3.9092
G01 X20.4110 Y3.9125
G01 X20.4209 Y3.9198
G01 X20.4255 Y3.9238
G01 X20.4342 Y3.9325
G01 X20.4382 Y3.9371
G01 X20.4455 Y3.9470
G01 X20.4518 Y3.9575
G01 X20.4546 Y3.9630
G01 X20.4593 Y3.9743
G01 X20.4629 Y3.9860
G01 X20.4652 Y3.9981
G01 X20.4660 Y4.0041
G01 X20.4666 Y4.0164
G01 X20.4666 Y6.0484
G01 X20.4664 Y6.0545
G01 X20.4652 Y6.0667
G01 X20.4629 Y6.0788
G01 X20.4612 Y6.0847
G01 X20.4571 Y6.0962
G01 X20.4518 Y6.1073
G01 X20.4488 Y6.1127
G01 X20.4420 Y6.1229
G01 X20.4382 Y6.1277
G01 X20.4300 Y6.1368
G01 X20.4255 Y6.1410
G01 X20.4161 Y6.1488
G01 X20.4110 Y6.1523
G01 X20.4005 Y6.1586
G01 X20.3950 Y6.1614
G01 X20.3894 Y6.1639
G01 X20.3779 Y6.1680
G01 X20.3660 Y6.1710
G01 X20.3599 Y6.1720
G01 X20.3477 Y6.1732
G01 X20.3416 Y6.1734
G01 X19.8318 Y6.1734
G01 X19.8318 Y6.8759
G01 X20.2273 Y6.8759
G01 X20.2396 Y6.8765
G01 X20.2517 Y6.8783
G01 X20.2577 Y6.8796
G01 X20.2694 Y6.8832
G01 X20.2807 Y6.8879
G01 X20.2862 Y6.8907
G01 X20.2967 Y6.8970
G01 X20.3018 Y6.9005
G01 X20.3112 Y6.9083
G01 X20.3157 Y6.9125
G01 X20.3239 Y6.9216
G01 X20.3277 Y6.9264
G01 X20.3345 Y6.9366
G01 X20.3375 Y6.9420
G01 X20.3403 Y6.9475
G01 X20.3450 Y6.9588
G01 X20.3469 Y6.9646
G01 X20.3499 Y6.9765
G01 X20.3517 Y6.9886
G01 X20.3523 Y7.0009
G01 X20.3521 Y8.1500
G01 X20.3517 Y8.1562
G01 X20.3499 Y8.1683
G01 X20.3486 Y8.1743
G01 X20.3450 Y8.1860
G01 X20.3403 Y8.1973
G01 X20.3345 Y8.2082
G01 X20.3312 Y8.2133
G01 X20.3239 Y8.2232
G01 X20.3157 Y8.2323
G01 X20.3112 Y8.2365
G01 X20.3018 Y8.2443
G01 X20.2967 Y8.2478
G01 X20.2862 Y8.2541
G01 X20.2807 Y8.2569
G01 X20.2694 Y8.2616
G01 X20.2577 Y8.2652
G01 X20.2517 Y8.2665
G01 X20.2396 Y8.2683
G01 X20.2273 Y8.2689
G01 X18.4178 Y8.2687
G01 X18.4056 Y8.2675
G01 X18.3935 Y8.2652
G01 X18.3876 Y8.2635
G01 X18.3761 Y8.2594
G01 X18.3705 Y8.2569
G01 X18.3596 Y8.2511
G01 X18.3545 Y8.2478
G01 X18.3446 Y8.2405
G01 X18.3400 Y8.2365
G01 X18.3313 Y8.2278
G01 X18.3273 Y8.2232
G01 X18.3235 Y8.2184
G01 X18.3167 Y8.2082
G01 X18.3109 Y8.1973
G01 X18.3062 Y8.1860
G01 X18.3026 Y8.1743
G01 X18.3013 Y8.1683
G01 X18.2995 Y8.1562
G01 X18.2989 Y8.1439
G01 X18.2989 Y7.0009
G01 X18.2991 Y6.9948
G01 X18.3003 Y6.9826
G01 X18.3026 Y6.9705
G01 X18.3062 Y6.9588
G01 X18.3084 Y6.9531
G01 X18.3109 Y6.9475
G01 X18.3167 Y6.9366
G01 X18.3200 Y6.9315
G01 X18.3273 Y6.9216
G01 X18.3313 Y6.9170
G01 X18.3400 Y6.9083
G01 X18.3494 Y6.9005
G01 X18.3545 Y6.8970
G01 X18.3596 Y6.8937
G01 X18.3705 Y6.8879
G01 X18.3818 Y6.8832
G01 X18.3935 Y6.8796
G01 X18.3995 Y6.8783
G01 X18.4116 Y6.8765
G01 X18.4239 Y6.8759
G01 X18.8194 Y6.8759
G01 X18.8194 Y6.1734
G01 X18.3096 Y6.1734
G01 X18.2973 Y6.1728
G01 X18.2913 Y6.1720
G01 X18.2792 Y6.1697
G01 X18.2733 Y6.1680
G01 X18.2675 Y6.1661
G01 X18.2562 Y6.1614
G01 X18.2507 Y6.1586
G01 X18.2402 Y6.1523
G01 X18.2351 Y6.1488
G01 X18.2257 Y6.1410
G01 X18.2170 Y6.1323
G01 X18.2130 Y6.1277
G01 X18.2057 Y6.1178
G01 X18.1994 Y6.1073
G01 X18.1941 Y6.0962
G01 X18.1919 Y6.0905
G01 X18.1900 Y6.0847
G01 X18.1870 Y6.0728
G01 X18.1852 Y6.0607
G01 X18.1846 Y6.0484
G01 X18.1848 Y4.0103
G01 X18.1852 Y4.0041
G01 X18.1870 Y3.9920
G01 X18.1900 Y3.9801
G01 X18.1941 Y3.9686
G01 X18.1994 Y3.9575
G01 X18.2057 Y3.9470
G01 X18.2130 Y3.9371
G01 X18.2212 Y3.9280
G01 X18.2303 Y3.9198
G01 X18.2402 Y3.9125
G01 X18.2507 Y3.9062
G01 X18.2618 Y3.9009
G01 X18.2733 Y3.8968
G01 X18.2852 Y3.8938
G01 X18.2973 Y3.8920
G01 X18.3096 Y3.8914
G00 Z1.0000
G00 X20.8389 Y8.1439
G01 F80.00
G01 Z-0.0100
G01 F200.00
G01 X20.8389 Y7.0009
G01 X20.8395 Y6.9886
G01 X20.8413 Y6.9765
G01 X20.8426 Y6.9705
G01 X20.8462 Y6.9588
G01 X20.8509 Y6.9475
G01 X20.8567 Y6.9366
G01 X20.8635 Y6.9264
G01 X20.8713 Y6.9170
G01 X20.8800 Y6.9083
G01 X20.8894 Y6.9005
G01 X20.8996 Y6.8937
G01 X20.9050 Y6.8907
G01 X20.9161 Y6.8854
G01 X20.9276 Y6.8813
G01 X20.9395 Y6.8783
G01 X20.9516 Y6.8765
G01 X20.9578 Y6.8761
G01 X22.7673 Y6.8759
G01 X22.7796 Y6.8765
G01 X22.7856 Y6.8773
G01 X22.7977 Y6.8796
G01 X22.8094 Y6.8832
G01 X22.8207 Y6.8879
G01 X22.8316 Y6.8937
G01 X22.8418 Y6.9005
G01 X22.8466 Y6.9043
G01 X22.8557 Y6.9125
G01 X22.8639 Y6.9216
G01 X22.8712 Y6.9315
G01 X22.8745 Y6.9366
G01 X22.8803 Y6.9475
G01 X22.8850 Y6.9588
G01 X22.8886 Y6.9705
G01 X22.8909 Y6.9826
G01 X22.8921 Y6.9948
G01 X22.8923 Y7.0009
G01 X22.8923 Y7.0662
G01 X24.6489 Y7.0662
G01 X24.6489 Y7.0009
G01 X24.6491 Y6.9948
G01 X24.6503 Y6.9826
G01 X24.6526 Y6.9705
G01 X24.6562 Y6.9588
G01 X24.6609 Y6.9475
G01 X24.6667 Y6.9366
G01 X24.6735 Y6.9264
G01 X24.6813 Y6.9170
G01 X24.6855 Y6.9125
G01 X24.6900 Y6.9083
G01 X24.6994 Y6.9005
G01 X24.7096 Y6.8937
G01 X24.7205 Y6.8879
G01 X24.7261 Y6.8854
G01 X24.7376 Y6.8813
G01 X24.7435 Y6.8796
G01 X24.7556 Y6.8773
G01 X24.7678 Y6.8761
G01 X26.5773 Y6.8759
G01 X26.5896 Y6.8765
G01 X26.5956 Y6.8773
G01 X26.6077 Y6.8796
G01 X26.6194 Y6.8832
G01 X26.6307 Y6.8879
G01 X26.6416 Y6.8937
G01 X26.6518 Y6.9005
G01 X26.6566 Y6.9043
G01 X26.6657 Y6.9125
G01 X26.6739 Y6.9216
G01 X26.6812 Y6.9315
G01 X26.6845 Y6.9366
G01 X26.6903 Y6.9475
G01 X26.6950 Y6.9588
G01 X26.6986 Y6.9705
G01 X26.7009 Y6.9826
G01 X26.7021 Y6.9948
G01 X26.7023 Y7.0009
G01 X26.7023 Y7.0662
G01 X27.1889 Y7.0662
G01 X27.1889 Y7.0009
G01 X27.1891 Y6.9948
G01 X27.1903 Y6.9826
G01 X27.1926 Y6.9705
G01 X27.1962 Y6.9588
G01 X27.2009 Y6.9475
G01 X27.2067 Y6.9366
G01 X27.2135 Y6.9264
G01 X27.2213 Y6.9170
G01 X27.2300 Y6.9083
G01 X27.2394 Y6.9005
G01 X27.2445 Y6.8970
G01 X27.2496 Y6.8937
G01 X27.2605 Y6.8879
G01 X27.2718 Y6.8832
G01 X27.2835 Y6.8796
G01 X27.2956 Y6.8773
G01 X27.3016 Y6.8765
G01 X27.3139 Y6.8759
G01 X29.1173 Y6.8759
G01 X29.1296 Y6.8765
G01 X29.1417 Y6.8783
G01 X29.1477 Y6.8796
G01 X29.1536 Y6.8813
G01 X29.1651 Y6.8854
G01 X29.1762 Y6.8907
G01 X29.1867 Y6.8970
G01 X29.1918 Y6.9005
G01 X29.2012 Y6.9083
G01 X29.2099 Y6.9170
G01 X29.2139 Y6.9216
G01 X29.2212 Y6.9315
G01 X29.2275 Y6.9420
G01 X29.2303 Y6.9475
G01 X29.2350 Y6.9588
G01 X29.2386 Y6.9705
G01 X29.2409 Y6.9826
G01 X29.2421 Y6.9948
G01 X29.2423 Y7.0009
G01 X29.2423 Y7.0662
G01 X35.1237 Y7.0662
G01 X35.1516 Y7.0670
G01 X35.1763 Y7.0690
G01 X35.1949 Y7.0713
G01 X35.2254 Y7.0766
G01 X35.2496 Y7.0822
G01 X35.2677 Y7.0872
G01 X35.2971 Y7.0969
G01 X35.3202 Y7.1059
G01 X35.3428 Y7.1162
G01 X35.3596 Y7.1246
G01 X35.3812 Y7.1367
G01 X35.4074 Y7.1533
G01 X35.4276 Y7.1677
G01 X35.4471 Y7.1831
G01 X35.4613 Y7.1953
G01 X35.4816 Y7.2145
G01 X38.9217 Y10.6546
G01 X38.9408 Y10.6749
G01 X38.9531 Y10.6890
G01 X38.9685 Y10.7085
G01 X38.9829 Y10.7287
G01 X38.9995 Y10.7549
G01 X39.0116 Y10.7766
G01 X39.0200 Y10.7933
G01 X39.0325 Y10.8216
G01 X39.0413 Y10.8449
G01 X39.0490 Y10.8685
G01 X39.0540 Y10.8865
G01 X39.0596 Y10.9107
G01 X39.0649 Y10.9413
G01 X39.0678 Y10.9659
G01 X39.0694 Y10.9907
G01 X39.0699 Y11.0094
G01 X39.0699 Y13.6425
G01 X39.2089 Y13.7815
G01 X39.9052 Y13.7815
G01 X39.9200 Y13.7818
G01 X39.9200 Y10.3250
G01 X39.9203 Y10.3126
G01 X39.9213 Y10.2971
G01 X39.9239 Y10.2756
G01 X39.9288 Y10.2513
G01 X39.9345 Y10.2304
G01 X39.9429 Y10.2070
G01 X39.9517 Y10.1873
G01 X39.9634 Y10.1654
G01 X39.9749 Y10.1471
G01 X39.9897 Y10.1272
G01 X40.0038 Y10.1108
G01 X40.0269 Y10.0874
G01 X40.0404 Y10.0747
G01 X40.0596 Y10.0589
G01 X40.0772 Y10.0465
G01 X40.0986 Y10.0337
G01 X40.1179 Y10.0240
G01 X40.1321 Y10.0178
G01 X40.1466 Y10.0124
G01 X40.1704 Y10.0052
G01 X40.1915 Y10.0005
G01 X40.2160 Y9.9968
G01 X40.2376 Y9.9952
G01 X40.2624 Y9.9952
G01 X40.2840 Y9.9968
G01 X40.3086 Y10.0005
G01 X40.3297 Y10.0052
G01 X40.3534 Y10.0124
G01 X40.3736 Y10.0202
G01 X40.3961 Y10.0308
G01 X40.4149 Y10.0415
G01 X40.4355 Y10.0553
G01 X40.4526 Y10.0686
G01 X40.4710 Y10.0853
G01 X40.4859 Y10.1009
G01 X40.5016 Y10.1201
G01 X40.5107 Y10.1327
G01 X40.5191 Y10.1457
G01 X40.5298 Y10.1645
G01 X40.5404 Y10.1870
G01 X40.5482 Y10.2071
G01 X40.5554 Y10.2309
G01 X40.5601 Y10.2520
G01 X40.5626 Y10.2673
G01 X40.5643 Y10.2827
G01 X40.5656 Y10.3075
G01 X40.5650 Y10.3291
G01 X40.5626 Y10.3538
G01 X40.5589 Y10.3751
G01 X40.5554 Y10.3902
G01 X40.5512 Y10.4047
G01 X40.5512 Y13.9572
G01 X40.5506 Y13.9758
G01 X40.5482 Y14.0005
G01 X40.5445 Y14.0218
G01 X40.5385 Y14.0459
G01 X40.5317 Y14.0664
G01 X40.5260 Y14.0808
G01 X40.5195 Y14.0949
G01 X40.5078 Y14.1168
G01 X40.4963 Y14.1351
G01 X40.4815 Y14.1550
G01 X40.4674 Y14.1714
G01 X40.4081 Y14.2310
G01 X40.4106 Y14.2598
G01 X40.4113 Y14.2846
G01 X40.4109 Y14.3094
G01 X40.4092 Y14.3342
G01 X40.4063 Y14.3589
G01 X40.4022 Y14.3834
G01 X40.3969 Y14.4077
G01 X40.3904 Y14.4316
G01 X40.3828 Y14.4553
G01 X40.3740 Y14.4785
G01 X40.3640 Y14.5013
G01 X40.3530 Y14.5235
G01 X40.3409 Y14.5452
G01 X40.3277 Y14.5663
G01 X40.3135 Y14.5867
G01 X40.2984 Y14.6064
G01 X40.2823 Y14.6253
G01 X40.2652 Y14.6434
G01 X40.2474 Y14.6606
G01 X40.2286 Y14.6770
G01 X40.2091 Y14.6924
G01 X40.1889 Y14.7068
G01 X40.1680 Y14.7202
G01 X40.1411 Y14.7355
G01 X40.1244 Y14.7439
G01 X40.1017 Y14.7541
G01 X40.0786 Y14.7632
G01 X40.0550 Y14.7711
G01 X40.0311 Y14.7779
G01 X40.0069 Y14.7835
G01 X39.9825 Y14.7879
G01 X39.9578 Y14.7911
G01 X39.9331 Y14.7930
G01 X39.9052 Y14.7938
G01 X38.9993 Y14.7938
G01 X38.9775 Y14.7933
G01 X38.9466 Y14.7911
G01 X38.9280 Y14.7888
G01 X38.9035 Y14.7847
G01 X38.8733 Y14.7779
G01 X38.8553 Y14.7729
G01 X38.8316 Y14.7652
G01 X38.8084 Y14.7564
G01 X38.7856 Y14.7465
G01 X38.7634 Y14.7355
G01 X38.7417 Y14.7234
G01 X38.7206 Y14.7102
G01 X38.7002 Y14.6960
G01 X38.6805 Y14.6809
G01 X38.6616 Y14.6647
G01 X38.6413 Y14.6456
G01 X38.2058 Y14.2101
G01 X38.1908 Y14.1943
G01 X38.1744 Y14.1756
G01 X38.1590 Y14.1561
G01 X38.1412 Y14.1308
G01 X38.1280 Y14.1097
G01 X38.1159 Y14.0880
G01 X38.1049 Y14.0658
G01 X38.0950 Y14.0430
G01 X38.0882 Y14.0255
G01 X38.0803 Y14.0020
G01 X38.0735 Y13.9781
G01 X38.0679 Y13.9539
G01 X38.0635 Y13.9294
G01 X38.0603 Y13.9048
G01 X38.0581 Y13.8739
G01 X38.0576 Y13.8521
G01 X38.0576 Y11.2222
G01 X34.9140 Y8.0786
G01 X29.2423 Y8.0786
G01 X29.2423 Y8.1439
G01 X29.2417 Y8.1562
G01 X29.2409 Y8.1622
G01 X29.2386 Y8.1743
G01 X29.2350 Y8.1860
G01 X29.2303 Y8.1973
G01 X29.2245 Y8.2082
G01 X29.2212 Y8.2133
G01 X29.2139 Y8.2232
G01 X29.2057 Y8.2323
G01 X29.2012 Y8.2365
G01 X29.1966 Y8.2405
G01 X29.1867 Y8.2478
G01 X29.1762 Y8.2541
G01 X29.1651 Y8.2594
G01 X29.1536 Y8.2635
G01 X29.1477 Y8.2652
G01 X29.1417 Y8.2665
G01 X29.1296 Y8.2683
G01 X29.1173 Y8.2689
G01 X27.3139 Y8.2689
G01 X27.3016 Y8.2683
G01 X27.2956 Y8.2675
G01 X27.2835 Y8.2652
G01 X27.2718 Y8.2616
G01 X27.2605 Y8.2569
G01 X27.2496 Y8.2511
G01 X27.2394 Y8.2443
G01 X27.2346 Y8.2405
G01 X27.2255 Y8.2323
G01 X27.2213 Y8.2278
G01 X27.2135 Y8.2184
G01 X27.2067 Y8.2082
G01 X27.2009 Y8.1973
G01 X27.1962 Y8.1860
G01 X27.1926 Y8.1743
G01 X27.1903 Y8.1622
G01 X27.1891 Y8.1500
G01 X27.1889 Y8.1439
G01 X27.1889 Y8.0786
G01 X26.7023 Y8.0786
G01 X26.7023 Y8.1439
G01 X26.7021 Y8.1500
G01 X26.7009 Y8.1622
G01 X26.6999 Y8.1683
G01 X26.6969 Y8.1802
G01 X26.6928 Y8.1917
G01 X26.6875 Y8.2028
G01 X26.6812 Y8.2133
G01 X26.6777 Y8.2184
G01 X26.6699 Y8.2278
G01 X26.6612 Y8.2365
G01 X26.6518 Y8.2443
G01 X26.6467 Y8.2478
G01 X26.6362 Y8.2541
G01 X26.6307 Y8.2569
G01 X26.6194 Y8.2616
G01 X26.6077 Y8.2652
G01 X26.6017 Y8.2665
G01 X26.5896 Y8.2683
G01 X26.5773 Y8.2689
G01 X24.7739 Y8.2689
G01 X24.7616 Y8.2683
G01 X24.7556 Y8.2675
G01 X24.7435 Y8.2652
G01 X24.7318 Y8.2616
G01 X24.7205 Y8.2569
G01 X24.7096 Y8.2511
G01 X24.6994 Y8.2443
G01 X24.6946 Y8.2405
G01 X24.6855 Y8.2323
G01 X24.6813 Y8.2278
G01 X24.6735 Y8.2184
G01 X24.6667 Y8.2082
G01 X24.6609 Y8.1973
G01 X24.6562 Y8.1860
G01 X24.6526 Y8.1743
G01 X24.6503 Y8.1622
G01 X24.6491 Y8.1500
G01 X24.6489 Y8.1439
G01 X24.6489 Y8.0786
G01 X22.8923 Y8.0786
G01 X22.8923 Y8.1439
G01 X22.8917 Y8.1562
G01 X22.8909 Y8.1622
G01 X22.8886 Y8.1743
G01 X22.8850 Y8.1860
G01 X22.8803 Y8.1973
G01 X22.8775 Y8.2028
G01 X22.8712 Y8.2133
G01 X22.8639 Y8.2232
G01 X22.8599 Y8.2278
G01 X22.8512 Y8.2365
G01 X22.8418 Y8.2443
G01 X22.8316 Y8.2511
G01 X22.8262 Y8.2541
G01 X22.8207 Y8.2569
G01 X22.8094 Y8.2616
G01 X22.7977 Y8.2652
G01 X22.7917 Y8.2665
G01 X22.7796 Y8.2683
G01 X22.7673 Y8.2689
G01 X20.9578 Y8.2687
G01 X20.9456 Y8.2675
G01 X20.9335 Y8.2652
G01 X20.9218 Y8.2616
G01 X20.9105 Y8.2569
G01 X20.8996 Y8.2511
G01 X20.8894 Y8.2443
G01 X20.8800 Y8.2365
G01 X20.8713 Y8.2278
G01 X20.8635 Y8.2184
G01 X20.8567 Y8.2082
G01 X20.8509 Y8.1973
G01 X20.8462 Y8.1860
G01 X20.8426 Y8.1743
G01 X20.8403 Y8.1622
G01 X20.8395 Y8.1562
G01 X20.8389 Y8.1439
G00 Z1.0000
G00 X20.9639 Y9.7759
G01 F80.00
G01 Z-0.0100
G01 F200.00
G01 X22.7673 Y9.7759
G01 X22.7734 Y9.7761
G01 X22.7856 Y9.7773
G01 X22.7977 Y9.7796
G01 X22.8094 Y9.7832
G01 X22.8207 Y9.7879
G01 X22.8316 Y9.7937
G01 X22.8418 Y9.8005
G01 X22.8466 Y9.8043
G01 X22.8557 Y9.8125
G01 X22.8639 Y9.8216
G01 X22.8712 Y9.8315
G01 X22.8775 Y9.8420
G01 X22.8828 Y9.8531
G01 X22.8850 Y9.8588
G01 X22.8886 Y9.8705
G01 X22.8909 Y9.8826
G01 X22.8921 Y9.8948
G01 X22.8923 Y11.0439
G01 X22.8921 Y11.0500
G01 X22.8909 Y11.0622
G01 X22.8886 Y11.0743
G01 X22.8850 Y11.0860
G01 X22.8828 Y11.0917
G01 X22.8803 Y11.0973
G01 X22.8745 Y11.1082
G01 X22.8712 Y11.1133
G01 X22.8639 Y11.1232
G01 X22.8599 Y11.1278
G01 X22.8512 Y11.1365
G01 X22.8466 Y11.1405
G01 X22.8367 Y11.1478
G01 X22.8316 Y11.1511
G01 X22.8207 Y11.1569
G01 X22.8094 Y11.1616
G01 X22.8036 Y11.1635
G01 X22.7917 Y11.1665
G01 X22.7796 Y11.1683
G01 X22.7673 Y11.1689
G01 X22.3718 Y11.1689
G01 X22.3718 Y11.6257
G01 X23.2471 Y11.6257
G01 X23.2594 Y11.6263
G01 X23.2654 Y11.6271
G01 X23.2775 Y11.6294
G01 X23.2834 Y11.6311
G01 X23.2949 Y11.6352
G01 X23.3060 Y11.6405
G01 X23.3114 Y11.6435
G01 X23.3216 Y11.6503
G01 X23.3264 Y11.6541
G01 X23.3355 Y11.6623
G01 X23.3397 Y11.6668
G01 X23.3475 Y11.6762
G01 X23.3510 Y11.6813
G01 X23.3573 Y11.6918
G01 X23.3626 Y11.7029
G01 X23.3667 Y11.7144
G01 X23.3684 Y11.7203
G01 X23.3707 Y11.7324
G01 X23.3719 Y11.7446
G01 X23.3721 Y11.7507
G01 X23.3721 Y13.5541
G01 X23.3719 Y13.5602
G01 X23.3707 Y13.5724
G01 X23.3684 Y13.5845
G01 X23.3648 Y13.5962
G01 X23.3626 Y13.6019
G01 X23.3573 Y13.6130
G01 X23.3510 Y13.6235
G01 X23.3437 Y13.6334
G01 X23.3397 Y13.6380
G01 X23.3310 Y13.6467
G01 X23.3264 Y13.6507
G01 X23.3165 Y13.6580
G01 X23.3060 Y13.6643
G01 X23.2949 Y13.6696
G01 X23.2892 Y13.6718
G01 X23.2834 Y13.6737
G01 X23.2715 Y13.6767
G01 X23.2594 Y13.6785
G01 X23.2532 Y13.6789
G01 X22.3718 Y13.6791
G01 X22.3718 Y15.4484
G01 X22.7546 Y15.4484
G01 X22.7669 Y15.4490
G01 X22.7790 Y15.4508
G01 X22.7850 Y15.4521
G01 X22.7967 Y15.4557
G01 X22.8080 Y15.4604
G01 X22.8135 Y15.4632
G01 X22.8240 Y15.4695
G01 X22.8339 Y15.4768
G01 X22.8385 Y15.4808
G01 X22.8472 Y15.4895
G01 X22.8512 Y15.4941
G01 X22.8585 Y15.5040
G01 X22.8648 Y15.5145
G01 X22.8701 Y15.5256
G01 X22.8742 Y15.5371
G01 X22.8759 Y15.5430
G01 X22.8772 Y15.5490
G01 X22.8790 Y15.5611
G01 X22.8796 Y15.5734
G01 X22.8794 Y17.3575
G01 X22.8790 Y17.3637
G01 X22.8772 Y17.3758
G01 X22.8742 Y17.3877
G01 X22.8701 Y17.3992
G01 X22.8676 Y17.4048
G01 X22.8618 Y17.4157
G01 X22.8550 Y17.4259
G01 X22.8512 Y17.4307
G01 X22.8472 Y17.4353
G01 X22.8385 Y17.4440
G01 X22.8339 Y17.4480
G01 X22.8240 Y17.4553
G01 X22.8189 Y17.4586
G01 X22.8080 Y17.4644
G01 X22.7967 Y17.4691
G01 X22.7850 Y17.4727
G01 X22.7729 Y17.4750
G01 X22.7607 Y17.4762
G01 X22.7546 Y17.4764
G01 X20.9705 Y17.4762
G01 X20.9643 Y17.4758
G01 X20.9522 Y17.4740
G01 X20.9462 Y17.4727
G01 X20.9345 Y17.4691
G01 X20.9232 Y17.4644
G01 X20.9123 Y17.4586
G01 X20.9021 Y17.4518
G01 X20.8973 Y17.4480
G01 X20.8882 Y17.4398
G01 X20.8840 Y17.4353
G01 X20.8762 Y17.4259
G01 X20.8694 Y17.4157
G01 X20.8636 Y17.4048
G01 X20.8611 Y17.3992
G01 X20.8589 Y17.3935
G01 X20.8553 Y17.3818
G01 X20.8530 Y17.3697
G01 X20.8518 Y17.3575
G01 X20.8516 Y17.3514
G01 X20.8516 Y15.5734
G01 X20.8522 Y15.5611
G01 X20.8540 Y15.5490
G01 X20.8553 Y15.5430
G01 X20.8570 Y15.5371
G01 X20.8611 Y15.5256
G01 X20.8636 Y15.5200
G01 X20.8694 Y15.5091
G01 X20.8727 Y15.5040
G01 X20.8800 Y15.4941
G01 X20.8882 Y15.4850
G01 X20.8927 Y15.4808
G01 X20.8973 Y15.4768
G01 X20.9072 Y15.4695
G01 X20.9123 Y15.4662
G01 X20.9232 Y15.4604
G01 X20.9345 Y15.4557
G01 X20.9462 Y15.4521
G01 X20.9522 Y15.4508
G01 X20.9643 Y15.4490
G01 X20.9766 Y15.4484
G01 X21.3594 Y15.4484
G01 X21.3594 Y11.1689
G01 X20.9639 Y11.1689
G01 X20.9578 Y11.1687
G01 X20.9456 Y11.1675
G01 X20.9335 Y11.1652
G01 X20.9276 Y11.1635
G01 X20.9161 Y11.1594
G01 X20.9050 Y11.1541
G01 X20.8996 Y11.1511
G01 X20.8945 Y11.1478
G01 X20.8846 Y11.1405
G01 X20.8755 Y11.1323
G01 X20.8713 Y11.1278
G01 X20.8635 Y11.1184
G01 X20.8600 Y11.1133
G01 X20.8567 Y11.1082
G01 X20.8509 Y11.0973
G01 X20.8462 Y11.0860
G01 X20.8443 Y11.0802
G01 X20.8413 Y11.0683
G01 X20.8403 Y11.0622
G01 X20.8395 Y11.0562
G01 X20.8389 Y11.0439
G01 X20.8389 Y9.9009
G01 X20.8395 Y9.8886
G01 X20.8413 Y9.8765
G01 X20.8443 Y9.8646
G01 X20.8484 Y9.8531
G01 X20.8537 Y9.8420
G01 X20.8600 Y9.8315
G01 X20.8673 Y9.8216
G01 X20.8713 Y9.8170
G01 X20.8800 Y9.8083
G01 X20.8894 Y9.8005
G01 X20.8996 Y9.7937
G01 X20.9105 Y9.7879
G01 X20.9218 Y9.7832
G01 X20.9335 Y9.7796
G01 X20.9456 Y9.7773
G01 X20.9578 Y9.7761
G01 X20.9639 Y9.7759
G00 Z1.0000
G00 X22.8992 Y8.2728
G01 F80.00
G01 Z-0.0100
G01 F200.00
G01 X20.8350 Y8.2728
G01 X20.8350 Y6.8720
G01 X22.8992 Y6.8720
G01 X22.9023 Y6.8879
G01 X22.9051 Y6.8987
G01 X22.9085 Y6.9093
G01 X22.9147 Y6.9254
G01 X22.9193 Y6.9355
G01 X22.9245 Y6.9453
G01 X22.9301 Y6.9549
G01 X22.9362 Y6.9643
G01 X22.9458 Y6.9772
G01 X22.9529 Y6.9857
G01 X22.9605 Y6.9939
G01 X22.9730 Y7.0058
G01 X22.9815 Y7.0129
G01 X22.9904 Y7.0197
G01 X23.0038 Y7.0286
G01 X23.0188 Y7.0371
G01 X23.0288 Y7.0420
G01 X23.0390 Y7.0463
G01 X23.0494 Y7.0502
G01 X23.0600 Y7.0536
G01 X23.0708 Y7.0564
G01 X23.0817 Y7.0587
G01 X23.0927 Y7.0604
G01 X23.1037 Y7.0616
G01 X23.1198 Y7.0624
G01 X24.4183 Y7.0625
G01 X24.4325 Y7.0620
G01 X24.4485 Y7.0604
G01 X24.4595 Y7.0587
G01 X24.4704 Y7.0564
G01 X24.4870 Y7.0518
G01 X24.5022 Y7.0463
G01 X24.5180 Y7.0394
G01 X24.5322 Y7.0318
G01 X24.5417 Y7.0259
G01 X24.5508 Y7.0197
G01 X24.5644 Y7.0090
G01 X24.5764 Y6.9982
G01 X24.5883 Y6.9857
G01 X24.5954 Y6.9772
G01 X24.6022 Y6.9683
G01 X24.6111 Y6.9549
G01 X24.6196 Y6.9399
G01 X24.6245 Y6.9299
G01 X24.6288 Y6.9197
G01 X24.6343 Y6.9045
G01 X24.6389 Y6.8879
G01 X24.6420 Y6.8720
G01 X26.7092 Y6.8720
G01 X26.7123 Y6.8879
G01 X26.7151 Y6.8987
G01 X26.7185 Y6.9093
G01 X26.7224 Y6.9197
G01 X26.7267 Y6.9299
G01 X26.7316 Y6.9399
G01 X26.7369 Y6.9497
G01 X26.7428 Y6.9592
G01 X26.7490 Y6.9683
G01 X26.7558 Y6.9772
G01 X26.7629 Y6.9857
G01 X26.7705 Y6.9939
G01 X26.7784 Y7.0017
G01 X26.7868 Y7.0090
G01 X26.7954 Y7.0160
G01 X26.8095 Y7.0259
G01 X26.8190 Y7.0318
G01 X26.8288 Y7.0371
G01 X26.8388 Y7.0420
G01 X26.8490 Y7.0463
G01 X26.8594 Y7.0502
G01 X26.8700 Y7.0536
G01 X26.8808 Y7.0564
G01 X26.8917 Y7.0587
G01 X26.9076 Y7.0610
G01 X26.9248 Y7.0623
G01 X26.9583 Y7.0625
G01 X26.9775 Y7.0616
G01 X26.9885 Y7.0604
G01 X26.9995 Y7.0587
G01 X27.0163 Y7.0549
G01 X27.0270 Y7.0518
G01 X27.0375 Y7.0481
G01 X27.0524 Y7.0420
G01 X27.0624 Y7.0371
G01 X27.0722 Y7.0318
G01 X27.0817 Y7.0259
G01 X27.0908 Y7.0197
G01 X27.1044 Y7.0090
G01 X27.1128 Y7.0017
G01 X27.1207 Y6.9939
G01 X27.1283 Y6.9857
G01 X27.1354 Y6.9772
G01 X27.1450 Y6.9643
G01 X27.1511 Y6.9549
G01 X27.1567 Y6.9453
G01 X27.1619 Y6.9355
G01 X27.1665 Y6.9254
G01 X27.1727 Y6.9093
G01 X27.1761 Y6.8987
G01 X27.1789 Y6.8879
G01 X27.1820 Y6.8720
G01 X29.2492 Y6.8720
G01 X29.2523 Y6.8879
G01 X29.2551 Y6.8987
G01 X29.2585 Y6.9093
G01 X29.2647 Y6.9254
G01 X29.2693 Y6.9355
G01 X29.2745 Y6.9453
G01 X29.2801 Y6.9549
G01 X29.2862 Y6.9643
G01 X29.2958 Y6.9772
G01 X29.3029 Y6.9857
G01 X29.3105 Y6.9939
G01 X29.3230 Y7.0058
G01 X29.3315 Y7.0129
G01 X29.3404 Y7.0197
G01 X29.3538 Y7.0286
G01 X29.3688 Y7.0371
G01 X29.3788 Y7.0420
G01 X29.3890 Y7.0463
G01 X29.4042 Y7.0518
G01 X29.4149 Y7.0549
G01 X29.4257 Y7.0575
G01 X29.4427 Y7.0604
G01 X29.4537 Y7.0616
G01 X29.4648 Y7.0623
G01 X35.3349 Y7.0625
G01 X39.0737 Y10.8013
G01 X39.0738 Y13.5551
G01 X39.0751 Y13.5723
G01 X39.0775 Y13.5882
G01 X39.0813 Y13.6051
G01 X39.0859 Y13.6205
G01 X39.0898 Y13.6309
G01 X39.0968 Y13.6467
G01 X39.1044 Y13.6609
G01 X39.1136 Y13.6755
G01 X39.1232 Y13.6884
G01 X39.1345 Y13.7015
G01 X39.1463 Y13.7135
G01 X39.1582 Y13.7243
G01 X39.1718 Y13.7349
G01 X39.1810 Y13.7412
G01 X39.1948 Y13.7495
G01 X39.2102 Y13.7572
G01 X39.2205 Y13.7616
G01 X39.2309 Y13.7655
G01 X39.2415 Y13.7688
G01 X39.2523 Y13.7716
G01 X39.2632 Y13.7739
G01 X39.2741 Y13.7757
G01 X39.2852 Y13.7769
G01 X39.2963 Y13.7776
G01 X39.6895 Y13.7777
G01 X39.7037 Y13.7772
G01 X39.7148 Y13.7763
G01 X39.7258 Y13.7748
G01 X39.7367 Y13.7727
G01 X39.7524 Y13.7688
G01 X39.7687 Y13.7634
G01 X39.7791 Y13.7592
G01 X39.7936 Y13.7524
G01 X39.8086 Y13.7439
G01 X39.8220 Y13.7349
G01 X39.8356 Y13.7243
G01 X39.8476 Y13.7135
G01 X39.8595 Y13.7010
G01 X39.8697 Y13.6885
G01 X39.8796 Y13.6744
G01 X39.8879 Y13.6606
G01 X39.8931 Y13.6507
G01 X39.9000 Y13.6349
G01 X39.9055 Y13.6198
G01 X39.9101 Y13.6031
G01 X39.9124 Y13.5923
G01 X39.9147 Y13.5763
G01 X39.9157 Y13.5652
G01 X39.9162 Y13.5511
G01 X39.9162 Y10.1927
G01 X40.1177 Y9.9911
G01 X40.3823 Y9.9911
G01 X40.5491 Y10.1579
G01 X40.5594 Y10.1676
G01 X40.5679 Y10.1747
G01 X40.5768 Y10.1815
G01 X40.5902 Y10.1904
G01 X40.6052 Y10.1989
G01 X40.6152 Y10.2038
G01 X40.6255 Y10.2081
G01 X40.6406 Y10.2136
G01 X40.6513 Y10.2167
G01 X40.6621 Y10.2193
G01 X40.6791 Y10.2222
G01 X40.6902 Y10.2234
G01 X40.7013 Y10.2241
G01 X41.0118 Y10.2243
G01 X41.0361 Y10.2485
G01 X41.0481 Y10.2594
G01 X41.0567 Y10.2663
G01 X41.0657 Y10.2729
G01 X41.0803 Y10.2821
G01 X41.0901 Y10.2874
G01 X41.1001 Y10.2923
G01 X41.1103 Y10.2967
G01 X41.1207 Y10.3005
G01 X41.1313 Y10.3039
G01 X41.1421 Y10.3067
G01 X41.1530 Y10.3090
G01 X41.1640 Y10.3107
G01 X41.1800 Y10.3123
G01 X41.1911 Y10.3128
G01 X41.2084 Y10.3123
G01 X41.2244 Y10.3108
G01 X41.2414 Y10.3078
G01 X41.2522 Y10.3052
G01 X41.2676 Y10.3005
G01 X41.2837 Y10.2943
G01 X41.2983 Y10.2874
G01 X41.3081 Y10.2821
G01 X41.3226 Y10.2729
G01 X41.3356 Y10.2633
G01 X41.3441 Y10.2561
G01 X41.3523 Y10.2486
G01 X41.3883 Y10.2126
G01 X41.6529 Y10.2126
G01 X41.8801 Y10.4398
G01 X41.8921 Y10.4506
G01 X41.9057 Y10.4612
G01 X41.9149 Y10.4675
G01 X41.9287 Y10.4758
G01 X41.9385 Y10.4809
G01 X41.9487 Y10.4856
G01 X41.9590 Y10.4897
G01 X41.9754 Y10.4951
G01 X41.9861 Y10.4979
G01 X41.9970 Y10.5002
G01 X42.0129 Y10.5026
G01 X42.0240 Y10.5036
G01 X42.0382 Y10.5040
G01 X42.3173 Y10.5040
G01 X42.5050 Y10.6917
G01 X42.5050 Y12.0315
G01 X42.4983 Y12.0514
G01 X42.4954 Y12.0622
G01 X42.4932 Y12.0731
G01 X42.4914 Y12.0841
G01 X42.4902 Y12.0951
G01 X42.4894 Y12.1143
G01 X42.4894 Y13.8176
G01 X42.4898 Y13.8318
G01 X42.4914 Y13.8478
G01 X42.4932 Y13.8588
G01 X42.4954 Y13.8697
G01 X42.5000 Y13.8863
G01 X42.5055 Y13.9015
G01 X42.5125 Y13.9172
G01 X42.5201 Y13.9314
G01 X42.5259 Y13.9409
G01 X42.5322 Y13.9501
G01 X42.5428 Y13.9637
G01 X42.5557 Y13.9778
G01 X42.6725 Y14.0946
G01 X42.6866 Y14.1076
G01 X42.6953 Y14.1145
G01 X42.7043 Y14.1210
G01 X42.7136 Y14.1271
G01 X42.7232 Y14.1327
G01 X42.7331 Y14.1379
G01 X42.7432 Y14.1425
G01 X42.7593 Y14.1487
G01 X42.7699 Y14.1521
G01 X42.7807 Y14.1549
G01 X42.7965 Y14.1580
G01 X42.8136 Y14.1602
G01 X42.8328 Y14.1610
G01 X45.4013 Y14.1610
G01 X45.4155 Y14.1605
G01 X45.4266 Y14.1596
G01 X45.4376 Y14.1580
G01 X45.4485 Y14.1560
G01 X45.4593 Y14.1534
G01 X45.4700 Y14.1503
G01 X45.4805 Y14.1467
G01 X45.4909 Y14.1425
G01 X45.5010 Y14.1379
G01 X45.5108 Y14.1327
G01 X45.5247 Y14.1245
G01 X45.5388 Y14.1145
G01 X45.5474 Y14.1076
G01 X45.5558 Y14.1002
G01 X45.9171 Y13.7391
G01 X45.9268 Y13.7287
G01 X45.9340 Y13.7202
G01 X45.9436 Y13.7073
G01 X45.9496 Y13.6979
G01 X45.9552 Y13.6883
G01 X45.9604 Y13.6785
G01 X45.9650 Y13.6684
G01 X45.9712 Y13.6523
G01 X45.9746 Y13.6417
G01 X45.9774 Y13.6309
G01 X45.9805 Y13.6151
G01 X45.9821 Y13.6041
G01 X45.9830 Y13.5930
G01 X45.9835 Y13.5758
G01 X45.9827 Y13.5597
G01 X45.9815 Y13.5486
G01 X45.9785 Y13.5316
G01 X45.9759 Y13.5208
G01 X45.9728 Y13.5101
G01 X45.9674 Y13.4949
G01 X45.9604 Y13.4792
G01 X45.9537 Y13.4665
G01 X45.9529 Y12.8214
G01 X46.4004 Y12.3739
G01 X47.0333 Y12.3739
G01 X47.4808 Y12.8214
G01 X47.4808 Y13.4543
G01 X47.2910 Y13.6441
G01 X47.2834 Y13.6523
G01 X47.2732 Y13.6647
G01 X47.2667 Y13.6737
G01 X47.2606 Y13.6830
G01 X47.2521 Y13.6981
G01 X47.2472 Y13.7081
G01 X47.2429 Y13.7183
G01 X47.2390 Y13.7287
G01 X47.2357 Y13.7393
G01 X47.2328 Y13.7501
G01 X47.2306 Y13.7610
G01 X47.2282 Y13.7769
G01 X47.2269 Y13.7941
G01 X47.2268 Y13.8717
G01 X45.9176 Y15.1809
G01 X42.5859 Y15.1809
G01 X42.2871 Y14.8821
G01 X42.2870 Y14.7817
G01 X42.2857 Y14.7645
G01 X42.2842 Y14.7535
G01 X42.2822 Y14.7426
G01 X42.2796 Y14.7318
G01 X42.2749 Y14.7163
G01 X42.2710 Y14.7059
G01 X42.2640 Y14.6901
G01 X42.2589 Y14.6803
G01 X42.2506 Y14.6664
G01 X42.2407 Y14.6523
G01 X42.2337 Y14.6437
G01 X42.2263 Y14.6353
G01 X42.2186 Y14.6274
G01 X42.2104 Y14.6198
G01 X42.1979 Y14.6096
G01 X42.1889 Y14.6031
G01 X42.1796 Y14.5970
G01 X42.1646 Y14.5885
G01 X42.1546 Y14.5836
G01 X42.1444 Y14.5793
G01 X42.1339 Y14.5754
G01 X42.1185 Y14.5707
G01 X42.1077 Y14.5681
G01 X42.0968 Y14.5661
G01 X42.0796 Y14.5640
G01 X42.0685 Y14.5633
G01 X42.0574 Y14.5632
G01 X42.0463 Y14.5636
G01 X42.0352 Y14.5646
G01 X42.0242 Y14.5661
G01 X42.0133 Y14.5681
G01 X41.9976 Y14.5720
G01 X41.9870 Y14.5754
G01 X41.9766 Y14.5793
G01 X41.9664 Y14.5836
G01 X41.9564 Y14.5885
G01 X41.9414 Y14.5970
G01 X41.9320 Y14.6031
G01 X41.9230 Y14.6096
G01 X41.9106 Y14.6198
G01 X41.9002 Y14.6295
G01 X41.2714 Y15.2583
G01 X41.2585 Y15.2725
G01 X41.2515 Y15.2811
G01 X41.2450 Y15.2901
G01 X41.2357 Y15.3047
G01 X41.2304 Y15.3145
G01 X41.2235 Y15.3290
G01 X41.2173 Y15.3451
G01 X41.2126 Y15.3606
G01 X41.2088 Y15.3774
G01 X41.2065 Y15.3933
G01 X41.2055 Y15.4044
G01 X41.2050 Y15.4186
G01 X41.2050 Y15.8154
G01 X41.2055 Y15.8296
G01 X41.2065 Y15.8407
G01 X41.2088 Y15.8566
G01 X41.2111 Y15.8675
G01 X41.2139 Y15.8782
G01 X41.2194 Y15.8946
G01 X41.2235 Y15.9050
G01 X41.2304 Y15.9195
G01 X41.2389 Y15.9345
G01 X41.2478 Y15.9479
G01 X41.2546 Y15.9568
G01 X41.2658 Y15.9699
G01 X41.2736 Y15.9778
G01 X41.2856 Y15.9886
G01 X41.2992 Y15.9992
G01 X41.3083 Y16.0055
G01 X41.3222 Y16.0138
G01 X41.3320 Y16.0189
G01 X41.3478 Y16.0259
G01 X41.3582 Y16.0298
G01 X41.3737 Y16.0345
G01 X41.3845 Y16.0371
G01 X41.3954 Y16.0391
G01 X41.4125 Y16.0412
G01 X41.4286 Y16.0420
G01 X41.4397 Y16.0419
G01 X41.4508 Y16.0412
G01 X41.4680 Y16.0391
G01 X41.4838 Y16.0360
G01 X41.4945 Y16.0331
G01 X41.5109 Y16.0277
G01 X41.5212 Y16.0236
G01 X41.5358 Y16.0167
G01 X41.5456 Y16.0113
G01 X41.5601 Y16.0021
G01 X41.5691 Y15.9956
G01 X41.5816 Y15.9854
G01 X41.5898 Y15.9778
G01 X41.8692 Y15.6985
G01 X42.5020 Y15.6985
G01 X42.9495 Y16.1460
G01 X42.9495 Y16.7788
G01 X42.5020 Y17.2263
G01 X41.8692 Y17.2263
G01 X41.5920 Y16.9491
G01 X41.5778 Y16.9362
G01 X41.5642 Y16.9256
G01 X41.5508 Y16.9166
G01 X41.5358 Y16.9081
G01 X41.5212 Y16.9012
G01 X41.5051 Y16.8950
G01 X41.4897 Y16.8903
G01 X41.4789 Y16.8877
G01 X41.4619 Y16.8848
G01 X41.4508 Y16.8836
G01 X41.4397 Y16.8829
G01 X41.4236 Y16.8829
G01 X41.4125 Y16.8836
G01 X41.4015 Y16.8848
G01 X41.3905 Y16.8865
G01 X41.3796 Y16.8888
G01 X41.3688 Y16.8917
G01 X41.3582 Y16.8950
G01 X41.3421 Y16.9012
G01 X41.3320 Y16.9059
G01 X41.3222 Y16.9110
G01 X41.3126 Y16.9166
G01 X41.3032 Y16.9227
G01 X41.2903 Y16.9323
G01 X41.2818 Y16.9394
G01 X41.2736 Y16.9470
G01 X41.2617 Y16.9595
G01 X41.2546 Y16.9680
G01 X41.2478 Y16.9769
G01 X41.2416 Y16.9861
G01 X41.2357 Y16.9955
G01 X41.2304 Y17.0053
G01 X41.2255 Y17.0153
G01 X41.2194 Y17.0302
G01 X41.2157 Y17.0407
G01 X41.2126 Y17.0514
G01 X41.2100 Y17.0622
G01 X41.2071 Y17.0792
G01 X41.2055 Y17.0952
G01 X41.2050 Y17.1094
G01 X41.2050 Y17.6153
G01 X41.2059 Y17.6345
G01 X41.2080 Y17.6516
G01 X41.2111 Y17.6674
G01 X41.2139 Y17.6782
G01 X41.2173 Y17.6888
G01 X41.2235 Y17.7049
G01 X41.2281 Y17.7150
G01 X41.2333 Y17.7248
G01 X41.2416 Y17.7387
G01 X41.2515 Y17.7528
G01 X41.2585 Y17.7614
G01 X41.2658 Y17.7698
G01 X41.2772 Y17.7812
G01 X41.2856 Y17.7885
G01 X41.2942 Y17.7955
G01 X41.3083 Y17.8054
G01 X41.3178 Y17.8113
G01 X41.3276 Y17.8166
G01 X41.3376 Y17.8215
G01 X41.3478 Y17.8258
G01 X41.3582 Y17.8297
G01 X41.3688 Y17.8331
G01 X41.3796 Y17.8359
G01 X41.3905 Y17.8382
G01 X41.4064 Y17.8405
G01 X41.4175 Y17.8415
G01 X41.4317 Y17.8420
G01 X41.9462 Y17.8420
G01 X41.9462 Y19.2180
G01 X41.9467 Y19.2322
G01 X41.9477 Y19.2433
G01 X41.9500 Y19.2592
G01 X41.9538 Y19.2761
G01 X41.9585 Y19.2915
G01 X41.9647 Y19.3076
G01 X41.9716 Y19.3221
G01 X41.9801 Y19.3372
G01 X41.9862 Y19.3465
G01 X41.9927 Y19.3555
G01 X42.0029 Y19.3679
G01 X42.0148 Y19.3804
G01 X42.0268 Y19.3913
G01 X42.0404 Y19.4019
G01 X42.0538 Y19.4108
G01 X42.0688 Y19.4193
G01 X42.0833 Y19.4262
G01 X42.0994 Y19.4324
G01 X42.1149 Y19.4371
G01 X42.1257 Y19.4397
G01 X42.1427 Y19.4426
G01 X42.1587 Y19.4442
G01 X42.1729 Y19.4447
G01 X44.7383 Y19.4447
G01 X44.7574 Y19.4439
G01 X44.7685 Y19.4426
G01 X44.7795 Y19.4409
G01 X44.7904 Y19.4386
G01 X44.8011 Y19.4358
G01 X44.8117 Y19.4324
G01 X44.8222 Y19.4286
G01 X44.8324 Y19.4242
G01 X44.8424 Y19.4193
G01 X44.8522 Y19.4140
G01 X44.8616 Y19.4082
G01 X44.8708 Y19.4019
G01 X44.8797 Y19.3952
G01 X44.8882 Y19.3880
G01 X44.8964 Y19.3804
G01 X45.7844 Y18.4925
G01 X46.0114 Y18.4924
G01 X46.0275 Y18.4916
G01 X46.0385 Y18.4904
G01 X46.0495 Y18.4887
G01 X46.0663 Y18.4849
G01 X46.0770 Y18.4818
G01 X46.0875 Y18.4781
G01 X46.1024 Y18.4720
G01 X46.1178 Y18.4642
G01 X46.1274 Y18.4586
G01 X46.1368 Y18.4525
G01 X46.1497 Y18.4429
G01 X46.1582 Y18.4358
G01 X46.1664 Y18.4282
G01 X46.1783 Y18.4157
G01 X46.1885 Y18.4033
G01 X46.1984 Y18.3892
G01 X46.2067 Y18.3753
G01 X46.2119 Y18.3655
G01 X46.2165 Y18.3554
G01 X46.2227 Y18.3393
G01 X46.2274 Y18.3238
G01 X46.2312 Y18.3070
G01 X46.2335 Y18.2911
G01 X46.2345 Y18.2800
G01 X46.2350 Y18.2658
G01 X46.2350 Y17.8420
G01 X48.2962 Y17.8420
G01 X48.2964 Y18.2739
G01 X48.2977 Y18.2911
G01 X48.3000 Y18.3070
G01 X48.3038 Y18.3238
G01 X48.3085 Y18.3393
G01 X48.3147 Y18.3554
G01 X48.3216 Y18.3699
G01 X48.3269 Y18.3797
G01 X48.3328 Y18.3892
G01 X48.3427 Y18.4033
G01 X48.3529 Y18.4157
G01 X48.3648 Y18.4282
G01 X48.3768 Y18.4390
G01 X48.3904 Y18.4497
G01 X48.4038 Y18.4586
G01 X48.4188 Y18.4671
G01 X48.4288 Y18.4720
G01 X48.4390 Y18.4763
G01 X48.4542 Y18.4818
G01 X48.4708 Y18.4864
G01 X48.4866 Y18.4895
G01 X48.5037 Y18.4916
G01 X48.5229 Y18.4925
G01 X49.7071 Y18.4924
G01 X49.7182 Y18.4920
G01 X49.7293 Y18.4910
G01 X49.7452 Y18.4887
G01 X49.7561 Y18.4864
G01 X49.7669 Y18.4836
G01 X49.7775 Y18.4802
G01 X49.7879 Y18.4763
G01 X49.7981 Y18.4720
G01 X49.8135 Y18.4642
G01 X49.8231 Y18.4586
G01 X49.8325 Y18.4525
G01 X49.8415 Y18.4460
G01 X49.8539 Y18.4358
G01 X49.8621 Y18.4282
G01 X49.8699 Y18.4203
G01 X49.8811 Y18.4072
G01 X49.8879 Y18.3983
G01 X49.8941 Y18.3892
G01 X49.9024 Y18.3753
G01 X49.9076 Y18.3655
G01 X49.9145 Y18.3497
G01 X49.9184 Y18.3393
G01 X49.9231 Y18.3238
G01 X49.9257 Y18.3130
G01 X49.9277 Y18.3021
G01 X49.9292 Y18.2911
G01 X49.9302 Y18.2800
G01 X49.9307 Y18.2658
G01 X49.9307 Y17.8575
G01 X52.2205 Y17.8575
G01 X52.2206 Y18.2689
G01 X52.2214 Y18.2850
G01 X52.2235 Y18.3021
G01 X52.2266 Y18.3179
G01 X52.2312 Y18.3345
G01 X52.2367 Y18.3497
G01 X52.2436 Y18.3655
G01 X52.2512 Y18.3797
G01 X52.2605 Y18.3943
G01 X52.2701 Y18.4072
G01 X52.2813 Y18.4203
G01 X52.2927 Y18.4317
G01 X52.3058 Y18.4429
G01 X52.3147 Y18.4497
G01 X52.3281 Y18.4586
G01 X52.3431 Y18.4671
G01 X52.3576 Y18.4740
G01 X52.3737 Y18.4802
G01 X52.3892 Y18.4849
G01 X52.4060 Y18.4887
G01 X52.4219 Y18.4910
G01 X52.4330 Y18.4920
G01 X52.4472 Y18.4925
G01 X55.1650 Y18.4925
G01 X55.1842 Y18.4916
G01 X55.2013 Y18.4895
G01 X55.2171 Y18.4864
G01 X55.2337 Y18.4818
G01 X55.2489 Y18.4763
G01 X55.2647 Y18.4694
G01 X55.2789 Y18.4618
G01 X55.2884 Y18.4559
G01 X55.2975 Y18.4497
G01 X55.3111 Y18.4390
G01 X55.3231 Y18.4282
G01 X55.3350 Y18.4157
G01 X55.3421 Y18.4072
G01 X55.3489 Y18.3983
G01 X55.3578 Y18.3849
G01 X55.3663 Y18.3699
G01 X55.3732 Y18.3554
G01 X55.3794 Y18.3393
G01 X55.3841 Y18.3238
G01 X55.3879 Y18.3070
G01 X55.3902 Y18.2911
G01 X55.3915 Y18.2739
G01 X55.3917 Y17.8575
G01 X59.4595 Y17.8575
G01 X59.4595 Y20.1473
G01 X58.1622 Y20.1473
G01 X58.1480 Y20.1478
G01 X58.1320 Y20.1494
G01 X58.1210 Y20.1511
G01 X58.1101 Y20.1534
G01 X58.0935 Y20.1580
G01 X58.0783 Y20.1635
G01 X58.0625 Y20.1704
G01 X58.0483 Y20.1780
G01 X58.0388 Y20.1839
G01 X58.0297 Y20.1901
G01 X58.0161 Y20.2008
G01 X58.0041 Y20.2116
G01 X57.9922 Y20.2241
G01 X57.9851 Y20.2326
G01 X57.9783 Y20.2415
G01 X57.9694 Y20.2549
G01 X57.9609 Y20.2699
G01 X57.9560 Y20.2799
G01 X57.9517 Y20.2901
G01 X57.9462 Y20.3053
G01 X57.9431 Y20.3160
G01 X57.9405 Y20.3268
G01 X57.9376 Y20.3438
G01 X57.9360 Y20.3598
G01 X57.9355 Y20.3740
G01 X57.9355 Y23.9300
G01 X57.9360 Y23.9442
G01 X57.9370 Y23.9553
G01 X57.9393 Y23.9712
G01 X57.9416 Y23.9821
G01 X57.9462 Y23.9987
G01 X57.9517 Y24.0139
G01 X57.9560 Y24.0241
G01 X57.9638 Y24.0395
G01 X57.9694 Y24.0491
G01 X57.9783 Y24.0625
G01 X57.9851 Y24.0714
G01 X57.9963 Y24.0845
G01 X58.0041 Y24.0924
G01 X58.0161 Y24.1032
G01 X58.0297 Y24.1139
G01 X58.0388 Y24.1201
G01 X58.0527 Y24.1284
G01 X58.0625 Y24.1336
G01 X58.0726 Y24.1382
G01 X58.0830 Y24.1423
G01 X58.0935 Y24.1460
G01 X58.1042 Y24.1491
G01 X58.1150 Y24.1517
G01 X58.1259 Y24.1537
G01 X58.1369 Y24.1552
G01 X58.1480 Y24.1562
G01 X58.1622 Y24.1567
G01 X58.3165 Y24.1567
G01 X58.3166 Y26.6382
G01 X58.3174 Y26.6543
G01 X58.3195 Y26.6714
G01 X58.3226 Y26.6872
G01 X58.3272 Y26.7038
G01 X58.3327 Y26.7190
G01 X58.3370 Y26.7292
G01 X58.3448 Y26.7446
G01 X58.3531 Y26.7585
G01 X58.3630 Y26.7726
G01 X58.3700 Y26.7812
G01 X58.3773 Y26.7896
G01 X58.3887 Y26.8010
G01 X58.3971 Y26.8083
G01 X58.4057 Y26.8153
G01 X58.4198 Y26.8252
G01 X58.4293 Y26.8311
G01 X58.4391 Y26.8364
G01 X58.4536 Y26.8433
G01 X58.4697 Y26.8495
G01 X58.4852 Y26.8542
G01 X58.5020 Y26.8580
G01 X58.5179 Y26.8603
G01 X58.5290 Y26.8613
G01 X58.5432 Y26.8618
G01 X58.6225 Y26.8617
G01 X58.6386 Y26.8609
G01 X58.6557 Y26.8588
G01 X58.6715 Y26.8557
G01 X58.6881 Y26.8511
G01 X58.7033 Y26.8456
G01 X58.7191 Y26.8387
G01 X58.7333 Y26.8311
G01 X58.7428 Y26.8252
G01 X58.7519 Y26.8190
G01 X58.7655 Y26.8083
G01 X58.7775 Y26.7975
G01 X58.7894 Y26.7850
G01 X58.7965 Y26.7765
G01 X58.8033 Y26.7676
G01 X58.8122 Y26.7542
G01 X58.8207 Y26.7392
G01 X58.8276 Y26.7247
G01 X58.8338 Y26.7086
G01 X58.8385 Y26.6931
G01 X58.8423 Y26.6763
G01 X58.8440 Y26.6653
G01 X58.8452 Y26.6543
G01 X58.8461 Y26.6351
G01 X58.8461 Y24.1567
G01 X60.6279 Y24.1567
G01 X60.6279 Y26.4696
G01 X60.6181 Y26.4748
G01 X60.6042 Y26.4831
G01 X60.5901 Y26.4930
G01 X60.5777 Y26.5032
G01 X60.5652 Y26.5151
G01 X60.5544 Y26.5271
G01 X60.5437 Y26.5407
G01 X60.5348 Y26.5541
G01 X60.5263 Y26.5691
G01 X60.5194 Y26.5836
G01 X60.5153 Y26.5940
G01 X60.5098 Y26.6103
G01 X60.5059 Y26.6260
G01 X60.5030 Y26.6430
G01 X60.5014 Y26.6590
G01 X60.5009 Y26.6732
G01 X60.5010 Y26.9049
G01 X60.5014 Y26.9160
G01 X60.5024 Y26.9271
G01 X60.5047 Y26.9430
G01 X60.5070 Y26.9539
G01 X60.5098 Y26.9647
G01 X60.5132 Y26.9753
G01 X60.5171 Y26.9857
G01 X60.5214 Y26.9959
G01 X60.5263 Y27.0059
G01 X60.5316 Y27.0157
G01 X60.5375 Y27.0252
G01 X60.5437 Y27.0343
G01 X60.5505 Y27.0432
G01 X60.5576 Y27.0517
G01 X60.5695 Y27.0642
G01 X60.5777 Y27.0718
G01 X60.5862 Y27.0789
G01 X60.5951 Y27.0857
G01 X60.6042 Y27.0919
G01 X60.6181 Y27.1002
G01 X60.6279 Y27.1054
G01 X60.6437 Y27.1123
G01 X60.6589 Y27.1178
G01 X60.6755 Y27.1224
G01 X60.6864 Y27.1247
G01 X60.7023 Y27.1270
G01 X60.7195 Y27.1283
G01 X61.5231 Y27.1283
G01 X61.5342 Y27.1276
G01 X61.5452 Y27.1264
G01 X61.5562 Y27.1247
G01 X61.5671 Y27.1224
G01 X61.5779 Y27.1196
G01 X61.5885 Y27.1162
G01 X61.6046 Y27.1100
G01 X61.6147 Y27.1054
G01 X61.6245 Y27.1002
G01 X61.6341 Y27.0946
G01 X61.6435 Y27.0885
G01 X61.6525 Y27.0820
G01 X61.6611 Y27.0750
G01 X61.6695 Y27.0677
G01 X61.6774 Y27.0599
G01 X61.6850 Y27.0517
G01 X61.6921 Y27.0432
G01 X61.7017 Y27.0303
G01 X61.7078 Y27.0209
G01 X61.7134 Y27.0113
G01 X61.7186 Y27.0015
G01 X61.7232 Y26.9914
G01 X61.7294 Y26.9753
G01 X61.7328 Y26.9647
G01 X61.7356 Y26.9539
G01 X61.7387 Y26.9381
G01 X61.7402 Y26.9271
G01 X61.7412 Y26.9160
G01 X61.7417 Y26.9018
G01 X61.7417 Y25.8599
G01 X62.9331 Y24.6685
G01 X64.6181 Y24.6685
G01 X65.8095 Y25.8599
G01 X65.8095 Y27.5449
G01 X64.6181 Y28.7363
G01 X62.9331 Y28.7363
G01 X62.9137 Y28.7171
G01 X62.9054 Y28.7098
G01 X62.8967 Y28.7028
G01 X62.8877 Y28.6963
G01 X62.8784 Y28.6902
G01 X62.8633 Y28.6817
G01 X62.8533 Y28.6768
G01 X62.8431 Y28.6725
G01 X62.8327 Y28.6686
G01 X62.8173 Y28.6639
G01 X62.8064 Y28.6613
G01 X62.7955 Y28.6593
G01 X62.7845 Y28.6578
G01 X62.7734 Y28.6568
G01 X62.7623 Y28.6564
G01 X58.8046 Y28.6565
G01 X58.7874 Y28.6578
G01 X58.7764 Y28.6593
G01 X58.7655 Y28.6613
G01 X58.7547 Y28.6639
G01 X58.7392 Y28.6686
G01 X58.7288 Y28.6725
G01 X58.7186 Y28.6768
G01 X58.7086 Y28.6817
G01 X58.6988 Y28.6870
G01 X58.6893 Y28.6929
G01 X58.6802 Y28.6991
G01 X58.6713 Y28.7059
G01 X58.6628 Y28.7130
G01 X58.6546 Y28.7206
G01 X58.6468 Y28.7285
G01 X58.6356 Y28.7416
G01 X58.6288 Y28.7505
G01 X58.6226 Y28.7596
G01 X58.6167 Y28.7691
G01 X58.6114 Y28.7789
G01 X58.6065 Y28.7889
G01 X58.6022 Y28.7991
G01 X58.5983 Y28.8095
G01 X58.5936 Y28.8250
G01 X58.5898 Y28.8418
G01 X58.5881 Y28.8528
G01 X58.5869 Y28.8638
G01 X58.5861 Y28.8799
G01 X58.5860 Y28.9230
G01 X57.1852 Y28.9230
G01 X57.1852 Y28.3662
G01 X57.1843 Y28.3471
G01 X57.1831 Y28.3360
G01 X57.1814 Y28.3250
G01 X57.1776 Y28.3082
G01 X57.1745 Y28.2975
G01 X57.1708 Y28.2870
G01 X57.1647 Y28.2721
G01 X57.1569 Y28.2567
G01 X57.1513 Y28.2471
G01 X57.1452 Y28.2378
G01 X57.1356 Y28.2248
G01 X57.1285 Y28.2163
G01 X57.1217 Y28.2089
G01 X57.1217 Y27.5759
G01 X57.1285 Y27.5685
G01 X57.1356 Y27.5600
G01 X57.1424 Y27.5511
G01 X57.1486 Y27.5419
G01 X57.1569 Y27.5281
G01 X57.1621 Y27.5182
G01 X57.1667 Y27.5081
G01 X57.1708 Y27.4978
G01 X57.1745 Y27.4873
G01 X57.1776 Y27.4766
G01 X57.1802 Y27.4658
G01 X57.1831 Y27.4488
G01 X57.1843 Y27.4377
G01 X57.1850 Y27.4266
G01 X57.1852 Y26.6732
G01 X57.1847 Y26.6590
G01 X57.1831 Y26.6430
G01 X57.1802 Y26.6260
G01 X57.1776 Y26.6152
G01 X57.1729 Y26.5997
G01 X57.1690 Y26.5893
G01 X57.1647 Y26.5791
G01 X57.1569 Y26.5637
G01 X57.1486 Y26.5498
G01 X57.1387 Y26.5357
G01 X57.1285 Y26.5233
G01 X57.1209 Y26.5151
G01 X57.1084 Y26.5032
G01 X57.0960 Y26.4930
G01 X57.0870 Y26.4865
G01 X57.0724 Y26.4772
G01 X57.0626 Y26.4719
G01 X57.0481 Y26.4650
G01 X57.0320 Y26.4588
G01 X57.0165 Y26.4541
G01 X57.0057 Y26.4515
G01 X56.9887 Y26.4486
G01 X56.9777 Y26.4474
G01 X56.9616 Y26.4466
G01 X56.5347 Y26.4465
G01 X56.5347 Y24.1567
G01 X56.6890 Y24.1567
G01 X56.7032 Y24.1562
G01 X56.7143 Y24.1552
G01 X56.7253 Y24.1537
G01 X56.7362 Y24.1517
G01 X56.7470 Y24.1491
G01 X56.7577 Y24.1460
G01 X56.7682 Y24.1423
G01 X56.7786 Y24.1382
G01 X56.7887 Y24.1336
G01 X56.7985 Y24.1284
G01 X56.8081 Y24.1228
G01 X56.8215 Y24.1139
G01 X56.8304 Y24.1071
G01 X56.8435 Y24.0959
G01 X56.8514 Y24.0881
G01 X56.8622 Y24.0761
G01 X56.8729 Y24.0625
G01 X56.8791 Y24.0534
G01 X56.8874 Y24.0395
G01 X56.8926 Y24.0297
G01 X56.8995 Y24.0139
G01 X56.9034 Y24.0035
G01 X56.9081 Y23.9880
G01 X56.9119 Y23.9712
G01 X56.9142 Y23.9553
G01 X56.9152 Y23.9442
G01 X56.9157 Y23.9300
G01 X56.9157 Y20.3740
G01 X56.9152 Y20.3598
G01 X56.9142 Y20.3487
G01 X56.9127 Y20.3377
G01 X56.9107 Y20.3268
G01 X56.9068 Y20.3111
G01 X56.9013 Y20.2948
G01 X56.8952 Y20.2799
G01 X56.8874 Y20.2645
G01 X56.8791 Y20.2506
G01 X56.8692 Y20.2365
G01 X56.8622 Y20.2279
G01 X56.8549 Y20.2195
G01 X56.8435 Y20.2081
G01 X56.8304 Y20.1969
G01 X56.8175 Y20.1873
G01 X56.8081 Y20.1812
G01 X56.7985 Y20.1756
G01 X56.7831 Y20.1678
G01 X56.7682 Y20.1617
G01 X56.7577 Y20.1580
G01 X56.7470 Y20.1549
G01 X56.7302 Y20.1511
G01 X56.7143 Y20.1488
G01 X56.7032 Y20.1478
G01 X56.6890 Y20.1473
G01 X55.3917 Y20.1473
G01 X55.3916 Y19.7359
G01 X55.3908 Y19.7198
G01 X55.3887 Y19.7027
G01 X55.3856 Y19.6869
G01 X55.3828 Y19.6761
G01 X55.3773 Y19.6598
G01 X55.3732 Y19.6494
G01 X55.3663 Y19.6349
G01 X55.3578 Y19.6199
G01 X55.3489 Y19.6065
G01 X55.3421 Y19.5976
G01 X55.3309 Y19.5845
G01 X55.3231 Y19.5766
G01 X55.3111 Y19.5658
G01 X55.2975 Y19.5551
G01 X55.2884 Y19.5489
G01 X55.2745 Y19.5406
G01 X55.2647 Y19.5354
G01 X55.2489 Y19.5285
G01 X55.2337 Y19.5230
G01 X55.2171 Y19.5184
G01 X55.2062 Y19.5161
G01 X55.1903 Y19.5138
G01 X55.1792 Y19.5128
G01 X55.1650 Y19.5123
G01 X52.4472 Y19.5123
G01 X52.4330 Y19.5128
G01 X52.4219 Y19.5138
G01 X52.4060 Y19.5161
G01 X52.3951 Y19.5184
G01 X52.3843 Y19.5212
G01 X52.3680 Y19.5267
G01 X52.3576 Y19.5308
G01 X52.3431 Y19.5377
G01 X52.3333 Y19.5430
G01 X52.3187 Y19.5523
G01 X52.3097 Y19.5588
G01 X52.2973 Y19.5690
G01 X52.2891 Y19.5766
G01 X52.2772 Y19.5891
G01 X52.2670 Y19.6015
G01 X52.2605 Y19.6105
G01 X52.2512 Y19.6251
G01 X52.2459 Y19.6349
G01 X52.2390 Y19.6494
G01 X52.2349 Y19.6598
G01 X52.2294 Y19.6761
G01 X52.2255 Y19.6918
G01 X52.2235 Y19.7027
G01 X52.2214 Y19.7198
G01 X52.2205 Y19.7390
G01 X52.2205 Y21.0362
G01 X52.2166 Y21.0362
G01 X52.2166 Y20.5264
G01 X52.2160 Y20.5141
G01 X52.2152 Y20.5081
G01 X52.2142 Y20.5020
G01 X52.2112 Y20.4901
G01 X52.2071 Y20.4786
G01 X52.2018 Y20.4675
G01 X52.1988 Y20.4621
G01 X52.1955 Y20.4570
G01 X52.1882 Y20.4471
G01 X52.1842 Y20.4425
G01 X52.1755 Y20.4338
G01 X52.1661 Y20.4260
G01 X52.1610 Y20.4225
G01 X52.1559 Y20.4192
G01 X52.1450 Y20.4134
G01 X52.1394 Y20.4109
G01 X52.1279 Y20.4068
G01 X52.1220 Y20.4051
G01 X52.1099 Y20.4028
G01 X52.0977 Y20.4016
G01 X52.0916 Y20.4014
G01 X50.0596 Y20.4014
G01 X50.0473 Y20.4020
G01 X50.0352 Y20.4038
G01 X50.0233 Y20.4068
G01 X50.0175 Y20.4087
G01 X50.0118 Y20.4109
G01 X50.0007 Y20.4162
G01 X49.9902 Y20.4225
G01 X49.9803 Y20.4298
G01 X49.9712 Y20.4380
G01 X49.9630 Y20.4471
G01 X49.9557 Y20.4570
G01 X49.9524 Y20.4621
G01 X49.9466 Y20.4730
G01 X49.9419 Y20.4843
G01 X49.9400 Y20.4901
G01 X49.9370 Y20.5020
G01 X49.9352 Y20.5141
G01 X49.9346 Y20.5264
G01 X49.9346 Y21.0362
G01 X49.9307 Y21.0362
G01 X49.9307 Y19.7390
G01 X49.9302 Y19.7248
G01 X49.9286 Y19.7088
G01 X49.9269 Y19.6978
G01 X49.9246 Y19.6869
G01 X49.9218 Y19.6761
G01 X49.9184 Y19.6655
G01 X49.9122 Y19.6494
G01 X49.9076 Y19.6393
G01 X49.9024 Y19.6295
G01 X49.8968 Y19.6199
G01 X49.8907 Y19.6105
G01 X49.8811 Y19.5976
G01 X49.8740 Y19.5891
G01 X49.8664 Y19.5809
G01 X49.8539 Y19.5690
G01 X49.8454 Y19.5619
G01 X49.8365 Y19.5551
G01 X49.8231 Y19.5462
G01 X49.8081 Y19.5377
G01 X49.7981 Y19.5328
G01 X49.7879 Y19.5285
G01 X49.7775 Y19.5246
G01 X49.7669 Y19.5212
G01 X49.7561 Y19.5184
G01 X49.7452 Y19.5161
G01 X49.7342 Y19.5144
G01 X49.7232 Y19.5132
G01 X49.7071 Y19.5124
G01 X46.3007 Y19.5123
G01 X46.2815 Y19.5132
G01 X46.2705 Y19.5144
G01 X46.2595 Y19.5161
G01 X46.2427 Y19.5199
G01 X46.2272 Y19.5246
G01 X46.2168 Y19.5285
G01 X46.2010 Y19.5354
G01 X46.1868 Y19.5430
G01 X46.1722 Y19.5523
G01 X46.1593 Y19.5619
G01 X46.1462 Y19.5731
G01 X45.2546 Y20.4646
G01 X42.1729 Y20.4646
G01 X42.1537 Y20.4654
G01 X42.1366 Y20.4675
G01 X42.1208 Y20.4706
G01 X42.1100 Y20.4735
G01 X42.0937 Y20.4789
G01 X42.0788 Y20.4850
G01 X42.0634 Y20.4928
G01 X42.0538 Y20.4984
G01 X42.0404 Y20.5074
G01 X42.0268 Y20.5180
G01 X42.0148 Y20.5288
G01 X42.0070 Y20.5368
G01 X41.9958 Y20.5498
G01 X41.9862 Y20.5628
G01 X41.9769 Y20.5773
G01 X41.9716 Y20.5871
G01 X41.9647 Y20.6017
G01 X41.9585 Y20.6178
G01 X41.9538 Y20.6332
G01 X41.9500 Y20.6500
G01 X41.9477 Y20.6659
G01 X41.9464 Y20.6832
G01 X41.9462 Y21.0362
G01 X41.9423 Y21.0362
G01 X41.9423 Y20.9709
G01 X41.9417 Y20.9586
G01 X41.9409 Y20.9526
G01 X41.9386 Y20.9405
G01 X41.9350 Y20.9288
G01 X41.9303 Y20.9175
G01 X41.9245 Y20.9066
G01 X41.9177 Y20.8964
G01 X41.9099 Y20.8870
G01 X41.9057 Y20.8825
G01 X41.8966 Y20.8743
G01 X41.8918 Y20.8705
G01 X41.8816 Y20.8637
G01 X41.8707 Y20.8579
G01 X41.8594 Y20.8532
G01 X41.8536 Y20.8513
G01 X41.8417 Y20.8483
G01 X41.8296 Y20.8465
G01 X41.8173 Y20.8459
G01 X40.0139 Y20.8459
G01 X40.0016 Y20.8465
G01 X39.9895 Y20.8483
G01 X39.9835 Y20.8496
G01 X39.9776 Y20.8513
G01 X39.9661 Y20.8554
G01 X39.9550 Y20.8607
G01 X39.9445 Y20.8670
G01 X39.9346 Y20.8743
G01 X39.9300 Y20.8783
G01 X39.9213 Y20.8870
G01 X39.9173 Y20.8916
G01 X39.9100 Y20.9015
G01 X39.9037 Y20.9120
G01 X39.8984 Y20.9231
G01 X39.8943 Y20.9346
G01 X39.8913 Y20.9465
G01 X39.8895 Y20.9586
G01 X39.8891 Y20.9648
G01 X39.8889 Y21.0362
G01 X39.8850 Y21.0362
G01 X39.8848 Y20.6832
G01 X39.8835 Y20.6659
G01 X39.8820 Y20.6549
G01 X39.8800 Y20.6440
G01 X39.8761 Y20.6284
G01 X39.8706 Y20.6120
G01 X39.8645 Y20.5971
G01 X39.8567 Y20.5817
G01 X39.8484 Y20.5679
G01 X39.8385 Y20.5538
G01 X39.8283 Y20.5413
G01 X39.8164 Y20.5288
G01 X39.8044 Y20.5180
G01 X39.7908 Y20.5074
G01 X39.7774 Y20.4984
G01 X39.7624 Y20.4899
G01 X39.7479 Y20.4830
G01 X39.7375 Y20.4789
G01 X39.7212 Y20.4735
G01 X39.7055 Y20.4695
G01 X39.6885 Y20.4666
G01 X39.6725 Y20.4650
G01 X39.6583 Y20.4646
G01 X37.9847 Y20.4646
G01 X37.9656 Y20.4654
G01 X37.9485 Y20.4675
G01 X37.9327 Y20.4706
G01 X37.9160 Y20.4752
G01 X37.9009 Y20.4807
G01 X37.8906 Y20.4850
G01 X37.8752 Y20.4928
G01 X37.8614 Y20.5011
G01 X37.8473 Y20.5110
G01 X37.8348 Y20.5212
G01 X37.8245 Y20.5309
G01 X37.6447 Y20.7107
G01 X37.0118 Y20.7107
G01 X36.5643 Y20.2632
G01 X36.5643 Y19.6304
G01 X37.0118 Y19.1829
G01 X37.6447 Y19.1829
G01 X37.8401 Y19.3783
G01 X37.8504 Y19.3880
G01 X37.8629 Y19.3982
G01 X37.8770 Y19.4082
G01 X37.8908 Y19.4164
G01 X37.9062 Y19.4242
G01 X37.9211 Y19.4304
G01 X37.9375 Y19.4358
G01 X37.9531 Y19.4397
G01 X37.9701 Y19.4426
G01 X37.9862 Y19.4442
G01 X38.0004 Y19.4447
G01 X39.6583 Y19.4447
G01 X39.6725 Y19.4442
G01 X39.6836 Y19.4433
G01 X39.6995 Y19.4409
G01 X39.7104 Y19.4386
G01 X39.7212 Y19.4358
G01 X39.7375 Y19.4304
G01 X39.7479 Y19.4262
G01 X39.7624 Y19.4193
G01 X39.7722 Y19.4140
G01 X39.7868 Y19.4047
G01 X39.7958 Y19.3982
G01 X39.8082 Y19.3880
G01 X39.8164 Y19.3804
G01 X39.8242 Y19.3725
G01 X39.8354 Y19.3594
G01 X39.8422 Y19.3506
G01 X39.8511 Y19.3372
G01 X39.8596 Y19.3221
G01 X39.8665 Y19.3076
G01 X39.8706 Y19.2973
G01 X39.8761 Y19.2809
G01 X39.8800 Y19.2652
G01 X39.8820 Y19.2543
G01 X39.8841 Y19.2372
G01 X39.8849 Y19.2211
G01 X39.8850 Y17.8420
G01 X40.3395 Y17.8420
G01 X40.3537 Y17.8415
G01 X40.3648 Y17.8405
G01 X40.3758 Y17.8390
G01 X40.3867 Y17.8370
G01 X40.4024 Y17.8331
G01 X40.4130 Y17.8297
G01 X40.4234 Y17.8258
G01 X40.4336 Y17.8215
G01 X40.4436 Y17.8166
G01 X40.4534 Y17.8113
G01 X40.4629 Y17.8054
G01 X40.4770 Y17.7955
G01 X40.4856 Y17.7885
G01 X40.4940 Y17.7812
G01 X40.5019 Y17.7734
G01 X40.5095 Y17.7652
G01 X40.5166 Y17.7567
G01 X40.5234 Y17.7478
G01 X40.5323 Y17.7344
G01 X40.5408 Y17.7194
G01 X40.5457 Y17.7094
G01 X40.5500 Y17.6992
G01 X40.5555 Y17.6840
G01 X40.5586 Y17.6733
G01 X40.5612 Y17.6625
G01 X40.5641 Y17.6455
G01 X40.5657 Y17.6295
G01 X40.5662 Y17.6153
G01 X40.5661 Y17.1663
G01 X40.5653 Y17.1502
G01 X40.5632 Y17.1331
G01 X40.5601 Y17.1173
G01 X40.5555 Y17.1007
G01 X40.5500 Y17.0855
G01 X40.5457 Y17.0753
G01 X40.5408 Y17.0653
G01 X40.5355 Y17.0555
G01 X40.5296 Y17.0461
G01 X40.5197 Y17.0319
G01 X40.5127 Y17.0233
G01 X40.5054 Y17.0149
G01 X40.4940 Y17.0036
G01 X40.4856 Y16.9962
G01 X40.4770 Y16.9892
G01 X40.4629 Y16.9793
G01 X40.4490 Y16.9710
G01 X40.4392 Y16.9659
G01 X40.4291 Y16.9612
G01 X40.4130 Y16.9550
G01 X40.4024 Y16.9517
G01 X40.3916 Y16.9488
G01 X40.3758 Y16.9457
G01 X40.3648 Y16.9442
G01 X40.3537 Y16.9432
G01 X40.3364 Y16.9428
G01 X40.3253 Y16.9432
G01 X40.3142 Y16.9442
G01 X40.2983 Y16.9465
G01 X40.2874 Y16.9488
G01 X40.2708 Y16.9534
G01 X40.2556 Y16.9589
G01 X40.2398 Y16.9659
G01 X40.2256 Y16.9735
G01 X40.2111 Y16.9827
G01 X40.1981 Y16.9923
G01 X40.1896 Y16.9994
G01 X40.1792 Y17.0091
G01 X39.9620 Y17.2263
G01 X39.3292 Y17.2263
G01 X38.8817 Y16.7788
G01 X38.8817 Y16.1460
G01 X39.3292 Y15.6985
G01 X39.9620 Y15.6985
G01 X40.1851 Y15.9212
G01 X40.1981 Y15.9325
G01 X40.2111 Y15.9421
G01 X40.2204 Y15.9482
G01 X40.2300 Y15.9538
G01 X40.2454 Y15.9616
G01 X40.2556 Y15.9659
G01 X40.2708 Y15.9714
G01 X40.2874 Y15.9760
G01 X40.3032 Y15.9791
G01 X40.3204 Y15.9812
G01 X40.3364 Y15.9820
G01 X40.3537 Y15.9816
G01 X40.3648 Y15.9806
G01 X40.3807 Y15.9783
G01 X40.3916 Y15.9760
G01 X40.4082 Y15.9714
G01 X40.4234 Y15.9659
G01 X40.4336 Y15.9616
G01 X40.4490 Y15.9538
G01 X40.4629 Y15.9455
G01 X40.4770 Y15.9356
G01 X40.4856 Y15.9286
G01 X40.4940 Y15.9212
G01 X40.5019 Y15.9135
G01 X40.5095 Y15.9053
G01 X40.5166 Y15.8968
G01 X40.5234 Y15.8879
G01 X40.5296 Y15.8787
G01 X40.5379 Y15.8649
G01 X40.5431 Y15.8551
G01 X40.5477 Y15.8450
G01 X40.5518 Y15.8346
G01 X40.5555 Y15.8241
G01 X40.5601 Y15.8075
G01 X40.5624 Y15.7966
G01 X40.5641 Y15.7856
G01 X40.5653 Y15.7746
G01 X40.5662 Y15.7554
G01 X40.5662 Y14.8950
G01 X40.5653 Y14.8759
G01 X40.5632 Y14.8587
G01 X40.5601 Y14.8429
G01 X40.5573 Y14.8322
G01 X40.5539 Y14.8216
G01 X40.5477 Y14.8055
G01 X40.5431 Y14.7953
G01 X40.5379 Y14.7855
G01 X40.5323 Y14.7759
G01 X40.5262 Y14.7666
G01 X40.5166 Y14.7536
G01 X40.5095 Y14.7451
G01 X40.5019 Y14.7369
G01 X40.4894 Y14.7250
G01 X40.4809 Y14.7179
G01 X40.4720 Y14.7112
G01 X40.4586 Y14.7022
G01 X40.4436 Y14.6937
G01 X40.4336 Y14.6888
G01 X40.4234 Y14.6845
G01 X40.4082 Y14.6790
G01 X40.3975 Y14.6759
G01 X40.3867 Y14.6733
G01 X40.3697 Y14.6704
G01 X40.3587 Y14.6692
G01 X40.3476 Y14.6685
G01 X40.3364 Y14.6684
G01 X40.3204 Y14.6692
G01 X40.3032 Y14.6713
G01 X40.2874 Y14.6744
G01 X40.2708 Y14.6790
G01 X40.2556 Y14.6845
G01 X40.2454 Y14.6888
G01 X40.2300 Y14.6966
G01 X40.2204 Y14.7022
G01 X40.2070 Y14.7112
G01 X40.1981 Y14.7179
G01 X40.1896 Y14.7250
G01 X40.1792 Y14.7347
G01 X40.1164 Y14.7976
G01 X38.7880 Y14.7976
G01 X38.0538 Y14.0634
G01 X38.0538 Y11.3176
G01 X38.0533 Y11.3034
G01 X38.0524 Y11.2923
G01 X38.0500 Y11.2764
G01 X38.0477 Y11.2655
G01 X38.0449 Y11.2547
G01 X38.0395 Y11.2383
G01 X38.0353 Y11.2280
G01 X38.0285 Y11.2135
G01 X38.0200 Y11.1984
G01 X38.0110 Y11.1851
G01 X38.0004 Y11.1714
G01 X37.9874 Y11.1573
G01 X34.9788 Y8.1487
G01 X34.9685 Y8.1390
G01 X34.9600 Y8.1319
G01 X34.9511 Y8.1251
G01 X34.9419 Y8.1189
G01 X34.9324 Y8.1130
G01 X34.9182 Y8.1054
G01 X34.9081 Y8.1008
G01 X34.8978 Y8.0967
G01 X34.8873 Y8.0930
G01 X34.8766 Y8.0899
G01 X34.8598 Y8.0861
G01 X34.8488 Y8.0844
G01 X34.8377 Y8.0832
G01 X34.8186 Y8.0823
G01 X29.4698 Y8.0824
G01 X29.4587 Y8.0828
G01 X29.4476 Y8.0838
G01 X29.4366 Y8.0853
G01 X29.4257 Y8.0873
G01 X29.4100 Y8.0912
G01 X29.3994 Y8.0946
G01 X29.3890 Y8.0985
G01 X29.3788 Y8.1028
G01 X29.3688 Y8.1077
G01 X29.3538 Y8.1162
G01 X29.3444 Y8.1223
G01 X29.3354 Y8.1288
G01 X29.3230 Y8.1390
G01 X29.3105 Y8.1509
G01 X29.3029 Y8.1591
G01 X29.2958 Y8.1676
G01 X29.2862 Y8.1805
G01 X29.2801 Y8.1899
G01 X29.2745 Y8.1995
G01 X29.2693 Y8.2093
G01 X29.2647 Y8.2194
G01 X29.2585 Y8.2355
G01 X29.2551 Y8.2461
G01 X29.2523 Y8.2569
G01 X29.2492 Y8.2728
G01 X27.1820 Y8.2728
G01 X27.1789 Y8.2569
G01 X27.1761 Y8.2461
G01 X27.1727 Y8.2355
G01 X27.1688 Y8.2251
G01 X27.1645 Y8.2149
G01 X27.1596 Y8.2049
G01 X27.1543 Y8.1951
G01 X27.1484 Y8.1856
G01 X27.1422 Y8.1765
G01 X27.1354 Y8.1676
G01 X27.1283 Y8.1591
G01 X27.1207 Y8.1509
G01 X27.1128 Y8.1431
G01 X27.1044 Y8.1358
G01 X27.0958 Y8.1288
G01 X27.0817 Y8.1189
G01 X27.0722 Y8.1130
G01 X27.0624 Y8.1077
G01 X27.0524 Y8.1028
G01 X27.0422 Y8.0985
G01 X27.0318 Y8.0946
G01 X27.0212 Y8.0912
G01 X27.0104 Y8.0884
G01 X26.9995 Y8.0861
G01 X26.9885 Y8.0844
G01 X26.9775 Y8.0832
G01 X26.9614 Y8.0824
G01 X26.9298 Y8.0824
G01 X26.9187 Y8.0828
G01 X26.9076 Y8.0838
G01 X26.8966 Y8.0853
G01 X26.8857 Y8.0873
G01 X26.8700 Y8.0912
G01 X26.8594 Y8.0946
G01 X26.8490 Y8.0985
G01 X26.8388 Y8.1028
G01 X26.8288 Y8.1077
G01 X26.8138 Y8.1162
G01 X26.8044 Y8.1223
G01 X26.7954 Y8.1288
G01 X26.7830 Y8.1390
G01 X26.7705 Y8.1509
G01 X26.7629 Y8.1591
G01 X26.7558 Y8.1676
G01 X26.7462 Y8.1805
G01 X26.7401 Y8.1899
G01 X26.7345 Y8.1995
G01 X26.7293 Y8.2093
G01 X26.7247 Y8.2194
G01 X26.7185 Y8.2355
G01 X26.7151 Y8.2461
G01 X26.7123 Y8.2569
G01 X26.7092 Y8.2728
G01 X24.6420 Y8.2728
G01 X24.6389 Y8.2569
G01 X24.6343 Y8.2403
G01 X24.6288 Y8.2251
G01 X24.6245 Y8.2149
G01 X24.6196 Y8.2049
G01 X24.6143 Y8.1951
G01 X24.6084 Y8.1856
G01 X24.5985 Y8.1715
G01 X24.5883 Y8.1591
G01 X24.5764 Y8.1466
G01 X24.5682 Y8.1390
G01 X24.5597 Y8.1319
G01 X24.5468 Y8.1223
G01 X24.5322 Y8.1130
G01 X24.5180 Y8.1054
G01 X24.5022 Y8.0985
G01 X24.4870 Y8.0930
G01 X24.4763 Y8.0899
G01 X24.4655 Y8.0873
G01 X24.4485 Y8.0844
G01 X24.4325 Y8.0828
G01 X24.4183 Y8.0823
G01 X23.1229 Y8.0823
G01 X23.1037 Y8.0832
G01 X23.0927 Y8.0844
G01 X23.0817 Y8.0861
G01 X23.0649 Y8.0899
G01 X23.0542 Y8.0930
G01 X23.0437 Y8.0967
G01 X23.0288 Y8.1028
G01 X23.0188 Y8.1077
G01 X23.0090 Y8.1130
G01 X22.9995 Y8.1189
G01 X22.9904 Y8.1251
G01 X22.9768 Y8.1358
G01 X22.9684 Y8.1431
G01 X22.9605 Y8.1509
G01 X22.9529 Y8.1591
G01 X22.9458 Y8.1676
G01 X22.9362 Y8.1805
G01 X22.9301 Y8.1899
G01 X22.9245 Y8.1995
G01 X22.9193 Y8.2093
G01 X22.9147 Y8.2194
G01 X22.9085 Y8.2355
G01 X22.9051 Y8.2461
G01 X22.9023 Y8.2569
G01 X22.8992 Y8.2728
G00 Z1.0000
G00 X24.6450 Y10.3457
G01 F80.00
G01 Z-0.0100
G01 F200.00
G01 X24.6450 Y9.8720
G01 X25.4489 Y9.8720
G01 X25.4489 Y9.8759
G01 X24.7678 Y9.8761
G01 X24.7556 Y9.8773
G01 X24.7435 Y9.8796
G01 X24.7376 Y9.8813
G01 X24.7261 Y9.8854
G01 X24.7150 Y9.8907
G01 X24.7096 Y9.8937
G01 X24.6994 Y9.9005
G01 X24.6900 Y9.9083
G01 X24.6813 Y9.9170
G01 X24.6735 Y9.9264
G01 X24.6700 Y9.9315
G01 X24.6637 Y9.9420
G01 X24.6609 Y9.9475
G01 X24.6562 Y9.9588
G01 X24.6526 Y9.9705
G01 X24.6503 Y9.9826
G01 X24.6495 Y9.9886
G01 X24.6489 Y10.0009
G01 X24.6489 Y10.3457
G01 X24.6450 Y10.3457
G00 Z1.0000
G00 X24.7627 Y11.2733
G01 F80.00
G01 Z-0.0100
G01 F200.00
G01 X24.7485 Y11.2728
G01 X24.6450 Y11.2728
G01 X24.6450 Y10.7991
G01 X24.6489 Y10.7991
G01 X24.6489 Y11.1439
G01 X24.6495 Y11.1562
G01 X24.6513 Y11.1683
G01 X24.6526 Y11.1743
G01 X24.6562 Y11.1860
G01 X24.6609 Y11.1973
G01 X24.6667 Y11.2082
G01 X24.6735 Y11.2184
G01 X24.6813 Y11.2278
G01 X24.6900 Y11.2365
G01 X24.6994 Y11.2443
G01 X24.7096 Y11.2511
G01 X24.7205 Y11.2569
G01 X24.7261 Y11.2594
G01 X24.7376 Y11.2635
G01 X24.7435 Y11.2652
G01 X24.7556 Y11.2675
G01 X24.7678 Y11.2687
G01 X25.1694 Y11.2689
G01 X25.1694 Y11.6257
G01 X25.1041 Y11.6257
G01 X25.0918 Y11.6263
G01 X25.0797 Y11.6281
G01 X25.0678 Y11.6311
G01 X25.0563 Y11.6352
G01 X25.0452 Y11.6405
G01 X25.0398 Y11.6435
G01 X25.0296 Y11.6503
G01 X25.0202 Y11.6581
G01 X25.0115 Y11.6668
G01 X25.0037 Y11.6762
G01 X25.0002 Y11.6813
G01 X24.9939 Y11.6918
G01 X24.9886 Y11.7029
G01 X24.9845 Y11.7144
G01 X24.9828 Y11.7203
G01 X24.9805 Y11.7324
G01 X24.9793 Y11.7446
G01 X24.9791 Y11.7507
G01 X24.9791 Y12.4257
G01 X24.9752 Y12.4257
G01 X24.9752 Y11.4995
G01 X24.9743 Y11.4803
G01 X24.9731 Y11.4693
G01 X24.9714 Y11.4583
G01 X24.9676 Y11.4415
G01 X24.9645 Y11.4308
G01 X24.9608 Y11.4203
G01 X24.9547 Y11.4054
G01 X24.9469 Y11.3900
G01 X24.9413 Y11.3804
G01 X24.9352 Y11.3710
G01 X24.9256 Y11.3581
G01 X24.9185 Y11.3496
G01 X24.9109 Y11.3414
G01 X24.8984 Y11.3295
G01 X24.8899 Y11.3224
G01 X24.8810 Y11.3156
G01 X24.8676 Y11.3067
G01 X24.8526 Y11.2982
G01 X24.8426 Y11.2933
G01 X24.8324 Y11.2890
G01 X24.8172 Y11.2835
G01 X24.8065 Y11.2804
G01 X24.7957 Y11.2778
G01 X24.7787 Y11.2749
G01 X24.7627 Y11.2733
G00 Z1.0000
G00 X26.1818 Y11.6257
G01 F80.00
G01 Z-0.0100
G01 F200.00
G01 X26.1818 Y11.2689
G01 X26.5834 Y11.2687
G01 X26.5896 Y11.2683
G01 X26.6017 Y11.2665
G01 X26.6136 Y11.2635
G01 X26.6251 Y11.2594
G01 X26.6362 Y11.2541
G01 X26.6467 Y11.2478
G01 X26.6566 Y11.2405
G01 X26.6657 Y11.2323
G01 X26.6739 Y11.2232
G01 X26.6812 Y11.2133
G01 X26.6875 Y11.2028
G01 X26.6903 Y11.1973
G01 X26.6950 Y11.1860
G01 X26.6986 Y11.1743
G01 X26.6999 Y11.1683
G01 X26.7017 Y11.1562
G01 X26.7023 Y11.1439
G01 X26.7023 Y10.9786
G01 X26.7062 Y10.9786
G01 X26.7062 Y11.2728
G01 X26.5996 Y11.2729
G01 X26.5835 Y11.2737
G01 X26.5725 Y11.2749
G01 X26.5615 Y11.2766
G01 X26.5506 Y11.2789
G01 X26.5398 Y11.2817
G01 X26.5292 Y11.2851
G01 X26.5131 Y11.2913
G01 X26.5030 Y11.2959
G01 X26.4932 Y11.3011
G01 X26.4836 Y11.3067
G01 X26.4702 Y11.3156
G01 X26.4613 Y11.3224
G01 X26.4528 Y11.3295
G01 X26.4446 Y11.3371
G01 X26.4368 Y11.3450
G01 X26.4295 Y11.3534
G01 X26.4225 Y11.3620
G01 X26.4160 Y11.3710
G01 X26.4099 Y11.3804
G01 X26.4043 Y11.3900
G01 X26.3991 Y11.3998
G01 X26.3945 Y11.4099
G01 X26.3904 Y11.4203
G01 X26.3849 Y11.4366
G01 X26.3821 Y11.4474
G01 X26.3798 Y11.4583
G01 X26.3775 Y11.4742
G01 X26.3765 Y11.4853
G01 X26.3760 Y11.4995
G01 X26.3760 Y12.4257
G01 X26.3721 Y12.4257
G01 X26.3721 Y11.7507
G01 X26.3715 Y11.7384
G01 X26.3707 Y11.7324
G01 X26.3684 Y11.7203
G01 X26.3648 Y11.7086
G01 X26.3601 Y11.6973
G01 X26.3543 Y11.6864
G01 X26.3475 Y11.6762
G01 X26.3397 Y11.6668
G01 X26.3310 Y11.6581
G01 X26.3264 Y11.6541
G01 X26.3165 Y11.6468
G01 X26.3060 Y11.6405
G01 X26.2949 Y11.6352
G01 X26.2834 Y11.6311
G01 X26.2715 Y11.6281
G01 X26.2594 Y11.6263
G01 X26.2471 Y11.6257
G01 X26.1818 Y11.6257
G00 Z1.0000
G00 X27.1889 Y10.9786
G01 F80.00
G01 Z-0.0100
G01 F200.00
G01 X27.1889 Y11.0439
G01 X27.1895 Y11.0562
G01 X27.1913 Y11.0683
G01 X27.1943 Y11.0802
G01 X27.1984 Y11.0917
G01 X27.2009 Y11.0973
G01 X27.2067 Y11.1082
G01 X27.2135 Y11.1184
G01 X27.2213 Y11.1278
G01 X27.2300 Y11.1365
G01 X27.2394 Y11.1443
G01 X27.2496 Y11.1511
G01 X27.2605 Y11.1569
G01 X27.2718 Y11.1616
G01 X27.2776 Y11.1635
G01 X27.2895 Y11.1665
G01 X27.3016 Y11.1683
G01 X27.3078 Y11.1687
G01 X27.7094 Y11.1689
G01 X27.7094 Y11.1728
G01 X27.1850 Y11.1728
G01 X27.1850 Y10.9786
G01 X27.1889 Y10.9786
G00 Z1.0000
G00 X27.1850 Y9.9662
G01 F80.00
G01 Z-0.0100
G01 F200.00
G01 X27.1850 Y9.7720
G01 X27.9889 Y9.7720
G01 X27.9889 Y9.7759
G01 X27.3139 Y9.7759
G01 X27.3016 Y9.7765
G01 X27.2895 Y9.7783
G01 X27.2835 Y9.7796
G01 X27.2718 Y9.7832
G01 X27.2605 Y9.7879
G01 X27.2496 Y9.7937
G01 X27.2394 Y9.8005
G01 X27.2300 Y9.8083
G01 X27.2255 Y9.8125
G01 X27.2173 Y9.8216
G01 X27.2100 Y9.8315
G01 X27.2037 Y9.8420
G01 X27.1984 Y9.8531
G01 X27.1943 Y9.8646
G01 X27.1926 Y9.8705
G01 X27.1903 Y9.8826
G01 X27.1891 Y9.8948
G01 X27.1889 Y9.9009
G01 X27.1889 Y9.9662
G01 X27.1850 Y9.9662
G00 Z1.0000
G00 X28.4423 Y9.7759
G01 F80.00
G01 Z-0.0100
G01 F200.00
G01 X28.4423 Y9.7720
G01 X29.2462 Y9.7720
G01 X29.2462 Y10.2457
G01 X29.2423 Y10.2457
G01 X29.2423 Y9.9009
G01 X29.2421 Y9.8948
G01 X29.2409 Y9.8826
G01 X29.2386 Y9.8705
G01 X29.2350 Y9.8588
G01 X29.2328 Y9.8531
G01 X29.2275 Y9.8420
G01 X29.2212 Y9.8315
G01 X29.2177 Y9.8264
G01 X29.2099 Y9.8170
G01 X29.2012 Y9.8083
G01 X29.1918 Y9.8005
G01 X29.1816 Y9.7937
G01 X29.1762 Y9.7907
G01 X29.1651 Y9.7854
G01 X29.1536 Y9.7813
G01 X29.1417 Y9.7783
G01 X29.1356 Y9.7773
G01 X29.1234 Y9.7761
G01 X29.1173 Y9.7759
G01 X28.4423 Y9.7759
G00 Z1.0000
G00 X28.7218 Y11.1728
G01 F80.00
G01 Z-0.0100
G01 F200.00
G01 X28.7218 Y11.1689
G01 X29.1173 Y11.1689
G01 X29.1296 Y11.1683
G01 X29.1356 Y11.1675
G01 X29.1477 Y11.1652
G01 X29.1594 Y11.1616
G01 X29.1707 Y11.1569
G01 X29.1816 Y11.1511
G01 X29.1867 Y11.1478
G01 X29.1918 Y11.1443
G01 X29.2012 Y11.1365
G01 X29.2099 Y11.1278
G01 X29.2177 Y11.1184
G01 X29.2245 Y11.1082
G01 X29.2303 Y11.0973
G01 X29.2350 Y11.0860
G01 X29.2386 Y11.0743
G01 X29.2409 Y11.0622
G01 X29.2417 Y11.0562
G01 X29.2423 Y11.0439
G01 X29.2423 Y10.6991
G01 X29.2462 Y10.6991
G01 X29.2462 Y11.1728
G01 X28.7218 Y11.1728
G00 Z1.0000
G00 X29.3625 Y12.5809
G01 F80.00
G01 Z-0.0100
G01 F200.00
G01 X29.3677 Y12.5126
G01 X29.3753 Y12.4508
G01 X29.3868 Y12.3833
G01 X29.4017 Y12.3164
G01 X29.4216 Y12.2445
G01 X29.4432 Y12.1796
G01 X29.4656 Y12.1214
G01 X29.4959 Y12.0532
G01 X29.5239 Y11.9975
G01 X29.5575 Y11.9379
G01 X29.5940 Y11.8800
G01 X29.6333 Y11.8239
G01 X29.6792 Y11.7651
G01 X29.7241 Y11.7133
G01 X29.7714 Y11.6638
G01 X29.8165 Y11.6209
G01 X29.8683 Y11.5760
G01 X29.9271 Y11.5301
G01 X29.9832 Y11.4908
G01 X30.0358 Y11.4575
G01 X30.0953 Y11.4236
G01 X30.1564 Y11.3927
G01 X30.2246 Y11.3624
G01 X30.2828 Y11.3400
G01 X30.3477 Y11.3184
G01 X30.4196 Y11.2985
G01 X30.4865 Y11.2836
G01 X30.5540 Y11.2721
G01 X30.6158 Y11.2645
G01 X30.6841 Y11.2593
G01 X30.7525 Y11.2574
G01 X30.8210 Y11.2590
G01 X30.8954 Y11.2645
G01 X30.9572 Y11.2721
G01 X31.0247 Y11.2836
G01 X31.0975 Y11.3000
G01 X31.1576 Y11.3166
G01 X31.2227 Y11.3379
G01 X31.2866 Y11.3624
G01 X31.3493 Y11.3901
G01 X31.4105 Y11.4207
G01 X31.4701 Y11.4543
G01 X31.5332 Y11.4942
G01 X31.5890 Y11.5338
G01 X31.6382 Y11.5721
G01 X31.6947 Y11.6209
G01 X31.7442 Y11.6682
G01 X31.7871 Y11.7133
G01 X31.8359 Y11.7698
G01 X31.8779 Y11.8239
G01 X31.9138 Y11.8748
G01 X31.9505 Y11.9326
G01 X31.9844 Y11.9921
G01 X32.0153 Y12.0532
G01 X32.0456 Y12.1214
G01 X32.0701 Y12.1853
G01 X32.0914 Y12.2504
G01 X32.1080 Y12.3105
G01 X32.1244 Y12.3833
G01 X32.1359 Y12.4508
G01 X32.1441 Y12.5187
G01 X32.1490 Y12.5870
G01 X32.1506 Y12.6555
G01 X32.1487 Y12.7239
G01 X32.1435 Y12.7922
G01 X32.1359 Y12.8540
G01 X32.1244 Y12.9215
G01 X32.1080 Y12.9943
G01 X32.0896 Y13.0603
G01 X32.0680 Y13.1252
G01 X32.0456 Y13.1834
G01 X32.0324 Y13.2134
G01 X32.3835 Y13.5645
G01 X32.4027 Y13.5848
G01 X32.4188 Y13.6037
G01 X32.4340 Y13.6233
G01 X32.4447 Y13.6386
G01 X32.4613 Y13.6648
G01 X32.4734 Y13.6865
G01 X32.4818 Y13.7032
G01 X32.4921 Y13.7259
G01 X32.5011 Y13.7490
G01 X32.5108 Y13.7784
G01 X32.5173 Y13.8024
G01 X32.5226 Y13.8267
G01 X32.5258 Y13.8451
G01 X32.5296 Y13.8758
G01 X32.5313 Y13.9006
G01 X32.5318 Y13.9224
G01 X32.5318 Y15.4484
G01 X32.9146 Y15.4484
G01 X32.9269 Y15.4490
G01 X32.9390 Y15.4508
G01 X32.9509 Y15.4538
G01 X32.9624 Y15.4579
G01 X32.9680 Y15.4604
G01 X32.9789 Y15.4662
G01 X32.9840 Y15.4695
G01 X32.9939 Y15.4768
G01 X32.9985 Y15.4808
G01 X33.0072 Y15.4895
G01 X33.0150 Y15.4989
G01 X33.0185 Y15.5040
G01 X33.0218 Y15.5091
G01 X33.0276 Y15.5200
G01 X33.0323 Y15.5313
G01 X33.0342 Y15.5371
G01 X33.0372 Y15.5490
G01 X33.0382 Y15.5551
G01 X33.0390 Y15.5611
G01 X33.0396 Y15.5734
G01 X33.0396 Y17.3514
G01 X33.0394 Y17.3575
G01 X33.0382 Y17.3697
G01 X33.0359 Y17.3818
G01 X33.0323 Y17.3935
G01 X33.0301 Y17.3992
G01 X33.0276 Y17.4048
G01 X33.0218 Y17.4157
G01 X33.0150 Y17.4259
G01 X33.0112 Y17.4307
G01 X33.0030 Y17.4398
G01 X32.9939 Y17.4480
G01 X32.9891 Y17.4518
G01 X32.9840 Y17.4553
G01 X32.9735 Y17.4616
G01 X32.9624 Y17.4669
G01 X32.9567 Y17.4691
G01 X32.9509 Y17.4710
G01 X32.9390 Y17.4740
G01 X32.9269 Y17.4758
G01 X32.9146 Y17.4764
G01 X32.5318 Y17.4764
G01 X32.5318 Y17.8459
G01 X32.9273 Y17.8459
G01 X32.9396 Y17.8465
G01 X32.9517 Y17.8483
G01 X32.9636 Y17.8513
G01 X32.9694 Y17.8532
G01 X32.9751 Y17.8554
G01 X32.9862 Y17.8607
G01 X32.9967 Y17.8670
G01 X33.0018 Y17.8705
G01 X33.0066 Y17.8743
G01 X33.0157 Y17.8825
G01 X33.0199 Y17.8870
G01 X33.0277 Y17.8964
G01 X33.0345 Y17.9066
G01 X33.0403 Y17.9175
G01 X33.0428 Y17.9231
G01 X33.0450 Y17.9288
G01 X33.0486 Y17.9405
G01 X33.0499 Y17.9465
G01 X33.0517 Y17.9586
G01 X33.0523 Y17.9709
G01 X33.0521 Y19.1200
G01 X33.0509 Y19.1322
G01 X33.0486 Y19.1443
G01 X33.0469 Y19.1502
G01 X33.0450 Y19.1560
G01 X33.0403 Y19.1673
G01 X33.0375 Y19.1728
G01 X33.0312 Y19.1833
G01 X33.0239 Y19.1932
G01 X33.0199 Y19.1978
G01 X33.0112 Y19.2065
G01 X33.0066 Y19.2105
G01 X32.9967 Y19.2178
G01 X32.9862 Y19.2241
G01 X32.9807 Y19.2269
G01 X32.9694 Y19.2316
G01 X32.9577 Y19.2352
G01 X32.9456 Y19.2375
G01 X32.9334 Y19.2387
G01 X32.9273 Y19.2389
G01 X31.1178 Y19.2387
G01 X31.1116 Y19.2383
G01 X31.0995 Y19.2365
G01 X31.0876 Y19.2335
G01 X31.0761 Y19.2294
G01 X31.0650 Y19.2241
G01 X31.0596 Y19.2211
G01 X31.0494 Y19.2143
G01 X31.0446 Y19.2105
G01 X31.0355 Y19.2023
G01 X31.0313 Y19.1978
G01 X31.0235 Y19.1884
G01 X31.0200 Y19.1833
G01 X31.0137 Y19.1728
G01 X31.0109 Y19.1673
G01 X31.0062 Y19.1560
G01 X31.0026 Y19.1443
G01 X31.0003 Y19.1322
G01 X30.9991 Y19.1200
G01 X30.9989 Y19.1139
G01 X30.9989 Y17.9709
G01 X30.9991 Y17.9648
G01 X31.0003 Y17.9526
G01 X31.0026 Y17.9405
G01 X31.0062 Y17.9288
G01 X31.0084 Y17.9231
G01 X31.0137 Y17.9120
G01 X31.0200 Y17.9015
G01 X31.0235 Y17.8964
G01 X31.0313 Y17.8870
G01 X31.0355 Y17.8825
G01 X31.0446 Y17.8743
G01 X31.0494 Y17.8705
G01 X31.0596 Y17.8637
G01 X31.0650 Y17.8607
G01 X31.0761 Y17.8554
G01 X31.0876 Y17.8513
G01 X31.0935 Y17.8496
G01 X31.1056 Y17.8473
G01 X31.1116 Y17.8465
G01 X31.1239 Y17.8459
G01 X31.5194 Y17.8459
G01 X31.5194 Y17.4764
G01 X31.1366 Y17.4764
G01 X31.1243 Y17.4758
G01 X31.1122 Y17.4740
G01 X31.1062 Y17.4727
G01 X31.0945 Y17.4691
G01 X31.0832 Y17.4644
G01 X31.0723 Y17.4586
G01 X31.0672 Y17.4553
G01 X31.0573 Y17.4480
G01 X31.0527 Y17.4440
G01 X31.0440 Y17.4353
G01 X31.0400 Y17.4307
G01 X31.0327 Y17.4208
G01 X31.0264 Y17.4103
G01 X31.0211 Y17.3992
G01 X31.0189 Y17.3935
G01 X31.0153 Y17.3818
G01 X31.0140 Y17.3758
G01 X31.0122 Y17.3637
G01 X31.0116 Y17.3514
G01 X31.0116 Y15.5734
G01 X31.0122 Y15.5611
G01 X31.0130 Y15.5551
G01 X31.0140 Y15.5490
G01 X31.0170 Y15.5371
G01 X31.0189 Y15.5313
G01 X31.0236 Y15.5200
G01 X31.0294 Y15.5091
G01 X31.0327 Y15.5040
G01 X31.0400 Y15.4941
G01 X31.0482 Y15.4850
G01 X31.0573 Y15.4768
G01 X31.0621 Y15.4730
G01 X31.0723 Y15.4662
G01 X31.0777 Y15.4632
G01 X31.0832 Y15.4604
G01 X31.0945 Y15.4557
G01 X31.1062 Y15.4521
G01 X31.1122 Y15.4508
G01 X31.1243 Y15.4490
G01 X31.1366 Y15.4484
G01 X31.5194 Y15.4484
G01 X31.5194 Y14.1321
G01 X31.3166 Y13.9292
G01 X31.2866 Y13.9424
G01 X31.2284 Y13.9648
G01 X31.1576 Y13.9882
G01 X31.0916 Y14.0063
G01 X31.0247 Y14.0212
G01 X30.9633 Y14.0318
G01 X30.8954 Y14.0403
G01 X30.8210 Y14.0458
G01 X30.7525 Y14.0474
G01 X30.6902 Y14.0458
G01 X30.6158 Y14.0403
G01 X30.5479 Y14.0318
G01 X30.4804 Y14.0200
G01 X30.4196 Y14.0063
G01 X30.3536 Y13.9882
G01 X30.2828 Y13.9648
G01 X30.2246 Y13.9424
G01 X30.1619 Y13.9147
G01 X30.1007 Y13.8841
G01 X30.0358 Y13.8473
G01 X29.9832 Y13.8140
G01 X29.9271 Y13.7747
G01 X29.8730 Y13.7327
G01 X29.8165 Y13.6839
G01 X29.7670 Y13.6366
G01 X29.7241 Y13.5915
G01 X29.6792 Y13.5397
G01 X29.6333 Y13.4809
G01 X29.5940 Y13.4248
G01 X29.5607 Y13.3722
G01 X29.5239 Y13.3073
G01 X29.4933 Y13.2461
G01 X29.4656 Y13.1834
G01 X29.4432 Y13.1252
G01 X29.4216 Y13.0603
G01 X29.4032 Y12.9943
G01 X29.3868 Y12.9215
G01 X29.3753 Y12.8540
G01 X29.3677 Y12.7922
G01 X29.3625 Y12.7239
G01 X29.3606 Y12.6493
G01 X29.3625 Y12.5809
G00 Z1.0000
G00 X29.9918 Y15.4484
G01 F80.00
G01 Z-0.0100
G01 F200.00
G01 X29.9918 Y15.4445
G01 X30.5035 Y15.4445
G01 X30.5035 Y16.2357
G01 X30.4996 Y16.2357
G01 X30.4994 Y15.5673
G01 X30.4982 Y15.5551
G01 X30.4972 Y15.5490
G01 X30.4942 Y15.5371
G01 X30.4901 Y15.5256
G01 X30.4876 Y15.5200
G01 X30.4848 Y15.5145
G01 X30.4785 Y15.5040
G01 X30.4750 Y15.4989
G01 X30.4672 Y15.4895
G01 X30.4585 Y15.4808
G01 X30.4491 Y15.4730
G01 X30.4389 Y15.4662
G01 X30.4280 Y15.4604
G01 X30.4167 Y15.4557
G01 X30.4109 Y15.4538
G01 X30.3990 Y15.4508
G01 X30.3869 Y15.4490
G01 X30.3746 Y15.4484
G01 X29.9918 Y15.4484
G00 Z1.0000
G00 X28.4677 Y16.2357
G01 F80.00
G01 Z-0.0100
G01 F200.00
G01 X28.4677 Y15.4445
G01 X28.9794 Y15.4445
G01 X28.9794 Y15.4484
G01 X28.5966 Y15.4484
G01 X28.5843 Y15.4490
G01 X28.5783 Y15.4498
G01 X28.5662 Y15.4521
G01 X28.5545 Y15.4557
G01 X28.5432 Y15.4604
G01 X28.5323 Y15.4662
G01 X28.5221 Y15.4730
G01 X28.5127 Y15.4808
G01 X28.5082 Y15.4850
G01 X28.5000 Y15.4941
G01 X28.4927 Y15.5040
G01 X28.4864 Y15.5145
G01 X28.4836 Y15.5200
G01 X28.4789 Y15.5313
G01 X28.4770 Y15.5371
G01 X28.4740 Y15.5490
G01 X28.4722 Y15.5611
G01 X28.4718 Y15.5673
G01 X28.4716 Y16.2357
G01 X28.4677 Y16.2357
G00 Z1.0000
G00 X28.4716 Y16.6891
G01 F80.00
G01 Z-0.0100
G01 F200.00
G01 X28.4718 Y17.3575
G01 X28.4722 Y17.3637
G01 X28.4740 Y17.3758
G01 X28.4770 Y17.3877
G01 X28.4789 Y17.3935
G01 X28.4836 Y17.4048
G01 X28.4894 Y17.4157
G01 X28.4927 Y17.4208
G01 X28.5000 Y17.4307
G01 X28.5082 Y17.4398
G01 X28.5127 Y17.4440
G01 X28.5221 Y17.4518
G01 X28.5323 Y17.4586
G01 X28.5432 Y17.4644
G01 X28.5545 Y17.4691
G01 X28.5603 Y17.4710
G01 X28.5722 Y17.4740
G01 X28.5843 Y17.4758
G01 X28.5966 Y17.4764
G01 X28.9794 Y17.4764
G01 X28.9794 Y17.4803
G01 X28.4677 Y17.4803
G01 X28.4677 Y16.6891
G01 X28.4716 Y16.6891
G00 Z1.0000
G00 X27.2620 Y15.6985
G01 F80.00
G01 Z-0.0100
G01 F200.00
G01 X27.7095 Y16.1460
G01 X27.7095 Y16.7788
G01 X27.2620 Y17.2263
G01 X26.6292 Y17.2263
G01 X26.1817 Y16.7788
G01 X26.1817 Y16.1460
G01 X26.6292 Y15.6985
G01 X27.2620 Y15.6985
G00 Z1.0000
G00 X26.1867 Y16.4220
G01 F80.00
G01 Z-0.0100
G01 F200.00
G01 X26.1896 Y16.3849
G01 X26.1943 Y16.3479
G01 X26.2008 Y16.3111
G01 X26.2092 Y16.2748
G01 X26.2193 Y16.2389
G01 X26.2311 Y16.2035
G01 X26.2447 Y16.1687
G01 X26.2599 Y16.1347
G01 X26.2768 Y16.1015
G01 X26.2953 Y16.0691
G01 X26.3154 Y16.0376
G01 X26.3370 Y16.0072
G01 X26.3601 Y15.9779
G01 X26.3846 Y15.9498
G01 X26.4104 Y15.9229
G01 X26.4375 Y15.8972
G01 X26.4659 Y15.8730
G01 X26.4954 Y15.8502
G01 X26.5259 Y15.8288
G01 X26.5575 Y15.8090
G01 X26.5901 Y15.7907
G01 X26.6234 Y15.7741
G01 X26.6576 Y15.7591
G01 X26.6925 Y15.7458
G01 X26.7279 Y15.7343
G01 X26.7639 Y15.7245
G01 X26.8003 Y15.7164
G01 X26.8371 Y15.7102
G01 X26.8742 Y15.7058
G01 X26.9114 Y15.7032
G01 X26.9487 Y15.7024
G01 X26.9860 Y15.7035
G01 X27.0231 Y15.7064
G01 X27.0601 Y15.7111
G01 X27.0969 Y15.7176
G01 X27.1332 Y15.7260
G01 X27.1691 Y15.7361
G01 X27.2045 Y15.7479
G01 X27.2393 Y15.7615
G01 X27.2733 Y15.7767
G01 X27.3065 Y15.7936
G01 X27.3389 Y15.8121
G01 X27.3704 Y15.8322
G01 X27.4008 Y15.8538
G01 X27.4301 Y15.8769
G01 X27.4582 Y15.9014
G01 X27.4851 Y15.9272
G01 X27.5108 Y15.9543
G01 X27.5350 Y15.9827
G01 X27.5578 Y16.0122
G01 X27.5792 Y16.0427
G01 X27.5990 Y16.0743
G01 X27.6173 Y16.1069
G01 X27.6339 Y16.1402
G01 X27.6489 Y16.1744
G01 X27.6622 Y16.2093
G01 X27.6737 Y16.2447
G01 X27.6835 Y16.2807
G01 X27.6916 Y16.3171
G01 X27.6978 Y16.3539
G01 X27.7022 Y16.3910
G01 X27.7048 Y16.4282
G01 X27.7056 Y16.4655
G01 X27.7045 Y16.5028
G01 X27.7016 Y16.5399
G01 X27.6969 Y16.5769
G01 X27.6904 Y16.6137
G01 X27.6820 Y16.6500
G01 X27.6719 Y16.6859
G01 X27.6601 Y16.7213
G01 X27.6465 Y16.7561
G01 X27.6313 Y16.7901
G01 X27.6144 Y16.8233
G01 X27.5959 Y16.8557
G01 X27.5758 Y16.8872
G01 X27.5542 Y16.9176
G01 X27.5311 Y16.9469
G01 X27.5066 Y16.9750
G01 X27.4808 Y17.0019
G01 X27.4537 Y17.0276
G01 X27.4253 Y17.0518
G01 X27.3958 Y17.0746
G01 X27.3653 Y17.0960
G01 X27.3337 Y17.1158
G01 X27.3011 Y17.1341
G01 X27.2678 Y17.1507
G01 X27.2336 Y17.1657
G01 X27.1987 Y17.1790
G01 X27.1633 Y17.1905
G01 X27.1273 Y17.2003
G01 X27.0909 Y17.2084
G01 X27.0541 Y17.2146
G01 X27.0170 Y17.2190
G01 X26.9798 Y17.2216
G01 X26.9425 Y17.2224
G01 X26.9052 Y17.2213
G01 X26.8681 Y17.2184
G01 X26.8311 Y17.2137
G01 X26.7943 Y17.2072
G01 X26.7580 Y17.1988
G01 X26.7221 Y17.1887
G01 X26.6867 Y17.1769
G01 X26.6519 Y17.1633
G01 X26.6179 Y17.1481
G01 X26.5847 Y17.1312
G01 X26.5523 Y17.1127
G01 X26.5208 Y17.0926
G01 X26.4904 Y17.0710
G01 X26.4611 Y17.0479
G01 X26.4330 Y17.0234
G01 X26.4061 Y16.9976
G01 X26.3804 Y16.9705
G01 X26.3562 Y16.9421
G01 X26.3334 Y16.9126
G01 X26.3120 Y16.8821
G01 X26.2922 Y16.8505
G01 X26.2739 Y16.8179
G01 X26.2573 Y16.7846
G01 X26.2423 Y16.7504
G01 X26.2290 Y16.7155
G01 X26.2175 Y16.6801
G01 X26.2077 Y16.6441
G01 X26.1996 Y16.6077
G01 X26.1934 Y16.5709
G01 X26.1890 Y16.5338
G01 X26.1864 Y16.4966
G01 X26.1856 Y16.4593
G01 X26.1867 Y16.4220
G00 Z1.0000
G00 X24.7220 Y15.6985
G01 F80.00
G01 Z-0.0100
G01 F200.00
G01 X25.1695 Y16.1460
G01 X25.1695 Y16.7788
G01 X24.7220 Y17.2263
G01 X24.0892 Y17.2263
G01 X23.6417 Y16.7788
G01 X23.6417 Y16.1460
G01 X24.0892 Y15.6985
G01 X24.7220 Y15.6985
G00 Z1.0000
G00 X23.6467 Y16.4220
G01 F80.00
G01 Z-0.0100
G01 F200.00
G01 X23.6496 Y16.3849
G01 X23.6543 Y16.3479
G01 X23.6608 Y16.3111
G01 X23.6692 Y16.2748
G01 X23.6793 Y16.2389
G01 X23.6911 Y16.2035
G01 X23.7047 Y16.1687
G01 X23.7199 Y16.1347
G01 X23.7368 Y16.1015
G01 X23.7553 Y16.0691
G01 X23.7754 Y16.0376
G01 X23.7970 Y16.0072
G01 X23.8201 Y15.9779
G01 X23.8446 Y15.9498
G01 X23.8704 Y15.9229
G01 X23.8975 Y15.8972
G01 X23.9259 Y15.8730
G01 X23.9554 Y15.8502
G01 X23.9859 Y15.8288
G01 X24.0175 Y15.8090
G01 X24.0501 Y15.7907
G01 X24.0834 Y15.7741
G01 X24.1176 Y15.7591
G01 X24.1525 Y15.7458
G01 X24.1879 Y15.7343
G01 X24.2239 Y15.7245
G01 X24.2603 Y15.7164
G01 X24.2971 Y15.7102
G01 X24.3342 Y15.7058
G01 X24.3714 Y15.7032
G01 X24.4087 Y15.7024
G01 X24.4460 Y15.7035
G01 X24.4831 Y15.7064
G01 X24.5201 Y15.7111
G01 X24.5569 Y15.7176
G01 X24.5932 Y15.7260
G01 X24.6291 Y15.7361
G01 X24.6645 Y15.7479
G01 X24.6993 Y15.7615
G01 X24.7333 Y15.7767
G01 X24.7665 Y15.7936
G01 X24.7989 Y15.8121
G01 X24.8304 Y15.8322
G01 X24.8608 Y15.8538
G01 X24.8901 Y15.8769
G01 X24.9182 Y15.9014
G01 X24.9451 Y15.9272
G01 X24.9708 Y15.9543
G01 X24.9950 Y15.9827
G01 X25.0178 Y16.0122
G01 X25.0392 Y16.0427
G01 X25.0590 Y16.0743
G01 X25.0773 Y16.1069
G01 X25.0939 Y16.1402
G01 X25.1089 Y16.1744
G01 X25.1222 Y16.2093
G01 X25.1337 Y16.2447
G01 X25.1435 Y16.2807
G01 X25.1516 Y16.3171
G01 X25.1578 Y16.3539
G01 X25.1622 Y16.3910
G01 X25.1648 Y16.4282
G01 X25.1656 Y16.4655
G01 X25.1645 Y16.5028
G01 X25.1616 Y16.5399
G01 X25.1569 Y16.5769
G01 X25.1504 Y16.6137
G01 X25.1420 Y16.6500
G01 X25.1319 Y16.6859
G01 X25.1201 Y16.7213
G01 X25.1065 Y16.7561
G01 X25.0913 Y16.7901
G01 X25.0744 Y16.8233
G01 X25.0559 Y16.8557
G01 X25.0358 Y16.8872
G01 X25.0142 Y16.9176
G01 X24.9911 Y16.9469
G01 X24.9666 Y16.9750
G01 X24.9408 Y17.0019
G01 X24.9137 Y17.0276
G01 X24.8853 Y17.0518
G01 X24.8558 Y17.0746
G01 X24.8253 Y17.0960
G01 X24.7937 Y17.1158
G01 X24.7611 Y17.1341
G01 X24.7278 Y17.1507
G01 X24.6936 Y17.1657
G01 X24.6587 Y17.1790
G01 X24.6233 Y17.1905
G01 X24.5873 Y17.2003
G01 X24.5509 Y17.2084
G01 X24.5141 Y17.2146
G01 X24.4770 Y17.2190
G01 X24.4398 Y17.2216
G01 X24.4025 Y17.2224
G01 X24.3652 Y17.2213
G01 X24.3281 Y17.2184
G01 X24.2911 Y17.2137
G01 X24.2543 Y17.2072
G01 X24.2180 Y17.1988
G01 X24.1821 Y17.1887
G01 X24.1467 Y17.1769
G01 X24.1119 Y17.1633
G01 X24.0779 Y17.1481
G01 X24.0447 Y17.1312
G01 X24.0123 Y17.1127
G01 X23.9808 Y17.0926
G01 X23.9504 Y17.0710
G01 X23.9211 Y17.0479
G01 X23.8930 Y17.0234
G01 X23.8661 Y16.9976
G01 X23.8404 Y16.9705
G01 X23.8162 Y16.9421
G01 X23.7934 Y16.9126
G01 X23.7720 Y16.8821
G01 X23.7522 Y16.8505
G01 X23.7339 Y16.8179
G01 X23.7173 Y16.7846
G01 X23.7023 Y16.7504
G01 X23.6890 Y16.7155
G01 X23.6775 Y16.6801
G01 X23.6677 Y16.6441
G01 X23.6596 Y16.6077
G01 X23.6534 Y16.5709
G01 X23.6490 Y16.5338
G01 X23.6464 Y16.4966
G01 X23.6456 Y16.4593
G01 X23.6467 Y16.4220
G00 Z1.0000
G00 X25.9023 Y13.6830
G01 F80.00
G01 Z-0.0100
G01 F200.00
G01 X25.9023 Y13.6791
G01 X26.2471 Y13.6791
G01 X26.2594 Y13.6785
G01 X26.2654 Y13.6777
G01 X26.2715 Y13.6767
G01 X26.2834 Y13.6737
G01 X26.2949 Y13.6696
G01 X26.3060 Y13.6643
G01 X26.3165 Y13.6580
G01 X26.3264 Y13.6507
G01 X26.3355 Y13.6425
G01 X26.3397 Y13.6380
G01 X26.3475 Y13.6286
G01 X26.3543 Y13.6184
G01 X26.3601 Y13.6075
G01 X26.3626 Y13.6019
G01 X26.3667 Y13.5904
G01 X26.3697 Y13.5785
G01 X26.3715 Y13.5664
G01 X26.3719 Y13.5602
G01 X26.3721 Y12.8791
G01 X26.3760 Y12.8791
G01 X26.3760 Y13.6830
G01 X25.9023 Y13.6830
G00 Z1.0000
G00 X24.9791 Y12.8791
G01 F80.00
G01 Z-0.0100
G01 F200.00
G01 X24.9791 Y13.5541
G01 X24.9793 Y13.5602
G01 X24.9805 Y13.5724
G01 X24.9828 Y13.5845
G01 X24.9845 Y13.5904
G01 X24.9886 Y13.6019
G01 X24.9911 Y13.6075
G01 X24.9969 Y13.6184
G01 X25.0037 Y13.6286
G01 X25.0115 Y13.6380
G01 X25.0202 Y13.6467
G01 X25.0248 Y13.6507
G01 X25.0347 Y13.6580
G01 X25.0452 Y13.6643
G01 X25.0563 Y13.6696
G01 X25.0678 Y13.6737
G01 X25.0737 Y13.6754
G01 X25.0858 Y13.6777
G01 X25.0918 Y13.6785
G01 X25.1041 Y13.6791
G01 X25.4489 Y13.6791
G01 X25.4489 Y13.6830
G01 X24.9752 Y13.6830
G01 X24.9752 Y12.8791
G01 X24.9791 Y12.8791
G00 Z1.0000
G00 X25.9023 Y9.8759
G01 F80.00
G01 Z-0.0100
G01 F200.00
G01 X25.9023 Y9.8720
G01 X26.7062 Y9.8720
G01 X26.7062 Y9.9662
G01 X26.6974 Y9.9662
G01 X26.6950 Y9.9588
G01 X26.6903 Y9.9475
G01 X26.6875 Y9.9420
G01 X26.6812 Y9.9315
G01 X26.6739 Y9.9216
G01 X26.6699 Y9.9170
G01 X26.6612 Y9.9083
G01 X26.6518 Y9.9005
G01 X26.6416 Y9.8937
G01 X26.6362 Y9.8907
G01 X26.6251 Y9.8854
G01 X26.6194 Y9.8832
G01 X26.6077 Y9.8796
G01 X26.5956 Y9.8773
G01 X26.5896 Y9.8765
G01 X26.5773 Y9.8759
G01 X25.9023 Y9.8759
G00 Z1.0000
G00 X29.9918 Y17.4803
G01 F80.00
G01 Z-0.0100
G01 F200.00
G01 X29.9918 Y17.4764
G01 X30.3746 Y17.4764
G01 X30.3869 Y17.4758
G01 X30.3990 Y17.4740
G01 X30.4050 Y17.4727
G01 X30.4167 Y17.4691
G01 X30.4280 Y17.4644
G01 X30.4389 Y17.4586
G01 X30.4491 Y17.4518
G01 X30.4539 Y17.4480
G01 X30.4630 Y17.4398
G01 X30.4712 Y17.4307
G01 X30.4785 Y17.4208
G01 X30.4818 Y17.4157
G01 X30.4876 Y17.4048
G01 X30.4923 Y17.3935
G01 X30.4959 Y17.3818
G01 X30.4972 Y17.3758
G01 X30.4982 Y17.3697
G01 X30.4994 Y17.3575
G01 X30.4996 Y16.6891
G01 X30.5035 Y16.6891
G01 X30.5035 Y17.4803
G01 X29.9918 Y17.4803
G00 Z1.0000
G00 X30.9950 Y17.6900
G01 F80.00
G01 Z-0.0100
G01 F200.00
G01 X31.0001 Y17.6733
G01 X31.0027 Y17.6625
G01 X31.0047 Y17.6516
G01 X31.0068 Y17.6345
G01 X31.0077 Y17.6153
G01 X31.0077 Y15.4445
G01 X31.2971 Y15.4443
G01 X31.3143 Y15.4430
G01 X31.3253 Y15.4415
G01 X31.3411 Y15.4384
G01 X31.3519 Y15.4356
G01 X31.3682 Y15.4301
G01 X31.3786 Y15.4260
G01 X31.3887 Y15.4214
G01 X31.3985 Y15.4162
G01 X31.4081 Y15.4106
G01 X31.4215 Y15.4017
G01 X31.4304 Y15.3949
G01 X31.4435 Y15.3837
G01 X31.4514 Y15.3759
G01 X31.4590 Y15.3677
G01 X31.4692 Y15.3553
G01 X31.4757 Y15.3463
G01 X31.4850 Y15.3317
G01 X31.4903 Y15.3219
G01 X31.4952 Y15.3119
G01 X31.4995 Y15.3017
G01 X31.5034 Y15.2913
G01 X31.5068 Y15.2807
G01 X31.5096 Y15.2699
G01 X31.5119 Y15.2590
G01 X31.5136 Y15.2480
G01 X31.5148 Y15.2370
G01 X31.5157 Y15.2178
G01 X31.5156 Y14.2749
G01 X31.5148 Y14.2588
G01 X31.5136 Y14.2478
G01 X31.5119 Y14.2368
G01 X31.5081 Y14.2200
G01 X31.5050 Y14.2093
G01 X31.5013 Y14.1988
G01 X31.4952 Y14.1839
G01 X31.4874 Y14.1685
G01 X31.4791 Y14.1546
G01 X31.4692 Y14.1405
G01 X31.4590 Y14.1281
G01 X31.4514 Y14.1199
G01 X31.4389 Y14.1080
G01 X31.4265 Y14.0978
G01 X31.4124 Y14.0879
G01 X31.3985 Y14.0796
G01 X31.3887 Y14.0744
G01 X31.3729 Y14.0675
G01 X31.3577 Y14.0620
G01 X31.3411 Y14.0574
G01 X31.3302 Y14.0551
G01 X31.3143 Y14.0528
G01 X31.3032 Y14.0518
G01 X31.2890 Y14.0513
G01 X30.1761 Y14.0513
G01 X29.3567 Y13.2319
G01 X29.3567 Y12.0729
G01 X30.1761 Y11.2535
G01 X31.3351 Y11.2535
G01 X32.1545 Y12.0729
G01 X32.1545 Y13.2363
G01 X32.1550 Y13.2505
G01 X32.1560 Y13.2616
G01 X32.1583 Y13.2775
G01 X32.1606 Y13.2884
G01 X32.1634 Y13.2992
G01 X32.1689 Y13.3155
G01 X32.1730 Y13.3259
G01 X32.1799 Y13.3404
G01 X32.1852 Y13.3502
G01 X32.1945 Y13.3648
G01 X32.2010 Y13.3738
G01 X32.2112 Y13.3862
G01 X32.2209 Y13.3966
G01 X32.5355 Y13.7112
G01 X32.5355 Y15.2178
G01 X32.5360 Y15.2320
G01 X32.5376 Y15.2480
G01 X32.5405 Y15.2650
G01 X32.5431 Y15.2758
G01 X32.5478 Y15.2913
G01 X32.5517 Y15.3017
G01 X32.5560 Y15.3119
G01 X32.5638 Y15.3273
G01 X32.5694 Y15.3369
G01 X32.5783 Y15.3503
G01 X32.5851 Y15.3592
G01 X32.5963 Y15.3723
G01 X32.6041 Y15.3802
G01 X32.6161 Y15.3910
G01 X32.6297 Y15.4017
G01 X32.6388 Y15.4079
G01 X32.6527 Y15.4162
G01 X32.6625 Y15.4214
G01 X32.6783 Y15.4283
G01 X32.6887 Y15.4322
G01 X32.7042 Y15.4369
G01 X32.7210 Y15.4407
G01 X32.7369 Y15.4430
G01 X32.7541 Y15.4443
G01 X33.0435 Y15.4445
G01 X33.0435 Y17.6153
G01 X33.0444 Y17.6345
G01 X33.0465 Y17.6516
G01 X33.0485 Y17.6625
G01 X33.0511 Y17.6733
G01 X33.0562 Y17.6900
G01 X33.0562 Y19.2428
G01 X30.9950 Y19.2428
G01 X30.9950 Y17.6900
G00 Z1.0000
G00 X33.5350 Y17.6900
G01 F80.00
G01 Z-0.0100
G01 F200.00
G01 X33.5401 Y17.6733
G01 X33.5427 Y17.6625
G01 X33.5447 Y17.6516
G01 X33.5468 Y17.6345
G01 X33.5477 Y17.6153
G01 X33.5477 Y15.4445
G01 X33.8371 Y15.4443
G01 X33.8543 Y15.4430
G01 X33.8702 Y15.4407
G01 X33.8870 Y15.4369
G01 X33.9025 Y15.4322
G01 X33.9129 Y15.4283
G01 X33.9287 Y15.4214
G01 X33.9385 Y15.4162
G01 X33.9524 Y15.4079
G01 X33.9665 Y15.3980
G01 X33.9751 Y15.3910
G01 X33.9871 Y15.3802
G01 X33.9949 Y15.3723
G01 X34.0061 Y15.3592
G01 X34.0129 Y15.3503
G01 X34.0191 Y15.3412
G01 X34.0274 Y15.3273
G01 X34.0326 Y15.3175
G01 X34.0395 Y15.3017
G01 X34.0434 Y15.2913
G01 X34.0481 Y15.2758
G01 X34.0507 Y15.2650
G01 X34.0536 Y15.2480
G01 X34.0552 Y15.2320
G01 X34.0557 Y15.2178
G01 X34.0557 Y13.7112
G01 X34.3703 Y13.3966
G01 X34.3800 Y13.3862
G01 X34.3902 Y13.3738
G01 X34.3967 Y13.3648
G01 X34.4060 Y13.3502
G01 X34.4113 Y13.3404
G01 X34.4182 Y13.3259
G01 X34.4223 Y13.3155
G01 X34.4278 Y13.2992
G01 X34.4306 Y13.2884
G01 X34.4329 Y13.2775
G01 X34.4352 Y13.2616
G01 X34.4362 Y13.2505
G01 X34.4367 Y13.2363
G01 X34.4367 Y12.0729
G01 X35.2561 Y11.2535
G01 X36.4151 Y11.2535
G01 X37.2345 Y12.0729
G01 X37.2345 Y13.2319
G01 X36.4151 Y14.0513
G01 X35.3022 Y14.0513
G01 X35.2830 Y14.0522
G01 X35.2659 Y14.0543
G01 X35.2501 Y14.0574
G01 X35.2393 Y14.0602
G01 X35.2287 Y14.0636
G01 X35.2126 Y14.0698
G01 X35.1981 Y14.0767
G01 X35.1883 Y14.0820
G01 X35.1788 Y14.0879
G01 X35.1647 Y14.0978
G01 X35.1523 Y14.1080
G01 X35.1398 Y14.1199
G01 X35.1322 Y14.1281
G01 X35.1251 Y14.1366
G01 X35.1155 Y14.1495
G01 X35.1094 Y14.1589
G01 X35.1038 Y14.1685
G01 X35.0960 Y14.1839
G01 X35.0899 Y14.1988
