(G-CODE GENERATED BY FLATCAM v8.991 - www.flatcam.org - Version Date: 2019/12/27)

(Name: bc)
(Type: G-code from Geometry)
(Units: MM)

(Created on Saturday, 27 February 2021 at 19:16)

(TOOL DIAMETER: 0.25 mm)
(Feedrate: 200.0 mm/min)
(Feedrate_Z: 80.0 mm/min)
(Feedrate rapids 79.9998 mm/min)

(Z_Cut: -0.01 mm)
(Z_Move: 1.0 mm)
(Z Toolchange: 12.7 mm)
(X,Y Toolchange: 0.0000, 0.0000 mm)
(Z Start: None mm)
(Z End: 5.0 mm)
(Steps per circle: 128)
(Preprocessor Geometry: default)

(X range:    0.6221 ...   46.3555  mm)
(Y range:    0.9245 ...   32.4675  mm)

(Spindle Speed: None RPM)
G21
G90
G94




G01 F200.00
G00 Z1.0000

M03
G00 X0.6222 Y1.1481
G01 F80.00
G01 Z-0.0100
G01 F200.00
G01 X0.6226 Y1.1370
G01 X0.6236 Y1.1259
G01 X0.6251 Y1.1149
G01 X0.6271 Y1.1040
G01 X0.6297 Y1.0932
G01 X0.6328 Y1.0825
G01 X0.6365 Y1.0720
G01 X0.6406 Y1.0616
G01 X0.6453 Y1.0515
G01 X0.6504 Y1.0417
G01 X0.6560 Y1.0321
G01 X0.6621 Y1.0227
G01 X0.6686 Y1.0137
G01 X0.6756 Y1.0051
G01 X0.6830 Y0.9967
G01 X0.6907 Y0.9888
G01 X0.6989 Y0.9812
G01 X0.7074 Y0.9741
G01 X0.7163 Y0.9674
G01 X0.7255 Y0.9611
G01 X0.7349 Y0.9553
G01 X0.7447 Y0.9499
G01 X0.7547 Y0.9450
G01 X0.7649 Y0.9407
G01 X0.7753 Y0.9368
G01 X0.7860 Y0.9335
G01 X0.7967 Y0.9306
G01 X0.8076 Y0.9283
G01 X0.8186 Y0.9266
G01 X0.8296 Y0.9254
G01 X0.8488 Y0.9245
G01 X46.1288 Y0.9245
G01 X46.1480 Y0.9254
G01 X46.1651 Y0.9275
G01 X46.1809 Y0.9306
G01 X46.1975 Y0.9352
G01 X46.2127 Y0.9407
G01 X46.2285 Y0.9477
G01 X46.2427 Y0.9553
G01 X46.2573 Y0.9645
G01 X46.2663 Y0.9710
G01 X46.2787 Y0.9812
G01 X46.2912 Y0.9931
G01 X46.2988 Y1.0013
G01 X46.3090 Y1.0137
G01 X46.3155 Y1.0227
G01 X46.3247 Y1.0373
G01 X46.3301 Y1.0471
G01 X46.3370 Y1.0616
G01 X46.3411 Y1.0720
G01 X46.3465 Y1.0884
G01 X46.3494 Y1.0991
G01 X46.3517 Y1.1100
G01 X46.3540 Y1.1259
G01 X46.3550 Y1.1370
G01 X46.3555 Y1.1512
G01 X46.3555 Y32.2408
G01 X46.3546 Y32.2600
G01 X46.3525 Y32.2771
G01 X46.3494 Y32.2929
G01 X46.3448 Y32.3095
G01 X46.3393 Y32.3247
G01 X46.3323 Y32.3405
G01 X46.3247 Y32.3547
G01 X46.3155 Y32.3693
G01 X46.3090 Y32.3783
G01 X46.2988 Y32.3907
G01 X46.2869 Y32.4032
G01 X46.2787 Y32.4108
G01 X46.2663 Y32.4210
G01 X46.2573 Y32.4275
G01 X46.2427 Y32.4367
G01 X46.2329 Y32.4421
G01 X46.2184 Y32.4490
G01 X46.2080 Y32.4531
G01 X46.1916 Y32.4585
G01 X46.1809 Y32.4614
G01 X46.1700 Y32.4637
G01 X46.1541 Y32.4660
G01 X46.1430 Y32.4670
G01 X46.1288 Y32.4675
G01 X0.8488 Y32.4675
G01 X0.8296 Y32.4666
G01 X0.8125 Y32.4645
G01 X0.7967 Y32.4614
G01 X0.7801 Y32.4568
G01 X0.7649 Y32.4513
G01 X0.7491 Y32.4443
G01 X0.7349 Y32.4367
G01 X0.7203 Y32.4275
G01 X0.7113 Y32.4210
G01 X0.6989 Y32.4108
G01 X0.6864 Y32.3989
G01 X0.6788 Y32.3907
G01 X0.6686 Y32.3783
G01 X0.6621 Y32.3693
G01 X0.6529 Y32.3547
G01 X0.6475 Y32.3449
G01 X0.6406 Y32.3304
G01 X0.6365 Y32.3200
G01 X0.6311 Y32.3036
G01 X0.6282 Y32.2929
G01 X0.6259 Y32.2820
G01 X0.6236 Y32.2661
G01 X0.6226 Y32.2550
G01 X0.6221 Y32.2408
G01 X0.6222 Y1.1481
G00 Z1.0000
G00 X1.0755 Y1.3779
G01 F80.00
G01 Z-0.0100
G01 F200.00
G01 X45.9021 Y1.3779
G01 X45.9021 Y32.0141
G01 X1.0755 Y32.0141
G01 X1.0755 Y1.3779
G00 Z1.0000
G00 X1.2068 Y1.7212
G01 F80.00
G01 Z-0.0100
G01 F200.00
G01 X1.2078 Y1.7101
G01 X1.2093 Y1.6991
G01 X1.2113 Y1.6882
G01 X1.2139 Y1.6774
G01 X1.2170 Y1.6667
G01 X1.2207 Y1.6562
G01 X1.2248 Y1.6458
G01 X1.2295 Y1.6357
G01 X1.2371 Y1.6215
G01 X1.2429 Y1.6120
G01 X1.2492 Y1.6029
G01 X1.2559 Y1.5940
G01 X1.2630 Y1.5855
G01 X1.2706 Y1.5773
G01 X1.2785 Y1.5695
G01 X1.2869 Y1.5622
G01 X1.2955 Y1.5552
G01 X1.3045 Y1.5487
G01 X1.3139 Y1.5426
G01 X1.3289 Y1.5341
G01 X1.3389 Y1.5292
G01 X1.3491 Y1.5249
G01 X1.3595 Y1.5210
G01 X1.3702 Y1.5176
G01 X1.3809 Y1.5148
G01 X1.3918 Y1.5125
G01 X1.4028 Y1.5108
G01 X1.4138 Y1.5096
G01 X1.4330 Y1.5087
G01 X45.5446 Y1.5087
G01 X45.5638 Y1.5096
G01 X45.5809 Y1.5117
G01 X45.5967 Y1.5148
G01 X45.6133 Y1.5194
G01 X45.6285 Y1.5249
G01 X45.6443 Y1.5318
G01 X45.6585 Y1.5394
G01 X45.6731 Y1.5487
G01 X45.6821 Y1.5552
G01 X45.6945 Y1.5654
G01 X45.7070 Y1.5773
G01 X45.7146 Y1.5855
G01 X45.7248 Y1.5979
G01 X45.7313 Y1.6069
G01 X45.7405 Y1.6215
G01 X45.7459 Y1.6313
G01 X45.7528 Y1.6458
G01 X45.7569 Y1.6562
G01 X45.7623 Y1.6725
G01 X45.7652 Y1.6833
G01 X45.7675 Y1.6942
G01 X45.7698 Y1.7101
G01 X45.7708 Y1.7212
G01 X45.7713 Y1.7354
G01 X45.7713 Y31.6566
G01 X45.7704 Y31.6758
G01 X45.7683 Y31.6929
G01 X45.7652 Y31.7087
G01 X45.7606 Y31.7253
G01 X45.7551 Y31.7405
G01 X45.7481 Y31.7563
G01 X45.7405 Y31.7705
G01 X45.7313 Y31.7851
G01 X45.7248 Y31.7941
G01 X45.7146 Y31.8065
G01 X45.7027 Y31.8190
G01 X45.6945 Y31.8266
G01 X45.6821 Y31.8368
G01 X45.6731 Y31.8433
G01 X45.6585 Y31.8526
G01 X45.6487 Y31.8579
G01 X45.6342 Y31.8648
G01 X45.6238 Y31.8689
G01 X45.6074 Y31.8744
G01 X45.5967 Y31.8772
G01 X45.5858 Y31.8795
G01 X45.5699 Y31.8818
G01 X45.5588 Y31.8828
G01 X45.5446 Y31.8833
G01 X1.4330 Y31.8833
G01 X1.4138 Y31.8824
G01 X1.3967 Y31.8803
G01 X1.3809 Y31.8772
G01 X1.3643 Y31.8726
G01 X1.3491 Y31.8671
G01 X1.3333 Y31.8602
G01 X1.3191 Y31.8526
G01 X1.3045 Y31.8433
G01 X1.2955 Y31.8368
G01 X1.2831 Y31.8266
G01 X1.2706 Y31.8147
G01 X1.2630 Y31.8065
G01 X1.2528 Y31.7941
G01 X1.2463 Y31.7851
G01 X1.2371 Y31.7705
G01 X1.2317 Y31.7607
G01 X1.2248 Y31.7462
G01 X1.2207 Y31.7358
G01 X1.2153 Y31.7195
G01 X1.2124 Y31.7087
G01 X1.2101 Y31.6978
G01 X1.2078 Y31.6819
G01 X1.2068 Y31.6708
G01 X1.2063 Y31.6566
G01 X1.2063 Y1.7354
G01 X1.2068 Y1.7212
G00 Z1.0000
G00 X3.5139 Y5.3441
G01 F80.00
G01 Z-0.0100
G01 F200.00
G01 X3.5139 Y4.4259
G01 X4.1526 Y4.4259
G01 X4.1526 Y4.4298
G01 X3.6428 Y4.4298
G01 X3.6305 Y4.4304
G01 X3.6184 Y4.4322
G01 X3.6065 Y4.4352
G01 X3.5950 Y4.4393
G01 X3.5894 Y4.4418
G01 X3.5785 Y4.4476
G01 X3.5683 Y4.4544
G01 X3.5589 Y4.4622
G01 X3.5544 Y4.4664
G01 X3.5462 Y4.4755
G01 X3.5389 Y4.4854
G01 X3.5326 Y4.4959
G01 X3.5298 Y4.5014
G01 X3.5251 Y4.5127
G01 X3.5232 Y4.5185
G01 X3.5202 Y4.5304
G01 X3.5184 Y4.5425
G01 X3.5180 Y4.5487
G01 X3.5178 Y5.3441
G01 X3.5139 Y5.3441
G00 Z1.0000
G00 X3.5178 Y5.7975
G01 F80.00
G01 Z-0.0100
G01 F200.00
G01 X3.5180 Y6.5929
G01 X3.5192 Y6.6051
G01 X3.5215 Y6.6172
G01 X3.5251 Y6.6289
G01 X3.5298 Y6.6402
G01 X3.5356 Y6.6511
G01 X3.5389 Y6.6562
G01 X3.5462 Y6.6661
G01 X3.5544 Y6.6752
G01 X3.5635 Y6.6834
G01 X3.5734 Y6.6907
G01 X3.5839 Y6.6970
G01 X3.5950 Y6.7023
G01 X3.6065 Y6.7064
G01 X3.6124 Y6.7081
G01 X3.6245 Y6.7104
G01 X3.6367 Y6.7116
G01 X4.4321 Y6.7118
G01 X4.4321 Y6.7157
G01 X3.5139 Y6.7157
G01 X3.5139 Y5.7975
G01 X3.5178 Y5.7975
G00 Z1.0000
G00 X4.8855 Y6.7118
G01 F80.00
G01 Z-0.0100
G01 F200.00
G01 X5.6748 Y6.7118
G01 X5.6871 Y6.7112
G01 X5.6931 Y6.7104
G01 X5.6992 Y6.7094
G01 X5.7111 Y6.7064
G01 X5.7226 Y6.7023
G01 X5.7282 Y6.6998
G01 X5.7391 Y6.6940
G01 X5.7493 Y6.6872
G01 X5.7541 Y6.6834
G01 X5.7632 Y6.6752
G01 X5.7714 Y6.6661
G01 X5.7752 Y6.6613
G01 X5.7787 Y6.6562
G01 X5.7850 Y6.6457
G01 X5.7903 Y6.6346
G01 X5.7944 Y6.6231
G01 X5.7961 Y6.6172
G01 X5.7984 Y6.6051
G01 X5.7996 Y6.5929
G01 X5.7998 Y6.5868
G01 X5.7998 Y6.3311
G01 X6.0578 Y6.3311
G01 X6.0578 Y6.5868
G01 X6.0584 Y6.5991
G01 X6.0592 Y6.6051
G01 X6.0615 Y6.6172
G01 X6.0651 Y6.6289
G01 X6.0698 Y6.6402
G01 X6.0756 Y6.6511
G01 X6.0789 Y6.6562
G01 X6.0862 Y6.6661
G01 X6.0902 Y6.6707
G01 X6.0989 Y6.6794
G01 X6.1083 Y6.6872
G01 X6.1185 Y6.6940
G01 X6.1294 Y6.6998
G01 X6.1407 Y6.7045
G01 X6.1465 Y6.7064
G01 X6.1584 Y6.7094
G01 X6.1705 Y6.7112
G01 X6.1767 Y6.7116
G01 X6.6926 Y6.7118
G01 X6.6926 Y6.7157
G01 X4.8855 Y6.7157
G01 X4.8855 Y6.7118
G00 Z1.0000
G00 X5.1650 Y4.4259
G01 F80.00
G01 Z-0.0100
G01 F200.00
G01 X6.9721 Y4.4259
G01 X6.9721 Y4.4298
G01 X6.1828 Y4.4298
G01 X6.1705 Y4.4304
G01 X6.1645 Y4.4312
G01 X6.1524 Y4.4335
G01 X6.1465 Y4.4352
G01 X6.1407 Y4.4371
G01 X6.1294 Y4.4418
G01 X6.1185 Y4.4476
G01 X6.1134 Y4.4509
G01 X6.1035 Y4.4582
G01 X6.0944 Y4.4664
G01 X6.0902 Y4.4709
G01 X6.0824 Y4.4803
G01 X6.0789 Y4.4854
G01 X6.0726 Y4.4959
G01 X6.0673 Y4.5070
G01 X6.0651 Y4.5127
G01 X6.0615 Y4.5244
G01 X6.0592 Y4.5365
G01 X6.0584 Y4.5425
G01 X6.0578 Y4.5548
G01 X6.0578 Y4.8105
G01 X5.7998 Y4.8105
G01 X5.7998 Y4.5548
G01 X5.7992 Y4.5425
G01 X5.7984 Y4.5365
G01 X5.7961 Y4.5244
G01 X5.7925 Y4.5127
G01 X5.7903 Y4.5070
G01 X5.7850 Y4.4959
G01 X5.7787 Y4.4854
G01 X5.7714 Y4.4755
G01 X5.7674 Y4.4709
G01 X5.7587 Y4.4622
G01 X5.7493 Y4.4544
G01 X5.7391 Y4.4476
G01 X5.7282 Y4.4418
G01 X5.7169 Y4.4371
G01 X5.7111 Y4.4352
G01 X5.6992 Y4.4322
G01 X5.6871 Y4.4304
G01 X5.6809 Y4.4300
G01 X5.1650 Y4.4298
G01 X5.1650 Y4.4259
G00 Z1.0000
G00 X7.4255 Y4.4298
G01 F80.00
G01 Z-0.0100
G01 F200.00
G01 X7.4255 Y4.4259
G01 X18.5037 Y4.4259
G01 X18.5037 Y6.7157
G01 X18.0923 Y6.7158
G01 X18.0762 Y6.7166
G01 X18.0652 Y6.7178
G01 X18.0482 Y6.7207
G01 X18.0374 Y6.7233
G01 X18.0219 Y6.7280
G01 X18.0115 Y6.7319
G01 X18.0013 Y6.7362
G01 X17.9859 Y6.7440
G01 X17.9720 Y6.7523
G01 X17.9579 Y6.7622
G01 X17.9455 Y6.7724
G01 X17.9373 Y6.7800
G01 X17.9254 Y6.7925
G01 X17.9152 Y6.8049
G01 X17.9087 Y6.8139
G01 X17.8994 Y6.8285
G01 X17.8941 Y6.8383
G01 X17.8872 Y6.8528
G01 X17.8831 Y6.8632
G01 X17.8776 Y6.8795
G01 X17.8737 Y6.8952
G01 X17.8708 Y6.9122
G01 X17.8692 Y6.9282
G01 X17.8687 Y6.9424
G01 X17.8687 Y8.6442
G01 X17.8692 Y8.6584
G01 X17.8702 Y8.6695
G01 X17.8725 Y8.6854
G01 X17.8748 Y8.6963
G01 X17.8776 Y8.7071
G01 X17.8831 Y8.7234
G01 X17.8872 Y8.7338
G01 X17.8918 Y8.7439
G01 X17.8994 Y8.7581
G01 X17.9087 Y8.7727
G01 X17.9152 Y8.7817
G01 X17.9254 Y8.7941
G01 X17.9330 Y8.8023
G01 X17.9455 Y8.8142
G01 X17.9579 Y8.8244
G01 X17.9669 Y8.8309
G01 X17.9815 Y8.8402
G01 X17.9913 Y8.8455
G01 X18.0058 Y8.8524
G01 X18.0219 Y8.8586
G01 X18.0374 Y8.8633
G01 X18.0542 Y8.8671
G01 X18.0701 Y8.8694
G01 X18.0812 Y8.8704
G01 X18.0954 Y8.8709
G01 X19.8817 Y8.8709
G01 X19.8959 Y8.8704
G01 X19.9070 Y8.8694
G01 X19.9229 Y8.8671
G01 X19.9338 Y8.8648
G01 X19.9504 Y8.8602
G01 X19.9656 Y8.8547
G01 X19.9758 Y8.8504
G01 X19.9912 Y8.8426
G01 X20.0051 Y8.8343
G01 X20.0192 Y8.8244
G01 X20.0316 Y8.8142
G01 X20.0398 Y8.8066
G01 X20.0517 Y8.7941
G01 X20.0619 Y8.7817
G01 X20.0718 Y8.7676
G01 X20.0801 Y8.7537
G01 X20.0853 Y8.7439
G01 X20.0922 Y8.7281
G01 X20.0977 Y8.7129
G01 X20.1008 Y8.7022
G01 X20.1034 Y8.6914
G01 X20.1063 Y8.6744
G01 X20.1075 Y8.6634
G01 X20.1082 Y8.6523
G01 X20.1084 Y8.3502
G01 X21.5092 Y8.3502
G01 X21.5092 Y10.4114
G01 X20.1084 Y10.4114
G01 X20.1082 Y10.1093
G01 X20.1069 Y10.0921
G01 X20.1054 Y10.0811
G01 X20.1034 Y10.0702
G01 X20.0995 Y10.0545
G01 X20.0961 Y10.0439
G01 X20.0922 Y10.0335
G01 X20.0879 Y10.0233
G01 X20.0801 Y10.0079
G01 X20.0718 Y9.9940
G01 X20.0619 Y9.9799
G01 X20.0517 Y9.9675
G01 X20.0441 Y9.9593
G01 X20.0316 Y9.9474
G01 X20.0192 Y9.9372
G01 X20.0051 Y9.9273
G01 X19.9912 Y9.9190
G01 X19.9814 Y9.9138
G01 X19.9656 Y9.9069
G01 X19.9504 Y9.9014
G01 X19.9338 Y9.8968
G01 X19.9229 Y9.8945
G01 X19.9070 Y9.8922
G01 X19.8959 Y9.8912
G01 X19.8817 Y9.8907
G01 X18.0954 Y9.8907
G01 X18.0812 Y9.8912
G01 X18.0652 Y9.8928
G01 X18.0482 Y9.8957
G01 X18.0374 Y9.8983
G01 X18.0219 Y9.9030
G01 X18.0115 Y9.9069
G01 X17.9957 Y9.9138
G01 X17.9859 Y9.9190
G01 X17.9720 Y9.9273
G01 X17.9579 Y9.9372
G01 X17.9493 Y9.9442
G01 X17.9373 Y9.9550
G01 X17.9295 Y9.9629
G01 X17.9183 Y9.9760
G01 X17.9087 Y9.9889
G01 X17.8994 Y10.0035
G01 X17.8941 Y10.0133
G01 X17.8872 Y10.0278
G01 X17.8831 Y10.0382
G01 X17.8776 Y10.0545
G01 X17.8748 Y10.0653
G01 X17.8725 Y10.0762
G01 X17.8702 Y10.0921
G01 X17.8692 Y10.1032
G01 X17.8687 Y10.1174
G01 X17.8687 Y14.8037
G01 X17.8696 Y14.8229
G01 X17.8717 Y14.8400
G01 X17.8748 Y14.8558
G01 X17.8794 Y14.8724
G01 X17.8849 Y14.8876
G01 X17.8892 Y14.8978
G01 X17.8970 Y14.9132
G01 X17.9053 Y14.9271
G01 X17.9152 Y14.9412
G01 X17.9254 Y14.9536
G01 X17.9330 Y14.9618
G01 X17.9455 Y14.9737
G01 X17.9579 Y14.9839
G01 X17.9720 Y14.9938
G01 X17.9859 Y15.0021
G01 X17.9957 Y15.0073
G01 X18.0115 Y15.0142
G01 X18.0267 Y15.0197
G01 X18.0374 Y15.0228
G01 X18.0482 Y15.0254
G01 X18.0652 Y15.0283
G01 X18.0762 Y15.0295
G01 X18.0873 Y15.0302
G01 X18.3894 Y15.0304
G01 X18.3894 Y16.4312
G01 X16.3282 Y16.4312
G01 X16.3282 Y15.0304
G01 X16.6303 Y15.0302
G01 X16.6475 Y15.0289
G01 X16.6585 Y15.0274
G01 X16.6694 Y15.0254
G01 X16.6851 Y15.0215
G01 X16.6957 Y15.0181
G01 X16.7061 Y15.0142
G01 X16.7163 Y15.0099
G01 X16.7317 Y15.0021
G01 X16.7456 Y14.9938
G01 X16.7597 Y14.9839
G01 X16.7721 Y14.9737
G01 X16.7846 Y14.9618
G01 X16.7954 Y14.9498
G01 X16.8061 Y14.9362
G01 X16.8150 Y14.9228
G01 X16.8235 Y14.9078
G01 X16.8304 Y14.8933
G01 X16.8345 Y14.8829
G01 X16.8400 Y14.8666
G01 X16.8439 Y14.8509
G01 X16.8468 Y14.8339
G01 X16.8484 Y14.8179
G01 X16.8489 Y14.8037
G01 X16.8489 Y6.9424
G01 X16.8480 Y6.9232
G01 X16.8459 Y6.9061
G01 X16.8428 Y6.8903
G01 X16.8400 Y6.8795
G01 X16.8366 Y6.8689
G01 X16.8304 Y6.8528
G01 X16.8258 Y6.8427
G01 X16.8206 Y6.8329
G01 X16.8123 Y6.8190
G01 X16.8024 Y6.8049
G01 X16.7954 Y6.7963
G01 X16.7881 Y6.7879
G01 X16.7767 Y6.7765
G01 X16.7683 Y6.7692
G01 X16.7597 Y6.7622
G01 X16.7456 Y6.7523
G01 X16.7361 Y6.7464
G01 X16.7263 Y6.7411
G01 X16.7118 Y6.7342
G01 X16.6957 Y6.7280
G01 X16.6851 Y6.7246
G01 X16.6743 Y6.7218
G01 X16.6585 Y6.7187
G01 X16.6414 Y6.7166
G01 X16.6222 Y6.7157
G01 X15.5554 Y6.7157
G01 X15.5362 Y6.7166
G01 X15.5252 Y6.7178
G01 X15.5142 Y6.7195
G01 X15.5033 Y6.7218
G01 X15.4925 Y6.7246
G01 X15.4819 Y6.7280
G01 X15.4715 Y6.7319
G01 X15.4613 Y6.7362
G01 X15.4513 Y6.7411
G01 X15.4415 Y6.7464
G01 X15.4320 Y6.7523
G01 X15.4229 Y6.7585
G01 X15.4140 Y6.7653
G01 X15.4055 Y6.7724
G01 X15.3973 Y6.7800
G01 X15.3895 Y6.7879
G01 X15.3822 Y6.7963
G01 X15.3752 Y6.8049
G01 X15.3687 Y6.8139
G01 X15.3626 Y6.8233
G01 X15.3570 Y6.8329
G01 X15.3518 Y6.8427
G01 X15.3472 Y6.8528
G01 X15.3431 Y6.8632
G01 X15.3394 Y6.8737
G01 X15.3363 Y6.8844
G01 X15.3337 Y6.8952
G01 X15.3308 Y6.9122
G01 X15.3296 Y6.9232
G01 X15.3289 Y6.9343
G01 X15.3289 Y14.8118
G01 X15.3302 Y14.8290
G01 X15.3325 Y14.8449
G01 X15.3363 Y14.8617
G01 X15.3410 Y14.8772
G01 X15.3449 Y14.8876
G01 X15.3518 Y14.9034
G01 X15.3594 Y14.9176
G01 X15.3687 Y14.9322
G01 X15.3752 Y14.9412
G01 X15.3854 Y14.9536
G01 X15.3973 Y14.9661
G01 X15.4093 Y14.9769
G01 X15.4229 Y14.9876
G01 X15.4363 Y14.9965
G01 X15.4513 Y15.0050
G01 X15.4658 Y15.0119
G01 X15.4762 Y15.0160
G01 X15.4867 Y15.0197
G01 X15.4974 Y15.0228
G01 X15.5082 Y15.0254
G01 X15.5252 Y15.0283
G01 X15.5362 Y15.0295
G01 X15.5473 Y15.0302
G01 X15.8494 Y15.0304
G01 X15.8494 Y16.4312
G01 X13.7882 Y16.4312
G01 X13.7882 Y15.0304
G01 X14.0903 Y15.0302
G01 X14.1075 Y15.0289
G01 X14.1185 Y15.0274
G01 X14.1294 Y15.0254
G01 X14.1451 Y15.0215
G01 X14.1557 Y15.0181
G01 X14.1661 Y15.0142
G01 X14.1763 Y15.0099
G01 X14.1917 Y15.0021
G01 X14.2056 Y14.9938
G01 X14.2197 Y14.9839
G01 X14.2321 Y14.9737
G01 X14.2446 Y14.9618
G01 X14.2554 Y14.9498
G01 X14.2661 Y14.9362
G01 X14.2750 Y14.9228
G01 X14.2835 Y14.9078
G01 X14.2904 Y14.8933
G01 X14.2945 Y14.8829
G01 X14.3000 Y14.8666
G01 X14.3039 Y14.8509
G01 X14.3068 Y14.8339
G01 X14.3084 Y14.8179
G01 X14.3089 Y14.8037
G01 X14.3089 Y6.9424
G01 X14.3080 Y6.9232
G01 X14.3059 Y6.9061
G01 X14.3028 Y6.8903
G01 X14.3000 Y6.8795
G01 X14.2966 Y6.8689
G01 X14.2904 Y6.8528
G01 X14.2858 Y6.8427
G01 X14.2806 Y6.8329
G01 X14.2723 Y6.8190
G01 X14.2624 Y6.8049
G01 X14.2554 Y6.7963
G01 X14.2481 Y6.7879
G01 X14.2367 Y6.7765
G01 X14.2283 Y6.7692
G01 X14.2197 Y6.7622
G01 X14.2056 Y6.7523
G01 X14.1961 Y6.7464
G01 X14.1863 Y6.7411
G01 X14.1718 Y6.7342
G01 X14.1557 Y6.7280
G01 X14.1451 Y6.7246
G01 X14.1343 Y6.7218
G01 X14.1185 Y6.7187
G01 X14.1014 Y6.7166
G01 X14.0822 Y6.7157
G01 X13.0154 Y6.7157
G01 X12.9962 Y6.7166
G01 X12.9852 Y6.7178
G01 X12.9742 Y6.7195
G01 X12.9633 Y6.7218
G01 X12.9525 Y6.7246
G01 X12.9419 Y6.7280
G01 X12.9315 Y6.7319
G01 X12.9213 Y6.7362
G01 X12.9113 Y6.7411
G01 X12.9015 Y6.7464
G01 X12.8920 Y6.7523
G01 X12.8829 Y6.7585
G01 X12.8740 Y6.7653
G01 X12.8655 Y6.7724
G01 X12.8573 Y6.7800
G01 X12.8495 Y6.7879
G01 X12.8422 Y6.7963
G01 X12.8352 Y6.8049
G01 X12.8287 Y6.8139
G01 X12.8226 Y6.8233
G01 X12.8170 Y6.8329
G01 X12.8118 Y6.8427
G01 X12.8072 Y6.8528
G01 X12.8031 Y6.8632
G01 X12.7994 Y6.8737
G01 X12.7963 Y6.8844
G01 X12.7937 Y6.8952
G01 X12.7908 Y6.9122
G01 X12.7896 Y6.9232
G01 X12.7889 Y6.9343
G01 X12.7889 Y14.8118
G01 X12.7902 Y14.8290
G01 X12.7925 Y14.8449
G01 X12.7963 Y14.8617
G01 X12.8010 Y14.8772
G01 X12.8049 Y14.8876
G01 X12.8118 Y14.9034
G01 X12.8194 Y14.9176
G01 X12.8287 Y14.9322
G01 X12.8352 Y14.9412
G01 X12.8454 Y14.9536
G01 X12.8573 Y14.9661
G01 X12.8693 Y14.9769
G01 X12.8829 Y14.9876
G01 X12.8963 Y14.9965
G01 X12.9113 Y15.0050
G01 X12.9258 Y15.0119
G01 X12.9362 Y15.0160
G01 X12.9467 Y15.0197
G01 X12.9574 Y15.0228
G01 X12.9682 Y15.0254
G01 X12.9852 Y15.0283
G01 X12.9962 Y15.0295
G01 X13.0073 Y15.0302
G01 X13.3094 Y15.0304
G01 X13.3094 Y16.4312
G01 X11.2482 Y16.4312
G01 X11.2482 Y15.0304
G01 X11.5503 Y15.0302
G01 X11.5675 Y15.0289
G01 X11.5785 Y15.0274
G01 X11.5894 Y15.0254
G01 X11.6051 Y15.0215
G01 X11.6157 Y15.0181
G01 X11.6261 Y15.0142
G01 X11.6363 Y15.0099
G01 X11.6517 Y15.0021
G01 X11.6656 Y14.9938
G01 X11.6797 Y14.9839
G01 X11.6921 Y14.9737
G01 X11.7046 Y14.9618
G01 X11.7154 Y14.9498
G01 X11.7261 Y14.9362
G01 X11.7350 Y14.9228
G01 X11.7435 Y14.9078
G01 X11.7504 Y14.8933
G01 X11.7545 Y14.8829
G01 X11.7600 Y14.8666
G01 X11.7639 Y14.8509
G01 X11.7668 Y14.8339
G01 X11.7684 Y14.8179
G01 X11.7689 Y14.8037
G01 X11.7689 Y6.9424
G01 X11.7680 Y6.9232
G01 X11.7659 Y6.9061
G01 X11.7628 Y6.8903
G01 X11.7600 Y6.8795
G01 X11.7566 Y6.8689
G01 X11.7504 Y6.8528
G01 X11.7458 Y6.8427
G01 X11.7406 Y6.8329
G01 X11.7323 Y6.8190
G01 X11.7224 Y6.8049
G01 X11.7154 Y6.7963
G01 X11.7081 Y6.7879
G01 X11.6967 Y6.7765
G01 X11.6883 Y6.7692
G01 X11.6797 Y6.7622
G01 X11.6656 Y6.7523
G01 X11.6561 Y6.7464
G01 X11.6463 Y6.7411
G01 X11.6318 Y6.7342
G01 X11.6157 Y6.7280
G01 X11.6051 Y6.7246
G01 X11.5943 Y6.7218
G01 X11.5785 Y6.7187
G01 X11.5614 Y6.7166
G01 X11.5422 Y6.7157
G01 X10.4754 Y6.7157
G01 X10.4562 Y6.7166
G01 X10.4452 Y6.7178
G01 X10.4342 Y6.7195
G01 X10.4233 Y6.7218
G01 X10.4125 Y6.7246
G01 X10.4019 Y6.7280
G01 X10.3915 Y6.7319
G01 X10.3813 Y6.7362
G01 X10.3713 Y6.7411
G01 X10.3615 Y6.7464
G01 X10.3520 Y6.7523
G01 X10.3429 Y6.7585
G01 X10.3340 Y6.7653
G01 X10.3255 Y6.7724
G01 X10.3173 Y6.7800
G01 X10.3095 Y6.7879
G01 X10.3022 Y6.7963
G01 X10.2952 Y6.8049
G01 X10.2887 Y6.8139
G01 X10.2826 Y6.8233
G01 X10.2770 Y6.8329
G01 X10.2718 Y6.8427
G01 X10.2672 Y6.8528
G01 X10.2631 Y6.8632
G01 X10.2594 Y6.8737
G01 X10.2563 Y6.8844
G01 X10.2537 Y6.8952
G01 X10.2508 Y6.9122
G01 X10.2496 Y6.9232
G01 X10.2489 Y6.9343
G01 X10.2489 Y14.8118
G01 X10.2502 Y14.8290
G01 X10.2525 Y14.8449
G01 X10.2563 Y14.8617
G01 X10.2610 Y14.8772
G01 X10.2649 Y14.8876
G01 X10.2718 Y14.9034
G01 X10.2794 Y14.9176
G01 X10.2887 Y14.9322
G01 X10.2952 Y14.9412
G01 X10.3054 Y14.9536
G01 X10.3173 Y14.9661
G01 X10.3293 Y14.9769
G01 X10.3429 Y14.9876
G01 X10.3563 Y14.9965
G01 X10.3713 Y15.0050
G01 X10.3858 Y15.0119
G01 X10.3962 Y15.0160
G01 X10.4067 Y15.0197
G01 X10.4174 Y15.0228
G01 X10.4282 Y15.0254
G01 X10.4452 Y15.0283
G01 X10.4562 Y15.0295
G01 X10.4673 Y15.0302
G01 X10.7694 Y15.0304
G01 X10.7694 Y16.4312
G01 X8.7082 Y16.4312
G01 X8.7082 Y15.0304
G01 X9.0103 Y15.0302
G01 X9.0275 Y15.0289
G01 X9.0385 Y15.0274
G01 X9.0494 Y15.0254
G01 X9.0651 Y15.0215
G01 X9.0757 Y15.0181
G01 X9.0861 Y15.0142
G01 X9.0963 Y15.0099
G01 X9.1117 Y15.0021
G01 X9.1256 Y14.9938
G01 X9.1397 Y14.9839
G01 X9.1521 Y14.9737
G01 X9.1646 Y14.9618
G01 X9.1754 Y14.9498
G01 X9.1861 Y14.9362
G01 X9.1950 Y14.9228
G01 X9.2035 Y14.9078
G01 X9.2104 Y14.8933
G01 X9.2145 Y14.8829
G01 X9.2200 Y14.8666
G01 X9.2239 Y14.8509
G01 X9.2268 Y14.8339
G01 X9.2284 Y14.8179
G01 X9.2289 Y14.8037
G01 X9.2289 Y6.9424
G01 X9.2284 Y6.9282
G01 X9.2274 Y6.9171
G01 X9.2251 Y6.9012
G01 X9.2213 Y6.8844
G01 X9.2182 Y6.8737
G01 X9.2145 Y6.8632
G01 X9.2084 Y6.8483
G01 X9.2006 Y6.8329
G01 X9.1950 Y6.8233
G01 X9.1889 Y6.8139
G01 X9.1793 Y6.8010
G01 X9.1722 Y6.7925
G01 X9.1646 Y6.7843
G01 X9.1521 Y6.7724
G01 X9.1436 Y6.7653
G01 X9.1347 Y6.7585
G01 X9.1213 Y6.7496
G01 X9.1063 Y6.7411
G01 X9.0963 Y6.7362
G01 X9.0861 Y6.7319
G01 X9.0709 Y6.7264
G01 X9.0602 Y6.7233
G01 X9.0494 Y6.7207
G01 X9.0324 Y6.7178
G01 X9.0164 Y6.7162
G01 X9.0022 Y6.7157
G01 X7.7050 Y6.7157
G01 X7.7050 Y6.7118
G01 X8.2148 Y6.7118
G01 X8.2209 Y6.7116
G01 X8.2331 Y6.7104
G01 X8.2392 Y6.7094
G01 X8.2511 Y6.7064
G01 X8.2626 Y6.7023
G01 X8.2682 Y6.6998
G01 X8.2791 Y6.6940
G01 X8.2842 Y6.6907
G01 X8.2893 Y6.6872
G01 X8.2987 Y6.6794
G01 X8.3032 Y6.6752
G01 X8.3114 Y6.6661
G01 X8.3187 Y6.6562
G01 X8.3220 Y6.6511
G01 X8.3278 Y6.6402
G01 X8.3303 Y6.6346
G01 X8.3344 Y6.6231
G01 X8.3361 Y6.6172
G01 X8.3384 Y6.6051
G01 X8.3396 Y6.5929
G01 X8.3398 Y6.5868
G01 X8.3398 Y4.5548
G01 X8.3392 Y4.5425
G01 X8.3374 Y4.5304
G01 X8.3361 Y4.5244
G01 X8.3325 Y4.5127
G01 X8.3278 Y4.5014
G01 X8.3220 Y4.4905
G01 X8.3152 Y4.4803
G01 X8.3114 Y4.4755
G01 X8.3032 Y4.4664
G01 X8.2941 Y4.4582
G01 X8.2842 Y4.4509
G01 X8.2791 Y4.4476
G01 X8.2682 Y4.4418
G01 X8.2626 Y4.4393
G01 X8.2511 Y4.4352
G01 X8.2452 Y4.4335
G01 X8.2331 Y4.4312
G01 X8.2271 Y4.4304
G01 X8.2148 Y4.4298
G01 X7.4255 Y4.4298
G00 Z1.0000
G00 X8.7228 Y4.4298
G01 F80.00
G01 Z-0.0100
G01 F200.00
G01 X10.7609 Y4.4300
G01 X10.7731 Y4.4312
G01 X10.7852 Y4.4335
G01 X10.7911 Y4.4352
G01 X10.8026 Y4.4393
G01 X10.8137 Y4.4446
G01 X10.8242 Y4.4509
G01 X10.8293 Y4.4544
G01 X10.8387 Y4.4622
G01 X10.8474 Y4.4709
G01 X10.8514 Y4.4755
G01 X10.8587 Y4.4854
G01 X10.8650 Y4.4959
G01 X10.8678 Y4.5014
G01 X10.8725 Y4.5127
G01 X10.8761 Y4.5244
G01 X10.8784 Y4.5365
G01 X10.8796 Y4.5487
G01 X10.8798 Y4.5548
G01 X10.8798 Y6.5868
G01 X10.8796 Y6.5929
G01 X10.8784 Y6.6051
G01 X10.8761 Y6.6172
G01 X10.8744 Y6.6231
G01 X10.8703 Y6.6346
G01 X10.8678 Y6.6402
G01 X10.8620 Y6.6511
G01 X10.8587 Y6.6562
G01 X10.8514 Y6.6661
G01 X10.8474 Y6.6707
G01 X10.8387 Y6.6794
G01 X10.8293 Y6.6872
G01 X10.8242 Y6.6907
G01 X10.8191 Y6.6940
G01 X10.8082 Y6.6998
G01 X10.8026 Y6.7023
G01 X10.7911 Y6.7064
G01 X10.7792 Y6.7094
G01 X10.7731 Y6.7104
G01 X10.7609 Y6.7116
G01 X10.7548 Y6.7118
G01 X10.2450 Y6.7118
G01 X10.2450 Y15.0343
G01 X10.6405 Y15.0343
G01 X10.6466 Y15.0345
G01 X10.6588 Y15.0357
G01 X10.6709 Y15.0380
G01 X10.6768 Y15.0397
G01 X10.6883 Y15.0438
G01 X10.6939 Y15.0463
G01 X10.6994 Y15.0491
G01 X10.7099 Y15.0554
G01 X10.7150 Y15.0589
G01 X10.7244 Y15.0667
G01 X10.7331 Y15.0754
G01 X10.7371 Y15.0800
G01 X10.7409 Y15.0848
G01 X10.7477 Y15.0950
G01 X10.7535 Y15.1059
G01 X10.7560 Y15.1115
G01 X10.7601 Y15.1230
G01 X10.7618 Y15.1289
G01 X10.7641 Y15.1410
G01 X10.7649 Y15.1470
G01 X10.7655 Y15.1593
G01 X10.7655 Y16.3023
G01 X10.7649 Y16.3146
G01 X10.7631 Y16.3267
G01 X10.7618 Y16.3327
G01 X10.7582 Y16.3444
G01 X10.7560 Y16.3501
G01 X10.7535 Y16.3557
G01 X10.7477 Y16.3666
G01 X10.7409 Y16.3768
G01 X10.7331 Y16.3862
G01 X10.7289 Y16.3907
G01 X10.7198 Y16.3989
G01 X10.7099 Y16.4062
G01 X10.6994 Y16.4125
G01 X10.6883 Y16.4178
G01 X10.6768 Y16.4219
G01 X10.6649 Y16.4249
G01 X10.6588 Y16.4259
G01 X10.6466 Y16.4271
G01 X10.6405 Y16.4273
G01 X8.8310 Y16.4271
G01 X8.8248 Y16.4267
G01 X8.8127 Y16.4249
G01 X8.8008 Y16.4219
G01 X8.7893 Y16.4178
G01 X8.7837 Y16.4153
G01 X8.7728 Y16.4095
G01 X8.7626 Y16.4027
G01 X8.7532 Y16.3949
G01 X8.7487 Y16.3907
G01 X8.7405 Y16.3816
G01 X8.7332 Y16.3717
G01 X8.7269 Y16.3612
G01 X8.7216 Y16.3501
G01 X8.7175 Y16.3386
G01 X8.7145 Y16.3267
G01 X8.7135 Y16.3206
G01 X8.7123 Y16.3084
G01 X8.7121 Y16.3023
G01 X8.7121 Y15.1593
G01 X8.7127 Y15.1470
G01 X8.7145 Y15.1349
G01 X8.7175 Y15.1230
G01 X8.7216 Y15.1115
G01 X8.7241 Y15.1059
G01 X8.7299 Y15.0950
G01 X8.7332 Y15.0899
G01 X8.7405 Y15.0800
G01 X8.7445 Y15.0754
G01 X8.7532 Y15.0667
G01 X8.7626 Y15.0589
G01 X8.7728 Y15.0521
G01 X8.7837 Y15.0463
G01 X8.7893 Y15.0438
G01 X8.7950 Y15.0416
G01 X8.8067 Y15.0380
G01 X8.8188 Y15.0357
G01 X8.8310 Y15.0345
G01 X8.8371 Y15.0343
G01 X9.2326 Y15.0343
G01 X9.2326 Y6.7118
G01 X8.7228 Y6.7118
G01 X8.7167 Y6.7116
G01 X8.7045 Y6.7104
G01 X8.6924 Y6.7081
G01 X8.6807 Y6.7045
G01 X8.6694 Y6.6998
G01 X8.6639 Y6.6970
G01 X8.6585 Y6.6940
G01 X8.6483 Y6.6872
G01 X8.6435 Y6.6834
G01 X8.6344 Y6.6752
G01 X8.6302 Y6.6707
G01 X8.6224 Y6.6613
G01 X8.6189 Y6.6562
G01 X8.6126 Y6.6457
G01 X8.6098 Y6.6402
G01 X8.6051 Y6.6289
G01 X8.6032 Y6.6231
G01 X8.6002 Y6.6112
G01 X8.5984 Y6.5991
G01 X8.5978 Y6.5868
G01 X8.5980 Y4.5487
G01 X8.5992 Y4.5365
G01 X8.6015 Y4.5244
G01 X8.6051 Y4.5127
G01 X8.6098 Y4.5014
G01 X8.6156 Y4.4905
G01 X8.6224 Y4.4803
G01 X8.6262 Y4.4755
G01 X8.6344 Y4.4664
G01 X8.6435 Y4.4582
G01 X8.6534 Y4.4509
G01 X8.6639 Y4.4446
G01 X8.6750 Y4.4393
G01 X8.6865 Y4.4352
G01 X8.6984 Y4.4322
G01 X8.7105 Y4.4304
G01 X8.7228 Y4.4298
G00 Z1.0000
G00 X11.2628 Y4.4298
G01 F80.00
G01 Z-0.0100
G01 F200.00
G01 X13.3009 Y4.4300
G01 X13.3131 Y4.4312
G01 X13.3252 Y4.4335
G01 X13.3311 Y4.4352
G01 X13.3426 Y4.4393
G01 X13.3537 Y4.4446
G01 X13.3591 Y4.4476
G01 X13.3693 Y4.4544
G01 X13.3787 Y4.4622
G01 X13.3874 Y4.4709
G01 X13.3914 Y4.4755
G01 X13.3987 Y4.4854
G01 X13.4050 Y4.4959
G01 X13.4078 Y4.5014
G01 X13.4125 Y4.5127
G01 X13.4161 Y4.5244
G01 X13.4184 Y4.5365
G01 X13.4196 Y4.5487
G01 X13.4198 Y4.5548
G01 X13.4198 Y6.5868
G01 X13.4196 Y6.5929
G01 X13.4184 Y6.6051
G01 X13.4161 Y6.6172
G01 X13.4144 Y6.6231
G01 X13.4103 Y6.6346
G01 X13.4078 Y6.6402
G01 X13.4020 Y6.6511
G01 X13.3987 Y6.6562
G01 X13.3914 Y6.6661
G01 X13.3874 Y6.6707
G01 X13.3787 Y6.6794
G01 X13.3693 Y6.6872
G01 X13.3642 Y6.6907
G01 X13.3591 Y6.6940
G01 X13.3482 Y6.6998
G01 X13.3426 Y6.7023
G01 X13.3311 Y6.7064
G01 X13.3192 Y6.7094
G01 X13.3131 Y6.7104
G01 X13.3009 Y6.7116
G01 X13.2948 Y6.7118
G01 X12.7850 Y6.7118
G01 X12.7850 Y15.0343
G01 X13.1805 Y15.0343
G01 X13.1866 Y15.0345
G01 X13.1988 Y15.0357
G01 X13.2109 Y15.0380
G01 X13.2168 Y15.0397
G01 X13.2283 Y15.0438
G01 X13.2339 Y15.0463
G01 X13.2448 Y15.0521
G01 X13.2550 Y15.0589
G01 X13.2598 Y15.0627
G01 X13.2644 Y15.0667
G01 X13.2731 Y15.0754
G01 X13.2809 Y15.0848
G01 X13.2844 Y15.0899
G01 X13.2907 Y15.1004
G01 X13.2935 Y15.1059
G01 X13.2960 Y15.1115
G01 X13.3001 Y15.1230
G01 X13.3018 Y15.1289
G01 X13.3041 Y15.1410
G01 X13.3049 Y15.1470
G01 X13.3055 Y15.1593
G01 X13.3055 Y16.3023
G01 X13.3049 Y16.3146
G01 X13.3031 Y16.3267
G01 X13.3018 Y16.3327
G01 X13.2982 Y16.3444
G01 X13.2960 Y16.3501
G01 X13.2935 Y16.3557
G01 X13.2877 Y16.3666
G01 X13.2809 Y16.3768
G01 X13.2731 Y16.3862
G01 X13.2689 Y16.3907
G01 X13.2598 Y16.3989
G01 X13.2499 Y16.4062
G01 X13.2394 Y16.4125
G01 X13.2283 Y16.4178
G01 X13.2168 Y16.4219
G01 X13.2049 Y16.4249
G01 X13.1988 Y16.4259
G01 X13.1866 Y16.4271
G01 X13.1805 Y16.4273
G01 X11.3710 Y16.4271
G01 X11.3648 Y16.4267
G01 X11.3527 Y16.4249
G01 X11.3408 Y16.4219
G01 X11.3293 Y16.4178
G01 X11.3237 Y16.4153
G01 X11.3128 Y16.4095
G01 X11.3026 Y16.4027
G01 X11.2932 Y16.3949
G01 X11.2887 Y16.3907
G01 X11.2805 Y16.3816
G01 X11.2732 Y16.3717
G01 X11.2669 Y16.3612
G01 X11.2616 Y16.3501
G01 X11.2575 Y16.3386
G01 X11.2545 Y16.3267
G01 X11.2535 Y16.3206
G01 X11.2523 Y16.3084
G01 X11.2521 Y16.3023
G01 X11.2521 Y15.1593
G01 X11.2527 Y15.1470
G01 X11.2545 Y15.1349
G01 X11.2575 Y15.1230
G01 X11.2616 Y15.1115
G01 X11.2641 Y15.1059
G01 X11.2699 Y15.0950
G01 X11.2732 Y15.0899
G01 X11.2805 Y15.0800
G01 X11.2845 Y15.0754
G01 X11.2932 Y15.0667
G01 X11.3026 Y15.0589
G01 X11.3128 Y15.0521
G01 X11.3237 Y15.0463
G01 X11.3293 Y15.0438
G01 X11.3350 Y15.0416
G01 X11.3467 Y15.0380
G01 X11.3588 Y15.0357
G01 X11.3710 Y15.0345
G01 X11.3771 Y15.0343
G01 X11.7726 Y15.0343
G01 X11.7726 Y6.7118
G01 X11.2628 Y6.7118
G01 X11.2567 Y6.7116
G01 X11.2445 Y6.7104
G01 X11.2324 Y6.7081
G01 X11.2207 Y6.7045
G01 X11.2094 Y6.6998
G01 X11.2039 Y6.6970
G01 X11.1985 Y6.6940
G01 X11.1883 Y6.6872
G01 X11.1835 Y6.6834
G01 X11.1744 Y6.6752
G01 X11.1702 Y6.6707
G01 X11.1624 Y6.6613
G01 X11.1589 Y6.6562
G01 X11.1526 Y6.6457
G01 X11.1498 Y6.6402
G01 X11.1451 Y6.6289
G01 X11.1432 Y6.6231
G01 X11.1402 Y6.6112
G01 X11.1384 Y6.5991
G01 X11.1378 Y6.5868
G01 X11.1380 Y4.5487
G01 X11.1392 Y4.5365
G01 X11.1415 Y4.5244
G01 X11.1451 Y4.5127
G01 X11.1498 Y4.5014
G01 X11.1556 Y4.4905
G01 X11.1624 Y4.4803
G01 X11.1662 Y4.4755
G01 X11.1744 Y4.4664
G01 X11.1835 Y4.4582
G01 X11.1934 Y4.4509
G01 X11.2039 Y4.4446
G01 X11.2150 Y4.4393
G01 X11.2265 Y4.4352
G01 X11.2384 Y4.4322
G01 X11.2505 Y4.4304
G01 X11.2628 Y4.4298
G00 Z1.0000
G00 X13.8028 Y4.4298
G01 F80.00
G01 Z-0.0100
G01 F200.00
G01 X15.8409 Y4.4300
G01 X15.8531 Y4.4312
G01 X15.8652 Y4.4335
G01 X15.8711 Y4.4352
G01 X15.8826 Y4.4393
G01 X15.8937 Y4.4446
G01 X15.8991 Y4.4476
G01 X15.9093 Y4.4544
G01 X15.9187 Y4.4622
G01 X15.9274 Y4.4709
G01 X15.9314 Y4.4755
G01 X15.9387 Y4.4854
G01 X15.9450 Y4.4959
G01 X15.9478 Y4.5014
G01 X15.9525 Y4.5127
G01 X15.9561 Y4.5244
G01 X15.9584 Y4.5365
G01 X15.9596 Y4.5487
G01 X15.9598 Y4.5548
G01 X15.9598 Y6.5868
G01 X15.9596 Y6.5929
G01 X15.9584 Y6.6051
G01 X15.9561 Y6.6172
G01 X15.9544 Y6.6231
G01 X15.9503 Y6.6346
G01 X15.9478 Y6.6402
G01 X15.9420 Y6.6511
G01 X15.9387 Y6.6562
G01 X15.9314 Y6.6661
G01 X15.9232 Y6.6752
G01 X15.9187 Y6.6794
G01 X15.9093 Y6.6872
G01 X15.9042 Y6.6907
G01 X15.8991 Y6.6940
G01 X15.8882 Y6.6998
G01 X15.8826 Y6.7023
G01 X15.8711 Y6.7064
G01 X15.8592 Y6.7094
G01 X15.8531 Y6.7104
G01 X15.8409 Y6.7116
G01 X15.8348 Y6.7118
G01 X15.3250 Y6.7118
G01 X15.3250 Y15.0343
G01 X15.7205 Y15.0343
G01 X15.7266 Y15.0345
G01 X15.7388 Y15.0357
G01 X15.7509 Y15.0380
G01 X15.7568 Y15.0397
G01 X15.7683 Y15.0438
G01 X15.7739 Y15.0463
G01 X15.7848 Y15.0521
G01 X15.7950 Y15.0589
G01 X15.7998 Y15.0627
G01 X15.8044 Y15.0667
G01 X15.8131 Y15.0754
G01 X15.8209 Y15.0848
G01 X15.8244 Y15.0899
G01 X15.8307 Y15.1004
G01 X15.8335 Y15.1059
G01 X15.8360 Y15.1115
G01 X15.8401 Y15.1230
G01 X15.8418 Y15.1289
G01 X15.8441 Y15.1410
G01 X15.8449 Y15.1470
G01 X15.8455 Y15.1593
G01 X15.8455 Y16.3023
G01 X15.8449 Y16.3146
G01 X15.8431 Y16.3267
G01 X15.8418 Y16.3327
G01 X15.8382 Y16.3444
G01 X15.8360 Y16.3501
G01 X15.8335 Y16.3557
G01 X15.8277 Y16.3666
G01 X15.8209 Y16.3768
G01 X15.8131 Y16.3862
G01 X15.8089 Y16.3907
G01 X15.7998 Y16.3989
G01 X15.7899 Y16.4062
G01 X15.7794 Y16.4125
G01 X15.7683 Y16.4178
G01 X15.7568 Y16.4219
G01 X15.7449 Y16.4249
G01 X15.7388 Y16.4259
G01 X15.7266 Y16.4271
G01 X15.7205 Y16.4273
G01 X13.9110 Y16.4271
G01 X13.9048 Y16.4267
G01 X13.8927 Y16.4249
G01 X13.8808 Y16.4219
G01 X13.8693 Y16.4178
G01 X13.8637 Y16.4153
G01 X13.8528 Y16.4095
G01 X13.8426 Y16.4027
G01 X13.8332 Y16.3949
G01 X13.8287 Y16.3907
G01 X13.8205 Y16.3816
G01 X13.8132 Y16.3717
G01 X13.8069 Y16.3612
G01 X13.8016 Y16.3501
G01 X13.7975 Y16.3386
G01 X13.7945 Y16.3267
G01 X13.7935 Y16.3206
G01 X13.7923 Y16.3084
G01 X13.7921 Y16.3023
G01 X13.7921 Y15.1593
G01 X13.7927 Y15.1470
G01 X13.7945 Y15.1349
G01 X13.7975 Y15.1230
G01 X13.8016 Y15.1115
G01 X13.8041 Y15.1059
G01 X13.8099 Y15.0950
G01 X13.8132 Y15.0899
G01 X13.8205 Y15.0800
G01 X13.8245 Y15.0754
G01 X13.8332 Y15.0667
G01 X13.8426 Y15.0589
G01 X13.8528 Y15.0521
G01 X13.8637 Y15.0463
G01 X13.8693 Y15.0438
G01 X13.8750 Y15.0416
G01 X13.8867 Y15.0380
G01 X13.8988 Y15.0357
G01 X13.9110 Y15.0345
G01 X13.9171 Y15.0343
G01 X14.3126 Y15.0343
G01 X14.3126 Y6.7118
G01 X13.8028 Y6.7118
G01 X13.7967 Y6.7116
G01 X13.7845 Y6.7104
G01 X13.7724 Y6.7081
G01 X13.7607 Y6.7045
G01 X13.7494 Y6.6998
G01 X13.7439 Y6.6970
G01 X13.7385 Y6.6940
G01 X13.7283 Y6.6872
G01 X13.7235 Y6.6834
G01 X13.7144 Y6.6752
G01 X13.7102 Y6.6707
G01 X13.7024 Y6.6613
G01 X13.6989 Y6.6562
G01 X13.6926 Y6.6457
G01 X13.6898 Y6.6402
G01 X13.6851 Y6.6289
G01 X13.6832 Y6.6231
G01 X13.6802 Y6.6112
G01 X13.6784 Y6.5991
G01 X13.6778 Y6.5868
G01 X13.6780 Y4.5487
G01 X13.6792 Y4.5365
G01 X13.6815 Y4.5244
G01 X13.6851 Y4.5127
G01 X13.6898 Y4.5014
G01 X13.6956 Y4.4905
G01 X13.7024 Y4.4803
G01 X13.7062 Y4.4755
G01 X13.7144 Y4.4664
G01 X13.7235 Y4.4582
G01 X13.7334 Y4.4509
G01 X13.7439 Y4.4446
G01 X13.7550 Y4.4393
G01 X13.7665 Y4.4352
G01 X13.7784 Y4.4322
G01 X13.7905 Y4.4304
G01 X13.8028 Y4.4298
G00 Z1.0000
G00 X16.3428 Y4.4298
G01 F80.00
G01 Z-0.0100
G01 F200.00
G01 X18.3809 Y4.4300
G01 X18.3931 Y4.4312
G01 X18.3992 Y4.4322
G01 X18.4052 Y4.4335
G01 X18.4169 Y4.4371
G01 X18.4226 Y4.4393
G01 X18.4337 Y4.4446
G01 X18.4391 Y4.4476
G01 X18.4493 Y4.4544
G01 X18.4587 Y4.4622
G01 X18.4632 Y4.4664
G01 X18.4714 Y4.4755
G01 X18.4752 Y4.4803
G01 X18.4787 Y4.4854
G01 X18.4850 Y4.4959
G01 X18.4903 Y4.5070
G01 X18.4925 Y4.5127
G01 X18.4961 Y4.5244
G01 X18.4974 Y4.5304
G01 X18.4992 Y4.5425
G01 X18.4998 Y4.5548
G01 X18.4998 Y6.5868
G01 X18.4996 Y6.5929
G01 X18.4984 Y6.6051
G01 X18.4961 Y6.6172
G01 X18.4944 Y6.6231
G01 X18.4903 Y6.6346
G01 X18.4850 Y6.6457
G01 X18.4820 Y6.6511
G01 X18.4752 Y6.6613
G01 X18.4714 Y6.6661
G01 X18.4632 Y6.6752
G01 X18.4587 Y6.6794
G01 X18.4493 Y6.6872
G01 X18.4442 Y6.6907
G01 X18.4337 Y6.6970
G01 X18.4282 Y6.6998
G01 X18.4226 Y6.7023
G01 X18.4111 Y6.7064
G01 X18.3992 Y6.7094
G01 X18.3931 Y6.7104
G01 X18.3809 Y6.7116
G01 X18.3748 Y6.7118
G01 X17.8650 Y6.7118
G01 X17.8650 Y8.8746
G01 X20.1123 Y8.8746
G01 X20.1123 Y8.4791
G01 X20.1125 Y8.4730
G01 X20.1137 Y8.4608
G01 X20.1147 Y8.4547
G01 X20.1177 Y8.4428
G01 X20.1218 Y8.4313
G01 X20.1271 Y8.4202
G01 X20.1301 Y8.4148
G01 X20.1334 Y8.4097
G01 X20.1407 Y8.3998
G01 X20.1447 Y8.3952
G01 X20.1534 Y8.3865
G01 X20.1580 Y8.3825
G01 X20.1679 Y8.3752
G01 X20.1784 Y8.3689
G01 X20.1839 Y8.3661
G01 X20.1952 Y8.3614
G01 X20.2010 Y8.3595
G01 X20.2129 Y8.3565
G01 X20.2190 Y8.3555
G01 X20.2312 Y8.3543
G01 X20.2373 Y8.3541
G01 X21.3803 Y8.3541
G01 X21.3926 Y8.3547
G01 X21.4047 Y8.3565
G01 X21.4166 Y8.3595
G01 X21.4224 Y8.3614
G01 X21.4337 Y8.3661
G01 X21.4392 Y8.3689
G01 X21.4497 Y8.3752
G01 X21.4596 Y8.3825
G01 X21.4687 Y8.3907
G01 X21.4769 Y8.3998
G01 X21.4807 Y8.4046
G01 X21.4875 Y8.4148
G01 X21.4905 Y8.4202
G01 X21.4958 Y8.4313
G01 X21.4999 Y8.4428
G01 X21.5029 Y8.4547
G01 X21.5039 Y8.4608
G01 X21.5051 Y8.4730
G01 X21.5053 Y8.4791
G01 X21.5051 Y10.2886
G01 X21.5047 Y10.2948
G01 X21.5029 Y10.3069
G01 X21.5016 Y10.3129
G01 X21.4980 Y10.3246
G01 X21.4958 Y10.3303
G01 X21.4905 Y10.3414
G01 X21.4842 Y10.3519
G01 X21.4769 Y10.3618
G01 X21.4729 Y10.3664
G01 X21.4642 Y10.3751
G01 X21.4596 Y10.3791
G01 X21.4497 Y10.3864
G01 X21.4446 Y10.3897
G01 X21.4392 Y10.3927
G01 X21.4281 Y10.3980
G01 X21.4166 Y10.4021
G01 X21.4047 Y10.4051
G01 X21.3926 Y10.4069
G01 X21.3803 Y10.4075
G01 X20.2373 Y10.4075
G01 X20.2250 Y10.4069
G01 X20.2129 Y10.4051
G01 X20.2010 Y10.4021
G01 X20.1895 Y10.3980
G01 X20.1839 Y10.3955
G01 X20.1730 Y10.3897
G01 X20.1628 Y10.3829
G01 X20.1534 Y10.3751
G01 X20.1489 Y10.3709
G01 X20.1407 Y10.3618
G01 X20.1369 Y10.3570
G01 X20.1301 Y10.3468
G01 X20.1243 Y10.3359
G01 X20.1196 Y10.3246
G01 X20.1177 Y10.3188
G01 X20.1147 Y10.3069
G01 X20.1137 Y10.3008
G01 X20.1129 Y10.2948
G01 X20.1123 Y10.2825
G01 X20.1123 Y9.8870
G01 X17.8650 Y9.8870
G01 X17.8650 Y15.0343
G01 X18.2605 Y15.0343
G01 X18.2666 Y15.0345
G01 X18.2788 Y15.0357
G01 X18.2909 Y15.0380
G01 X18.3026 Y15.0416
G01 X18.3083 Y15.0438
G01 X18.3139 Y15.0463
G01 X18.3248 Y15.0521
G01 X18.3299 Y15.0554
G01 X18.3398 Y15.0627
G01 X18.3444 Y15.0667
G01 X18.3531 Y15.0754
G01 X18.3571 Y15.0800
G01 X18.3644 Y15.0899
G01 X18.3707 Y15.1004
G01 X18.3735 Y15.1059
G01 X18.3760 Y15.1115
G01 X18.3801 Y15.1230
G01 X18.3831 Y15.1349
G01 X18.3841 Y15.1410
G01 X18.3853 Y15.1532
G01 X18.3855 Y15.1593
G01 X18.3855 Y16.3023
G01 X18.3849 Y16.3146
G01 X18.3831 Y16.3267
G01 X18.3818 Y16.3327
G01 X18.3801 Y16.3386
G01 X18.3760 Y16.3501
G01 X18.3707 Y16.3612
G01 X18.3677 Y16.3666
G01 X18.3609 Y16.3768
G01 X18.3531 Y16.3862
G01 X18.3444 Y16.3949
G01 X18.3350 Y16.4027
G01 X18.3299 Y16.4062
G01 X18.3194 Y16.4125
G01 X18.3083 Y16.4178
G01 X18.2968 Y16.4219
G01 X18.2849 Y16.4249
G01 X18.2788 Y16.4259
G01 X18.2666 Y16.4271
G01 X18.2605 Y16.4273
G01 X16.4510 Y16.4271
G01 X16.4388 Y16.4259
G01 X16.4267 Y16.4236
G01 X16.4150 Y16.4200
G01 X16.4093 Y16.4178
G01 X16.3982 Y16.4125
G01 X16.3928 Y16.4095
G01 X16.3826 Y16.4027
G01 X16.3732 Y16.3949
G01 X16.3645 Y16.3862
G01 X16.3567 Y16.3768
G01 X16.3532 Y16.3717
G01 X16.3469 Y16.3612
G01 X16.3441 Y16.3557
G01 X16.3394 Y16.3444
G01 X16.3358 Y16.3327
G01 X16.3335 Y16.3206
G01 X16.3323 Y16.3084
G01 X16.3321 Y16.3023
G01 X16.3321 Y15.1593
G01 X16.3327 Y15.1470
G01 X16.3345 Y15.1349
G01 X16.3375 Y15.1230
G01 X16.3416 Y15.1115
G01 X16.3469 Y15.1004
G01 X16.3499 Y15.0950
G01 X16.3532 Y15.0899
G01 X16.3605 Y15.0800
G01 X16.3687 Y15.0709
G01 X16.3732 Y15.0667
G01 X16.3826 Y15.0589
G01 X16.3877 Y15.0554
G01 X16.3982 Y15.0491
G01 X16.4093 Y15.0438
G01 X16.4208 Y15.0397
G01 X16.4267 Y15.0380
G01 X16.4388 Y15.0357
G01 X16.4510 Y15.0345
G01 X16.4571 Y15.0343
G01 X16.8526 Y15.0343
G01 X16.8526 Y6.7118
G01 X16.3428 Y6.7118
G01 X16.3367 Y6.7116
G01 X16.3245 Y6.7104
G01 X16.3184 Y6.7094
G01 X16.3065 Y6.7064
G01 X16.3007 Y6.7045
G01 X16.2894 Y6.6998
G01 X16.2785 Y6.6940
G01 X16.2734 Y6.6907
G01 X16.2635 Y6.6834
G01 X16.2544 Y6.6752
G01 X16.2502 Y6.6707
G01 X16.2424 Y6.6613
G01 X16.2356 Y6.6511
G01 X16.2326 Y6.6457
G01 X16.2273 Y6.6346
G01 X16.2251 Y6.6289
G01 X16.2232 Y6.6231
G01 X16.2202 Y6.6112
G01 X16.2184 Y6.5991
G01 X16.2178 Y6.5868
G01 X16.2180 Y4.5487
G01 X16.2192 Y4.5365
G01 X16.2215 Y4.5244
G01 X16.2251 Y4.5127
G01 X16.2298 Y4.5014
G01 X16.2356 Y4.4905
G01 X16.2389 Y4.4854
G01 X16.2462 Y4.4755
G01 X16.2544 Y4.4664
G01 X16.2635 Y4.4582
G01 X16.2734 Y4.4509
G01 X16.2839 Y4.4446
G01 X16.2950 Y4.4393
G01 X16.3065 Y4.4352
G01 X16.3184 Y4.4322
G01 X16.3305 Y4.4304
G01 X16.3428 Y4.4298
G00 Z1.0000
G00 X23.1373 Y8.3541
G01 F80.00
G01 Z-0.0100
G01 F200.00
G01 X23.1250 Y8.3547
G01 X23.1190 Y8.3555
G01 X23.1069 Y8.3578
G01 X23.0952 Y8.3614
G01 X23.0839 Y8.3661
G01 X23.0730 Y8.3719
G01 X23.0628 Y8.3787
G01 X23.0580 Y8.3825
G01 X23.0489 Y8.3907
G01 X23.0407 Y8.3998
G01 X23.0334 Y8.4097
G01 X23.0301 Y8.4148
G01 X23.0243 Y8.4257
G01 X23.0196 Y8.4370
G01 X23.0160 Y8.4487
G01 X23.0137 Y8.4608
G01 X23.0125 Y8.4730
G01 X23.0123 Y8.4791
G01 X23.0123 Y9.1541
G01 X23.0084 Y9.1541
G01 X23.0084 Y8.3502
G01 X23.2026 Y8.3502
G01 X23.2026 Y8.3541
G01 X23.1373 Y8.3541
G00 Z1.0000
G00 X23.0123 Y9.6075
G01 F80.00
G01 Z-0.0100
G01 F200.00
G01 X23.0123 Y10.2825
G01 X23.0125 Y10.2886
G01 X23.0137 Y10.3008
G01 X23.0160 Y10.3129
G01 X23.0177 Y10.3188
G01 X23.0218 Y10.3303
G01 X23.0243 Y10.3359
G01 X23.0301 Y10.3468
G01 X23.0369 Y10.3570
G01 X23.0447 Y10.3664
G01 X23.0534 Y10.3751
G01 X23.0580 Y10.3791
G01 X23.0679 Y10.3864
G01 X23.0784 Y10.3927
G01 X23.0895 Y10.3980
G01 X23.1010 Y10.4021
G01 X23.1069 Y10.4038
G01 X23.1190 Y10.4061
G01 X23.1250 Y10.4069
G01 X23.1373 Y10.4075
G01 X23.4821 Y10.4075
G01 X23.4821 Y10.4114
G01 X23.0084 Y10.4114
G01 X23.0084 Y9.6075
G01 X23.0123 Y9.6075
G00 Z1.0000
G00 X23.9355 Y10.4114
G01 F80.00
G01 Z-0.0100
G01 F200.00
G01 X23.9355 Y10.4075
G01 X24.2803 Y10.4075
G01 X24.2926 Y10.4069
G01 X24.3047 Y10.4051
G01 X24.3107 Y10.4038
G01 X24.3224 Y10.4002
G01 X24.3337 Y10.3955
G01 X24.3446 Y10.3897
G01 X24.3548 Y10.3829
G01 X24.3642 Y10.3751
G01 X24.3729 Y10.3664
G01 X24.3807 Y10.3570
G01 X24.3875 Y10.3468
G01 X24.3905 Y10.3414
G01 X24.3958 Y10.3303
G01 X24.3999 Y10.3188
G01 X24.4016 Y10.3129
G01 X24.4029 Y10.3069
G01 X24.4047 Y10.2948
G01 X24.4053 Y10.2825
G01 X24.4053 Y9.8870
G01 X24.4092 Y9.8870
G01 X24.4092 Y10.4114
G01 X23.9355 Y10.4114
G00 Z1.0000
G00 X24.4053 Y8.4791
G01 F80.00
G01 Z-0.0100
G01 F200.00
G01 X24.4047 Y8.4668
G01 X24.4039 Y8.4608
G01 X24.4016 Y8.4487
G01 X24.3980 Y8.4370
G01 X24.3933 Y8.4257
G01 X24.3905 Y8.4202
G01 X24.3842 Y8.4097
G01 X24.3807 Y8.4046
G01 X24.3729 Y8.3952
G01 X24.3642 Y8.3865
G01 X24.3548 Y8.3787
G01 X24.3497 Y8.3752
G01 X24.3392 Y8.3689
G01 X24.3281 Y8.3636
G01 X24.3166 Y8.3595
G01 X24.3047 Y8.3565
G01 X24.2926 Y8.3547
G01 X24.2864 Y8.3543
G01 X24.2150 Y8.3541
G01 X24.2150 Y8.3502
G01 X24.4092 Y8.3502
G01 X24.4092 Y8.8746
G01 X24.4053 Y8.8746
G01 X24.4053 Y8.4791
G00 Z1.0000
G00 X26.4882 Y10.1073
G01 F80.00
G01 Z-0.0100
G01 F200.00
G01 X26.4882 Y8.6804
G01 X28.5524 Y8.6804
G01 X28.5555 Y8.6963
G01 X28.5601 Y8.7129
G01 X28.5656 Y8.7281
G01 X28.5699 Y8.7383
G01 X28.5748 Y8.7483
G01 X28.5801 Y8.7581
G01 X28.5860 Y8.7676
G01 X28.5959 Y8.7817
G01 X28.6061 Y8.7941
G01 X28.6180 Y8.8066
G01 X28.6262 Y8.8142
G01 X28.6347 Y8.8213
G01 X28.6476 Y8.8309
G01 X28.6570 Y8.8370
G01 X28.6666 Y8.8426
G01 X28.6820 Y8.8504
G01 X28.6969 Y8.8565
G01 X28.7074 Y8.8602
G01 X28.7181 Y8.8633
G01 X28.7349 Y8.8671
G01 X28.7508 Y8.8694
G01 X28.7619 Y8.8704
G01 X28.7761 Y8.8709
G01 X30.2700 Y8.8709
G01 X31.8387 Y10.4396
G01 X31.8387 Y10.7397
G01 X31.8396 Y10.7589
G01 X31.8417 Y10.7760
G01 X31.8448 Y10.7918
G01 X31.8476 Y10.8026
G01 X31.8510 Y10.8132
G01 X31.8572 Y10.8293
G01 X31.8618 Y10.8394
G01 X31.8670 Y10.8492
G01 X31.8726 Y10.8588
G01 X31.8787 Y10.8682
G01 X31.8883 Y10.8811
G01 X31.8954 Y10.8896
G01 X31.9030 Y10.8978
G01 X31.9155 Y10.9097
G01 X31.9279 Y10.9199
G01 X31.9420 Y10.9298
G01 X31.9559 Y10.9381
G01 X31.9657 Y10.9433
G01 X31.9758 Y10.9479
G01 X31.9919 Y10.9541
G01 X32.0025 Y10.9575
G01 X32.0133 Y10.9603
G01 X32.0291 Y10.9634
G01 X32.0462 Y10.9655
G01 X32.0654 Y10.9664
G01 X32.6242 Y10.9664
G01 X32.6384 Y10.9659
G01 X32.6495 Y10.9649
G01 X32.6654 Y10.9626
G01 X32.6822 Y10.9588
G01 X32.6929 Y10.9557
G01 X32.7034 Y10.9520
G01 X32.7183 Y10.9459
G01 X32.7283 Y10.9410
G01 X32.7381 Y10.9357
G01 X32.7527 Y10.9264
G01 X32.7617 Y10.9199
G01 X32.7703 Y10.9129
G01 X32.7823 Y10.9021
G01 X32.7901 Y10.8942
G01 X32.7974 Y10.8858
G01 X32.8081 Y10.8722
G01 X32.8170 Y10.8588
G01 X32.8226 Y10.8492
G01 X32.8278 Y10.8394
G01 X32.8347 Y10.8236
G01 X32.8386 Y10.8132
G01 X32.8420 Y10.8026
G01 X32.8459 Y10.7869
G01 X32.8479 Y10.7760
G01 X32.8494 Y10.7650
G01 X32.8504 Y10.7539
G01 X32.8509 Y10.7397
G01 X32.8509 Y8.9592
G01 X33.4472 Y8.3629
G01 X41.9104 Y8.3629
G01 X43.3739 Y9.8261
G01 X43.3869 Y9.8373
G01 X43.3958 Y9.8441
G01 X43.4050 Y9.8503
G01 X43.4188 Y9.8586
G01 X43.4287 Y9.8638
G01 X43.4444 Y9.8707
G01 X43.4549 Y9.8746
G01 X43.4703 Y9.8793
G01 X43.4811 Y9.8819
G01 X43.4920 Y9.8839
G01 X43.5031 Y9.8854
G01 X43.5141 Y9.8864
G01 X43.5283 Y9.8869
G01 X43.6013 Y9.8869
G01 X44.7927 Y11.0783
G01 X44.7927 Y12.7633
G01 X43.6013 Y13.9547
G01 X41.9163 Y13.9547
G01 X40.9609 Y12.9995
G01 X40.9526 Y12.9922
G01 X40.9439 Y12.9852
G01 X40.9298 Y12.9753
G01 X40.9160 Y12.9670
G01 X40.9061 Y12.9618
G01 X40.8960 Y12.9572
G01 X40.8799 Y12.9510
G01 X40.8693 Y12.9476
G01 X40.8585 Y12.9448
G01 X40.8427 Y12.9417
G01 X40.8256 Y12.9396
G01 X40.8064 Y12.9387
G01 X34.7171 Y12.9387
G01 X34.7097 Y12.9319
G01 X34.7012 Y12.9248
G01 X34.6923 Y12.9180
G01 X34.6831 Y12.9118
G01 X34.6736 Y12.9059
G01 X34.6639 Y12.9006
G01 X34.6539 Y12.8957
G01 X34.6437 Y12.8914
G01 X34.6332 Y12.8875
G01 X34.6226 Y12.8841
G01 X34.6119 Y12.8813
G01 X34.6010 Y12.8790
G01 X34.5900 Y12.8773
G01 X34.5789 Y12.8761
G01 X34.5598 Y12.8752
G01 X34.4398 Y12.8754
G01 X34.4287 Y12.8761
G01 X34.4176 Y12.8773
G01 X34.4066 Y12.8790
G01 X34.3957 Y12.8813
G01 X34.3791 Y12.8859
G01 X34.3639 Y12.8914
G01 X34.3537 Y12.8957
G01 X34.3383 Y12.9035
G01 X34.3287 Y12.9091
G01 X34.3153 Y12.9180
G01 X34.3017 Y12.9287
G01 X34.2905 Y12.9387
G01 X33.4471 Y12.9387
G01 X33.4397 Y12.9319
G01 X33.4312 Y12.9248
G01 X33.4223 Y12.9180
G01 X33.4131 Y12.9118
G01 X33.4036 Y12.9059
G01 X33.3939 Y12.9006
G01 X33.3839 Y12.8957
G01 X33.3737 Y12.8914
G01 X33.3632 Y12.8875
G01 X33.3526 Y12.8841
G01 X33.3419 Y12.8813
G01 X33.3310 Y12.8790
G01 X33.3200 Y12.8773
G01 X33.3089 Y12.8761
G01 X33.2928 Y12.8753
G01 X30.3744 Y12.8752
G01 X30.3744 Y10.9664
G01 X30.3902 Y10.9659
G01 X30.4062 Y10.9643
G01 X30.4232 Y10.9614
G01 X30.4341 Y10.9588
G01 X30.4495 Y10.9541
G01 X30.4599 Y10.9502
G01 X30.4757 Y10.9433
G01 X30.4899 Y10.9357
G01 X30.5045 Y10.9264
G01 X30.5135 Y10.9199
G01 X30.5259 Y10.9097
G01 X30.5341 Y10.9021
G01 X30.5460 Y10.8896
G01 X30.5562 Y10.8772
G01 X30.5627 Y10.8682
G01 X30.5720 Y10.8536
G01 X30.5773 Y10.8438
G01 X30.5842 Y10.8293
G01 X30.5904 Y10.8132
G01 X30.5951 Y10.7977
G01 X30.5977 Y10.7869
G01 X30.6006 Y10.7699
G01 X30.6019 Y10.7589
G01 X30.6026 Y10.7428
G01 X30.6022 Y10.7255
G01 X30.6013 Y10.7144
G01 X30.5989 Y10.6985
G01 X30.5966 Y10.6876
G01 X30.5920 Y10.6710
G01 X30.5866 Y10.6558
G01 X30.5822 Y10.6456
G01 X30.5744 Y10.6302
G01 X30.5662 Y10.6164
G01 X30.5562 Y10.6023
G01 X30.5460 Y10.5898
G01 X30.5363 Y10.5794
G01 X29.9140 Y9.9571
G01 X29.9036 Y9.9474
G01 X29.8951 Y9.9403
G01 X29.8862 Y9.9335
G01 X29.8771 Y9.9273
G01 X29.8676 Y9.9214
G01 X29.8578 Y9.9161
G01 X29.8478 Y9.9112
G01 X29.8376 Y9.9069
G01 X29.8272 Y9.9030
G01 X29.8166 Y9.8996
G01 X29.8058 Y9.8968
G01 X29.7949 Y9.8945
G01 X29.7839 Y9.8928
G01 X29.7729 Y9.8916
G01 X29.7568 Y9.8908
G01 X28.7761 Y9.8907
G01 X28.7569 Y9.8916
G01 X28.7398 Y9.8937
G01 X28.7240 Y9.8968
G01 X28.7132 Y9.8996
G01 X28.7026 Y9.9030
G01 X28.6865 Y9.9092
G01 X28.6764 Y9.9138
G01 X28.6666 Y9.9190
G01 X28.6527 Y9.9273
G01 X28.6386 Y9.9372
G01 X28.6300 Y9.9442
G01 X28.6216 Y9.9515
G01 X28.6102 Y9.9629
G01 X28.6029 Y9.9713
G01 X28.5959 Y9.9799
G01 X28.5860 Y9.9940
G01 X28.5801 Y10.0035
G01 X28.5748 Y10.0133
G01 X28.5699 Y10.0233
G01 X28.5656 Y10.0335
G01 X28.5601 Y10.0487
G01 X28.5555 Y10.0653
G01 X28.5524 Y10.0812
G01 X27.4749 Y10.0812
G01 X27.4607 Y10.0817
G01 X27.4496 Y10.0827
G01 X27.4337 Y10.0850
G01 X27.4228 Y10.0873
G01 X27.4120 Y10.0901
G01 X27.3957 Y10.0956
G01 X27.3853 Y10.0997
G01 X27.3708 Y10.1066
G01 X27.3558 Y10.1151
G01 X27.3424 Y10.1240
G01 X27.3335 Y10.1308
G01 X27.3204 Y10.1420
G01 X27.3125 Y10.1498
G01 X27.3017 Y10.1618
G01 X27.2910 Y10.1754
G01 X27.2848 Y10.1845
G01 X27.2765 Y10.1984
G01 X27.2713 Y10.2082
G01 X27.2667 Y10.2183
G01 X27.2626 Y10.2287
G01 X27.2571 Y10.2450
G01 X27.2543 Y10.2558
G01 X27.2520 Y10.2667
G01 X27.2497 Y10.2826
G01 X27.2487 Y10.2937
G01 X27.2482 Y10.3079
G01 X27.2482 Y13.3294
G01 X27.2408 Y13.3412
G01 X27.2332 Y13.3554
G01 X27.2263 Y13.3712
G01 X27.2208 Y13.3864
G01 X27.2162 Y13.4030
G01 X27.2139 Y13.4139
G01 X27.2116 Y13.4298
G01 X27.2103 Y13.4470
G01 X27.2101 Y14.2087
G01 X26.5944 Y14.2087
G01 X26.5944 Y12.0271
G01 X26.6005 Y12.0091
G01 X26.6033 Y11.9983
G01 X26.6056 Y11.9874
G01 X26.6073 Y11.9764
G01 X26.6085 Y11.9654
G01 X26.6094 Y11.9462
G01 X26.6092 Y10.2998
G01 X26.6079 Y10.2826
G01 X26.6056 Y10.2667
G01 X26.6033 Y10.2558
G01 X26.5987 Y10.2392
G01 X26.5932 Y10.2240
G01 X26.5889 Y10.2138
G01 X26.5811 Y10.1984
G01 X26.5755 Y10.1888
G01 X26.5666 Y10.1754
G01 X26.5598 Y10.1665
G01 X26.5486 Y10.1534
G01 X26.5372 Y10.1420
G01 X26.5241 Y10.1308
G01 X26.5152 Y10.1240
G01 X26.5018 Y10.1151
G01 X26.4882 Y10.1073
G00 Z1.0000
G00 X26.6132 Y10.0772
G01 F80.00
G01 Z-0.0100
G01 F200.00
G01 X26.6048 Y10.0767
G01 X26.5927 Y10.0749
G01 X26.5808 Y10.0719
G01 X26.5693 Y10.0678
G01 X26.5582 Y10.0625
G01 X26.5477 Y10.0562
G01 X26.5378 Y10.0489
G01 X26.5287 Y10.0407
G01 X26.5205 Y10.0316
G01 X26.5132 Y10.0217
G01 X26.5069 Y10.0112
G01 X26.5016 Y10.0001
G01 X26.4975 Y9.9886
G01 X26.4945 Y9.9767
G01 X26.4927 Y9.9646
G01 X26.4921 Y9.9523
G01 X26.4923 Y8.8032
G01 X26.4927 Y8.7970
G01 X26.4945 Y8.7849
G01 X26.4958 Y8.7789
G01 X26.4994 Y8.7672
G01 X26.5041 Y8.7559
G01 X26.5099 Y8.7450
G01 X26.5167 Y8.7348
G01 X26.5205 Y8.7300
G01 X26.5245 Y8.7254
G01 X26.5332 Y8.7167
G01 X26.5426 Y8.7089
G01 X26.5477 Y8.7054
G01 X26.5582 Y8.6991
G01 X26.5637 Y8.6963
G01 X26.5750 Y8.6916
G01 X26.5808 Y8.6897
G01 X26.5867 Y8.6880
G01 X26.5988 Y8.6857
G01 X26.6110 Y8.6845
G01 X26.6171 Y8.6843
G01 X28.4266 Y8.6845
G01 X28.4388 Y8.6857
G01 X28.4449 Y8.6867
G01 X28.4568 Y8.6897
G01 X28.4626 Y8.6916
G01 X28.4739 Y8.6963
G01 X28.4848 Y8.7021
G01 X28.4950 Y8.7089
G01 X28.4998 Y8.7127
G01 X28.5089 Y8.7209
G01 X28.5131 Y8.7254
G01 X28.5209 Y8.7348
G01 X28.5277 Y8.7450
G01 X28.5335 Y8.7559
G01 X28.5382 Y8.7672
G01 X28.5418 Y8.7789
G01 X28.5441 Y8.7910
G01 X28.5453 Y8.8032
G01 X28.5455 Y8.8093
G01 X28.5455 Y8.8746
G01 X30.0588 Y8.8746
G01 X30.0806 Y8.8751
G01 X30.1054 Y8.8768
G01 X30.1300 Y8.8797
G01 X30.1545 Y8.8838
G01 X30.1788 Y8.8891
G01 X30.2028 Y8.8956
G01 X30.2322 Y8.9053
G01 X30.2553 Y8.9143
G01 X30.2780 Y8.9246
G01 X30.2947 Y8.9330
G01 X30.3164 Y8.9451
G01 X30.3375 Y8.9582
G01 X30.3579 Y8.9724
G01 X30.3823 Y8.9915
G01 X30.4010 Y9.0078
G01 X30.4167 Y9.0229
G01 X31.6867 Y10.2929
G01 X31.7059 Y10.3132
G01 X31.7181 Y10.3273
G01 X31.7335 Y10.3468
G01 X31.7479 Y10.3670
G01 X31.7645 Y10.3932
G01 X31.7766 Y10.4149
G01 X31.7850 Y10.4316
G01 X31.7953 Y10.4543
G01 X31.8043 Y10.4774
G01 X31.8140 Y10.5068
G01 X31.8205 Y10.5308
G01 X31.8258 Y10.5551
G01 X31.8290 Y10.5735
G01 X31.8328 Y10.6042
G01 X31.8345 Y10.6290
G01 X31.8350 Y10.6477
G01 X31.8350 Y10.9703
G01 X32.1543 Y10.9703
G01 X32.1604 Y10.9705
G01 X32.1726 Y10.9717
G01 X32.1847 Y10.9740
G01 X32.1906 Y10.9757
G01 X32.2021 Y10.9798
G01 X32.2077 Y10.9823
G01 X32.2186 Y10.9881
G01 X32.2288 Y10.9949
G01 X32.2382 Y11.0027
G01 X32.2469 Y11.0114
G01 X32.2547 Y11.0208
G01 X32.2582 Y11.0259
G01 X32.2645 Y11.0364
G01 X32.2698 Y11.0475
G01 X32.2739 Y11.0590
G01 X32.2756 Y11.0649
G01 X32.2779 Y11.0770
G01 X32.2787 Y11.0830
G01 X32.2793 Y11.0953
G01 X32.2793 Y12.7463
G01 X32.2791 Y12.7524
G01 X32.2779 Y12.7646
G01 X32.2756 Y12.7767
G01 X32.2720 Y12.7884
G01 X32.2673 Y12.7997
G01 X32.2615 Y12.8106
G01 X32.2582 Y12.8157
G01 X32.2509 Y12.8256
G01 X32.2469 Y12.8302
G01 X32.2427 Y12.8347
G01 X32.2336 Y12.8429
G01 X32.2288 Y12.8467
G01 X32.2186 Y12.8535
G01 X32.2077 Y12.8593
G01 X32.2021 Y12.8618
G01 X32.1964 Y12.8640
G01 X32.1847 Y12.8676
G01 X32.1726 Y12.8699
G01 X32.1604 Y12.8711
G01 X32.1543 Y12.8713
G01 X30.4972 Y12.8711
G01 X30.4850 Y12.8699
G01 X30.4729 Y12.8676
G01 X30.4612 Y12.8640
G01 X30.4499 Y12.8593
G01 X30.4444 Y12.8565
G01 X30.4339 Y12.8502
G01 X30.4240 Y12.8429
G01 X30.4149 Y12.8347
G01 X30.4067 Y12.8256
G01 X30.3994 Y12.8157
G01 X30.3931 Y12.8052
G01 X30.3903 Y12.7997
G01 X30.3856 Y12.7884
G01 X30.3820 Y12.7767
G01 X30.3797 Y12.7646
G01 X30.3785 Y12.7524
G01 X30.3783 Y12.7463
G01 X30.3783 Y11.0953
G01 X30.3789 Y11.0830
G01 X30.3807 Y11.0709
G01 X30.3820 Y11.0649
G01 X30.3856 Y11.0532
G01 X30.3903 Y11.0419
G01 X30.3931 Y11.0364
G01 X30.3994 Y11.0259
G01 X30.4029 Y11.0208
G01 X30.4107 Y11.0114
G01 X30.4149 Y11.0069
G01 X30.4240 Y10.9987
G01 X30.4288 Y10.9949
G01 X30.4390 Y10.9881
G01 X30.4499 Y10.9823
G01 X30.4555 Y10.9798
G01 X30.4612 Y10.9776
G01 X30.4729 Y10.9740
G01 X30.4789 Y10.9727
G01 X30.4910 Y10.9709
G01 X30.5033 Y10.9703
G01 X30.8226 Y10.9703
G01 X30.8226 Y10.8605
G01 X29.8491 Y9.8870
G01 X28.5455 Y9.8870
G01 X28.5455 Y9.9523
G01 X28.5449 Y9.9646
G01 X28.5431 Y9.9767
G01 X28.5401 Y9.9886
G01 X28.5360 Y10.0001
G01 X28.5307 Y10.0112
G01 X28.5277 Y10.0166
G01 X28.5209 Y10.0268
G01 X28.5131 Y10.0362
G01 X28.5044 Y10.0449
G01 X28.4950 Y10.0527
G01 X28.4848 Y10.0595
G01 X28.4739 Y10.0653
G01 X28.4683 Y10.0678
G01 X28.4626 Y10.0700
G01 X28.4509 Y10.0736
G01 X28.4388 Y10.0759
G01 X28.4266 Y10.0771
G01 X28.4205 Y10.0773
G01 X27.2686 Y10.0773
G01 X27.2444 Y10.1015
G01 X27.2444 Y13.1939
G01 X27.2438 Y13.2093
G01 X27.2414 Y13.2341
G01 X27.2389 Y13.2494
G01 X27.2342 Y13.2704
G01 X27.2269 Y13.2942
G01 X27.2215 Y13.3087
G01 X27.2154 Y13.3229
G01 X27.2062 Y13.3412
G01 X27.2062 Y14.0798
G01 X27.2056 Y14.0921
G01 X27.2048 Y14.0981
G01 X27.2038 Y14.1042
G01 X27.2008 Y14.1161
G01 X27.1989 Y14.1219
G01 X27.1942 Y14.1332
G01 X27.1914 Y14.1387
G01 X27.1851 Y14.1492
G01 X27.1816 Y14.1543
G01 X27.1738 Y14.1637
G01 X27.1651 Y14.1724
G01 X27.1605 Y14.1764
G01 X27.1506 Y14.1837
G01 X27.1455 Y14.1870
G01 X27.1346 Y14.1928
G01 X27.1233 Y14.1975
G01 X27.1175 Y14.1994
G01 X27.1056 Y14.2024
G01 X27.0935 Y14.2042
G01 X27.0812 Y14.2048
G01 X26.7703 Y14.2046
G01 X26.7581 Y14.2034
G01 X26.7460 Y14.2011
G01 X26.7343 Y14.1975
G01 X26.7230 Y14.1928
G01 X26.7122 Y14.1870
G01 X26.7070 Y14.1838
G01 X26.6971 Y14.1765
G01 X26.6881 Y14.1682
G01 X26.6838 Y14.1638
G01 X26.6760 Y14.1543
G01 X26.6692 Y14.1441
G01 X26.6662 Y14.1388
G01 X26.6609 Y14.1277
G01 X26.6587 Y14.1220
G01 X26.6552 Y14.1103
G01 X26.6528 Y14.0982
G01 X26.6520 Y14.0922
G01 X26.6514 Y14.0799
G01 X26.6507 Y13.3400
G01 X26.6422 Y13.3229
G01 X26.6361 Y13.3087
G01 X26.6307 Y13.2942
G01 X26.6234 Y13.2704
G01 X26.6199 Y13.2554
G01 X26.6162 Y13.2341
G01 X26.6145 Y13.2187
G01 X26.6135 Y13.2032
G01 X26.6132 Y13.1908
G01 X26.6132 Y10.0772
G00 Z1.0000
G00 X25.9632 Y12.1729
G01 F80.00
G01 Z-0.0100
G01 F200.00
G01 X25.9632 Y14.2087
G01 X25.9444 Y14.2087
G01 X25.9444 Y12.1729
G01 X25.9632 Y12.1729
G00 Z1.0000
G00 X25.3132 Y14.2087
G01 F80.00
G01 Z-0.0100
G01 F200.00
G01 X24.6975 Y14.2087
G01 X24.6975 Y12.1729
G01 X25.3132 Y12.1729
G01 X25.3132 Y14.2087
G00 Z1.0000
G00 X24.7014 Y14.0798
G01 F80.00
G01 Z-0.0100
G01 F200.00
G01 X24.7014 Y12.3018
G01 X24.7020 Y12.2895
G01 X24.7028 Y12.2835
G01 X24.7051 Y12.2714
G01 X24.7087 Y12.2597
G01 X24.7109 Y12.2540
G01 X24.7162 Y12.2429
G01 X24.7192 Y12.2375
G01 X24.7225 Y12.2324
G01 X24.7298 Y12.2225
G01 X24.7380 Y12.2134
G01 X24.7471 Y12.2052
G01 X24.7519 Y12.2014
G01 X24.7621 Y12.1946
G01 X24.7675 Y12.1916
G01 X24.7730 Y12.1888
G01 X24.7843 Y12.1841
G01 X24.7960 Y12.1805
G01 X24.8020 Y12.1792
G01 X24.8141 Y12.1774
G01 X24.8264 Y12.1768
G01 X25.1312 Y12.1768
G01 X25.1435 Y12.1774
G01 X25.1556 Y12.1792
G01 X25.1616 Y12.1805
G01 X25.1733 Y12.1841
G01 X25.1790 Y12.1863
G01 X25.1901 Y12.1916
G01 X25.1955 Y12.1946
G01 X25.2057 Y12.2014
G01 X25.2105 Y12.2052
G01 X25.2196 Y12.2134
G01 X25.2278 Y12.2225
G01 X25.2316 Y12.2273
G01 X25.2384 Y12.2375
G01 X25.2442 Y12.2484
G01 X25.2467 Y12.2540
G01 X25.2489 Y12.2597
G01 X25.2525 Y12.2714
G01 X25.2548 Y12.2835
G01 X25.2560 Y12.2957
G01 X25.2562 Y14.0798
G01 X25.2560 Y14.0859
G01 X25.2548 Y14.0981
G01 X25.2525 Y14.1102
G01 X25.2508 Y14.1161
G01 X25.2467 Y14.1276
G01 X25.2442 Y14.1332
G01 X25.2384 Y14.1441
G01 X25.2351 Y14.1492
G01 X25.2278 Y14.1591
G01 X25.2238 Y14.1637
G01 X25.2151 Y14.1724
G01 X25.2105 Y14.1764
G01 X25.2006 Y14.1837
G01 X25.1955 Y14.1870
G01 X25.1846 Y14.1928
G01 X25.1790 Y14.1953
G01 X25.1675 Y14.1994
G01 X25.1556 Y14.2024
G01 X25.1435 Y14.2042
G01 X25.1312 Y14.2048
G01 X24.8203 Y14.2046
G01 X24.8141 Y14.2042
G01 X24.8020 Y14.2024
G01 X24.7901 Y14.1994
G01 X24.7786 Y14.1953
G01 X24.7675 Y14.1900
G01 X24.7570 Y14.1837
G01 X24.7471 Y14.1764
G01 X24.7380 Y14.1682
G01 X24.7298 Y14.1591
G01 X24.7225 Y14.1492
G01 X24.7162 Y14.1387
G01 X24.7109 Y14.1276
G01 X24.7068 Y14.1161
G01 X24.7038 Y14.1042
G01 X24.7020 Y14.0921
G01 X24.7014 Y14.0798
G00 Z1.0000
G00 X26.6115 Y19.5246
G01 F80.00
G01 Z-0.0100
G01 F200.00
G01 X26.6132 Y19.5057
G01 X26.6132 Y15.6539
G01 X26.6138 Y15.6353
G01 X26.6162 Y15.6106
G01 X26.6199 Y15.5893
G01 X26.6259 Y15.5652
G01 X26.6307 Y15.5505
G01 X26.6384 Y15.5303
G01 X26.6491 Y15.5078
G01 X26.6566 Y15.4943
G01 X26.6647 Y15.4811
G01 X26.6772 Y15.4634
G01 X26.6929 Y15.4442
G01 X26.7035 Y15.4329
G01 X28.2859 Y13.8505
G01 X28.2834 Y13.8218
G01 X28.2826 Y13.7939
G01 X28.2826 Y12.4876
G01 X28.2536 Y12.4603
G01 X28.2236 Y12.4289
G01 X28.2033 Y12.4053
G01 X28.1802 Y12.3760
G01 X28.1552 Y12.3405
G01 X28.1354 Y12.3089
G01 X28.1171 Y12.2763
G01 X28.1031 Y12.2485
G01 X28.0855 Y12.2088
G01 X28.0743 Y12.1797
G01 X28.0625 Y12.1443
G01 X28.0524 Y12.1084
G01 X28.0428 Y12.0661
G01 X28.0366 Y12.0293
G01 X28.0328 Y11.9983
G01 X28.0296 Y11.9550
G01 X28.0288 Y11.9177
G01 X28.0296 Y11.8866
G01 X28.0328 Y11.8433
G01 X28.0366 Y11.8123
G01 X28.0428 Y11.7755
G01 X28.0524 Y11.7332
G01 X28.0625 Y11.6973
G01 X28.0743 Y11.6619
G01 X28.0879 Y11.6271
G01 X28.1031 Y11.5931
G01 X28.1200 Y11.5599
G01 X28.1385 Y11.5275
G01 X28.1586 Y11.4960
G01 X28.1802 Y11.4656
G01 X28.2033 Y11.4363
G01 X28.2278 Y11.4082
G01 X28.2536 Y11.3813
G01 X28.2807 Y11.3556
G01 X28.3091 Y11.3314
G01 X28.3386 Y11.3086
G01 X28.3691 Y11.2872
G01 X28.4007 Y11.2674
G01 X28.4333 Y11.2491
G01 X28.4611 Y11.2351
G01 X28.4951 Y11.2199
G01 X28.5299 Y11.2063
G01 X28.5653 Y11.1945
G01 X28.6012 Y11.1844
G01 X28.6375 Y11.1760
G01 X28.6743 Y11.1695
G01 X28.7113 Y11.1648
G01 X28.7484 Y11.1619
G01 X28.7857 Y11.1608
G01 X28.8230 Y11.1616
G01 X28.8602 Y11.1642
G01 X28.8973 Y11.1686
G01 X28.9341 Y11.1748
G01 X28.9705 Y11.1829
G01 X29.0065 Y11.1927
G01 X29.0477 Y11.2063
G01 X29.0825 Y11.2199
G01 X29.1165 Y11.2351
G01 X29.1443 Y11.2491
G01 X29.1769 Y11.2674
G01 X29.2136 Y11.2906
G01 X29.2440 Y11.3122
G01 X29.2685 Y11.3314
G01 X29.3014 Y11.3598
G01 X29.3283 Y11.3856
G01 X29.3498 Y11.4082
G01 X29.3782 Y11.4411
G01 X29.4010 Y11.4706
G01 X29.4190 Y11.4960
G01 X29.4422 Y11.5327
G01 X29.4605 Y11.5653
G01 X29.4745 Y11.5931
G01 X29.4921 Y11.6328
G01 X29.5033 Y11.6619
G01 X29.5151 Y11.6973
G01 X29.5267 Y11.7391
G01 X29.5348 Y11.7755
G01 X29.5401 Y11.8063
G01 X29.5454 Y11.8494
G01 X29.5480 Y11.8866
G01 X29.5488 Y11.9239
G01 X29.5480 Y11.9550
G01 X29.5448 Y11.9983
G01 X29.5401 Y12.0353
G01 X29.5336 Y12.0721
G01 X29.5252 Y12.1084
G01 X29.5169 Y12.1385
G01 X29.5054 Y12.1739
G01 X29.4921 Y12.2088
G01 X29.4745 Y12.2485
G01 X29.4576 Y12.2817
G01 X29.4391 Y12.3141
G01 X29.4224 Y12.3405
G01 X29.4010 Y12.3710
G01 X29.3782 Y12.4005
G01 X29.3498 Y12.4334
G01 X29.3240 Y12.4603
G01 X29.2950 Y12.4876
G01 X29.2950 Y13.7970
G01 X29.2945 Y13.8157
G01 X29.2928 Y13.8404
G01 X29.2890 Y13.8712
G01 X29.2846 Y13.8956
G01 X29.2805 Y13.9139
G01 X29.2740 Y13.9379
G01 X29.2664 Y13.9615
G01 X29.2576 Y13.9848
G01 X29.2450 Y14.0131
G01 X29.2366 Y14.0298
G01 X29.2245 Y14.0515
G01 X29.2114 Y14.0725
G01 X29.1972 Y14.0929
G01 X29.1820 Y14.1126
G01 X29.1659 Y14.1315
G01 X29.1489 Y14.1496
G01 X29.1310 Y14.1669
G01 X29.1123 Y14.1832
G01 X29.0928 Y14.1986
G01 X29.0675 Y14.2164
G01 X29.0464 Y14.2296
G01 X29.0247 Y14.2417
G01 X29.0080 Y14.2501
G01 X28.9853 Y14.2603
G01 X28.9564 Y14.2715
G01 X28.9328 Y14.2791
G01 X28.9088 Y14.2856
G01 X28.8845 Y14.2909
G01 X28.8600 Y14.2950
G01 X28.8415 Y14.2973
G01 X28.8167 Y14.2993
G01 X28.7919 Y14.3000
G01 X28.7670 Y14.2996
G01 X28.7422 Y14.2979
G01 X28.7322 Y14.2968
G01 X27.2444 Y15.7846
G01 X27.2444 Y19.5408
G01 X27.2441 Y19.5532
G01 X27.2431 Y19.5687
G01 X27.2405 Y19.5902
G01 X27.2377 Y19.6054
G01 X27.2342 Y19.6205
G01 X27.2299 Y19.6354
G01 X27.2249 Y19.6500
G01 X27.2192 Y19.6644
G01 X27.2127 Y19.6785
G01 X27.2057 Y19.6923
G01 X27.1979 Y19.7057
G01 X27.1895 Y19.7187
G01 X27.1804 Y19.7313
G01 X27.1708 Y19.7434
G01 X27.1606 Y19.7550
G01 X27.1520 Y19.7640
G01 X27.1407 Y19.7749
G01 X27.1291 Y19.7851
G01 X27.1170 Y19.7947
G01 X27.1044 Y19.8038
G01 X27.0914 Y19.8122
G01 X27.0726 Y19.8229
G01 X27.0587 Y19.8297
G01 X27.0444 Y19.8358
G01 X27.0299 Y19.8413
G01 X27.0152 Y19.8460
G01 X27.0002 Y19.8500
G01 X26.9851 Y19.8532
G01 X26.9698 Y19.8557
G01 X26.9544 Y19.8574
G01 X26.9389 Y19.8584
G01 X26.9235 Y19.8587
G01 X26.9080 Y19.8581
G01 X26.8925 Y19.8568
G01 X26.8772 Y19.8548
G01 X26.8619 Y19.8520
G01 X26.8469 Y19.8485
G01 X26.8320 Y19.8442
G01 X26.8173 Y19.8392
G01 X26.8029 Y19.8335
G01 X26.7888 Y19.8271
G01 X26.7751 Y19.8200
G01 X26.7617 Y19.8122
G01 X26.7487 Y19.8038
G01 X26.7361 Y19.7947
G01 X26.7240 Y19.7851
G01 X26.7123 Y19.7749
G01 X26.7012 Y19.7641
G01 X26.6845 Y19.7457
G01 X26.6749 Y19.7336
G01 X26.6658 Y19.7210
G01 X26.6574 Y19.7080
G01 X26.6497 Y19.6946
G01 X26.6426 Y19.6808
G01 X26.6362 Y19.6667
G01 X26.6284 Y19.6465
G01 X26.6237 Y19.6318
G01 X26.6197 Y19.6168
G01 X26.6164 Y19.6017
G01 X26.6139 Y19.5864
G01 X26.6122 Y19.5710
G01 X26.6112 Y19.5555
G01 X26.6110 Y19.5400
G01 X26.6115 Y19.5246
G00 Z1.0000
G00 X25.3132 Y20.1908
G01 F80.00
G01 Z-0.0100
G01 F200.00
G01 X25.3132 Y17.4908
G01 X25.3138 Y17.4723
G01 X25.3162 Y17.4475
G01 X25.3187 Y17.4322
G01 X25.3234 Y17.4112
G01 X25.3307 Y17.3874
G01 X25.3361 Y17.3729
G01 X25.3422 Y17.3587
G01 X25.3514 Y17.3404
G01 X25.3514 Y16.6018
G01 X25.3520 Y16.5895
G01 X25.3528 Y16.5835
G01 X25.3538 Y16.5774
G01 X25.3568 Y16.5655
G01 X25.3609 Y16.5540
G01 X25.3634 Y16.5484
G01 X25.3692 Y16.5375
G01 X25.3760 Y16.5273
G01 X25.3798 Y16.5225
G01 X25.3838 Y16.5179
G01 X25.3925 Y16.5092
G01 X25.4019 Y16.5014
G01 X25.4070 Y16.4979
G01 X25.4121 Y16.4946
G01 X25.4230 Y16.4888
G01 X25.4343 Y16.4841
G01 X25.4460 Y16.4805
G01 X25.4520 Y16.4792
G01 X25.4641 Y16.4774
G01 X25.4764 Y16.4768
G01 X25.7873 Y16.4770
G01 X25.7995 Y16.4782
G01 X25.8116 Y16.4805
G01 X25.8175 Y16.4822
G01 X25.8290 Y16.4863
G01 X25.8346 Y16.4888
G01 X25.8454 Y16.4946
G01 X25.8556 Y16.5014
G01 X25.8651 Y16.5091
G01 X25.8695 Y16.5134
G01 X25.8778 Y16.5225
G01 X25.8851 Y16.5323
G01 X25.8914 Y16.5428
G01 X25.8942 Y16.5483
G01 X25.8989 Y16.5596
G01 X25.9024 Y16.5713
G01 X25.9048 Y16.5834
G01 X25.9060 Y16.5956
G01 X25.9062 Y16.6017
G01 X25.9069 Y17.3416
G01 X25.9154 Y17.3587
G01 X25.9215 Y17.3729
G01 X25.9269 Y17.3874
G01 X25.9342 Y17.4112
G01 X25.9377 Y17.4262
G01 X25.9414 Y17.4475
G01 X25.9438 Y17.4723
G01 X25.9444 Y17.4877
G01 X25.9444 Y20.0601
G01 X25.9632 Y20.0789
G01 X25.9632 Y17.4908
G01 X25.9638 Y17.4723
G01 X25.9662 Y17.4475
G01 X25.9687 Y17.4322
G01 X25.9734 Y17.4112
G01 X25.9807 Y17.3874
G01 X25.9861 Y17.3729
G01 X25.9922 Y17.3587
G01 X26.0014 Y17.3404
G01 X26.0014 Y16.6018
G01 X26.0020 Y16.5895
G01 X26.0028 Y16.5835
G01 X26.0051 Y16.5714
G01 X26.0068 Y16.5655
G01 X26.0087 Y16.5597
G01 X26.0134 Y16.5484
G01 X26.0192 Y16.5375
G01 X26.0225 Y16.5324
G01 X26.0298 Y16.5225
G01 X26.0338 Y16.5179
G01 X26.0380 Y16.5134
G01 X26.0471 Y16.5052
G01 X26.0570 Y16.4979
G01 X26.0621 Y16.4946
G01 X26.0730 Y16.4888
G01 X26.0786 Y16.4863
G01 X26.0843 Y16.4841
G01 X26.0960 Y16.4805
G01 X26.1020 Y16.4792
G01 X26.1141 Y16.4774
G01 X26.1264 Y16.4768
G01 X26.4312 Y16.4768
G01 X26.4434 Y16.4774
G01 X26.4495 Y16.4782
G01 X26.4616 Y16.4805
G01 X26.4733 Y16.4841
G01 X26.4846 Y16.4888
G01 X26.4954 Y16.4946
G01 X26.5006 Y16.4978
G01 X26.5105 Y16.5051
G01 X26.5195 Y16.5134
G01 X26.5278 Y16.5225
G01 X26.5351 Y16.5323
G01 X26.5414 Y16.5428
G01 X26.5442 Y16.5483
G01 X26.5489 Y16.5596
G01 X26.5508 Y16.5654
G01 X26.5538 Y16.5773
G01 X26.5548 Y16.5834
G01 X26.5560 Y16.5956
G01 X26.5562 Y16.6017
G01 X26.5569 Y17.3416
G01 X26.5654 Y17.3587
G01 X26.5715 Y17.3729
G01 X26.5769 Y17.3874
G01 X26.5842 Y17.4112
G01 X26.5877 Y17.4262
G01 X26.5914 Y17.4475
G01 X26.5931 Y17.4629
G01 X26.5941 Y17.4784
G01 X26.5944 Y17.4908
G01 X26.5944 Y20.2746
G01 X28.9178 Y20.2746
G01 X28.9180 Y18.8997
G01 X28.9184 Y18.8935
G01 X28.9202 Y18.8814
G01 X28.9232 Y18.8695
G01 X28.9273 Y18.8580
G01 X28.9326 Y18.8469
G01 X28.9356 Y18.8415
G01 X28.9424 Y18.8313
G01 X28.9462 Y18.8265
G01 X28.9544 Y18.8174
G01 X28.9635 Y18.8092
G01 X28.9734 Y18.8019
G01 X28.9839 Y18.7956
G01 X28.9894 Y18.7928
G01 X28.9950 Y18.7903
G01 X29.0065 Y18.7862
G01 X29.0124 Y18.7845
G01 X29.0245 Y18.7822
G01 X29.0305 Y18.7814
G01 X29.0428 Y18.7808
G01 X31.0748 Y18.7808
G01 X31.0871 Y18.7814
G01 X31.0992 Y18.7832
G01 X31.1052 Y18.7845
G01 X31.1169 Y18.7881
G01 X31.1282 Y18.7928
G01 X31.1391 Y18.7986
G01 X31.1493 Y18.8054
G01 X31.1587 Y18.8132
G01 X31.1632 Y18.8174
G01 X31.1714 Y18.8265
G01 X31.1787 Y18.8364
G01 X31.1820 Y18.8415
G01 X31.1878 Y18.8524
G01 X31.1925 Y18.8637
G01 X31.1944 Y18.8695
G01 X31.1974 Y18.8814
G01 X31.1992 Y18.8935
G01 X31.1998 Y18.9058
G01 X31.1998 Y20.3046
G01 X35.2170 Y20.3046
G01 X35.2170 Y20.0488
G01 X35.2176 Y20.0365
G01 X35.2184 Y20.0305
G01 X35.2207 Y20.0184
G01 X35.2224 Y20.0125
G01 X35.2265 Y20.0010
G01 X35.2290 Y19.9954
G01 X35.2318 Y19.9899
G01 X35.2381 Y19.9794
G01 X35.2416 Y19.9743
G01 X35.2494 Y19.9649
G01 X35.2536 Y19.9604
G01 X35.2627 Y19.9522
G01 X35.2675 Y19.9484
G01 X35.2777 Y19.9416
G01 X35.2886 Y19.9358
G01 X35.2999 Y19.9311
G01 X35.3057 Y19.9292
G01 X35.3176 Y19.9262
G01 X35.3237 Y19.9252
G01 X35.3297 Y19.9244
G01 X35.3420 Y19.9238
G01 X37.3740 Y19.9238
G01 X37.3863 Y19.9244
G01 X37.3984 Y19.9262
G01 X37.4103 Y19.9292
G01 X37.4218 Y19.9333
G01 X37.4274 Y19.9358
G01 X37.4383 Y19.9416
G01 X37.4485 Y19.9484
G01 X37.4533 Y19.9522
G01 X37.4579 Y19.9562
G01 X37.4666 Y19.9649
G01 X37.4744 Y19.9743
G01 X37.4779 Y19.9794
G01 X37.4842 Y19.9899
G01 X37.4870 Y19.9954
G01 X37.4917 Y20.0067
G01 X37.4936 Y20.0125
G01 X37.4953 Y20.0184
G01 X37.4976 Y20.0305
G01 X37.4988 Y20.0427
G01 X37.4990 Y21.5728
G01 X37.4984 Y21.5851
G01 X37.4966 Y21.5972
G01 X37.4936 Y21.6091
G01 X37.4895 Y21.6206
G01 X37.4842 Y21.6317
G01 X37.4812 Y21.6371
G01 X37.4744 Y21.6473
G01 X37.4666 Y21.6567
G01 X37.4579 Y21.6654
G01 X37.4485 Y21.6732
G01 X37.4383 Y21.6800
G01 X37.4274 Y21.6858
G01 X37.4218 Y21.6883
G01 X37.4103 Y21.6924
G01 X37.3984 Y21.6954
G01 X37.3863 Y21.6972
G01 X37.3801 Y21.6976
G01 X35.3420 Y21.6978
G01 X35.3297 Y21.6972
G01 X35.3176 Y21.6954
G01 X35.3116 Y21.6941
G01 X35.3057 Y21.6924
G01 X35.2942 Y21.6883
G01 X35.2831 Y21.6830
G01 X35.2777 Y21.6800
G01 X35.2675 Y21.6732
G01 X35.2627 Y21.6694
G01 X35.2536 Y21.6612
G01 X35.2494 Y21.6567
G01 X35.2454 Y21.6521
G01 X35.2381 Y21.6422
G01 X35.2348 Y21.6371
G01 X35.2290 Y21.6262
G01 X35.2265 Y21.6206
G01 X35.2224 Y21.6091
G01 X35.2207 Y21.6032
G01 X35.2184 Y21.5911
G01 X35.2172 Y21.5789
G01 X35.2170 Y21.5728
G01 X35.2170 Y21.3170
G01 X34.3750 Y21.3170
G01 X34.3750 Y26.1341
G01 X34.4403 Y26.1341
G01 X34.4526 Y26.1347
G01 X34.4586 Y26.1355
G01 X34.4707 Y26.1378
G01 X34.4824 Y26.1414
G01 X34.4937 Y26.1461
G01 X34.5046 Y26.1519
G01 X34.5097 Y26.1552
G01 X34.5196 Y26.1625
G01 X34.5287 Y26.1707
G01 X34.5369 Y26.1798
G01 X34.5407 Y26.1846
G01 X34.5475 Y26.1948
G01 X34.5533 Y26.2057
G01 X34.5558 Y26.2113
G01 X34.5599 Y26.2228
G01 X34.5629 Y26.2347
G01 X34.5647 Y26.2468
G01 X34.5653 Y26.2591
G01 X34.5653 Y28.0625
G01 X34.5647 Y28.0748
G01 X34.5629 Y28.0869
G01 X34.5599 Y28.0988
G01 X34.5558 Y28.1103
G01 X34.5505 Y28.1214
G01 X34.5475 Y28.1268
G01 X34.5407 Y28.1370
G01 X34.5329 Y28.1464
G01 X34.5242 Y28.1551
G01 X34.5148 Y28.1629
G01 X34.5097 Y28.1664
G01 X34.4992 Y28.1727
G01 X34.4881 Y28.1780
G01 X34.4766 Y28.1821
G01 X34.4647 Y28.1851
G01 X34.4526 Y28.1869
G01 X34.4403 Y28.1875
G01 X33.2973 Y28.1875
G01 X33.2912 Y28.1873
G01 X33.2790 Y28.1861
G01 X33.2669 Y28.1838
G01 X33.2610 Y28.1821
G01 X33.2495 Y28.1780
G01 X33.2439 Y28.1755
G01 X33.2330 Y28.1697
G01 X33.2228 Y28.1629
G01 X33.2134 Y28.1551
G01 X33.2089 Y28.1509
G01 X33.2007 Y28.1418
G01 X33.1969 Y28.1370
G01 X33.1934 Y28.1319
G01 X33.1871 Y28.1214
G01 X33.1843 Y28.1159
G01 X33.1796 Y28.1046
G01 X33.1777 Y28.0988
G01 X33.1747 Y28.0869
G01 X33.1729 Y28.0748
G01 X33.1723 Y28.0625
G01 X33.1723 Y27.6670
G01 X32.4698 Y27.6670
G01 X32.4698 Y28.1768
G01 X32.4692 Y28.1891
G01 X32.4684 Y28.1951
G01 X32.4674 Y28.2012
G01 X32.4644 Y28.2131
G01 X32.4603 Y28.2246
G01 X32.4550 Y28.2357
G01 X32.4520 Y28.2411
G01 X32.4487 Y28.2462
G01 X32.4414 Y28.2561
G01 X32.4332 Y28.2652
G01 X32.4287 Y28.2694
G01 X32.4241 Y28.2734
G01 X32.4142 Y28.2807
G01 X32.4037 Y28.2870
G01 X32.3982 Y28.2898
G01 X32.3926 Y28.2923
G01 X32.3811 Y28.2964
G01 X32.3692 Y28.2994
G01 X32.3631 Y28.3004
G01 X32.3571 Y28.3012
G01 X32.3448 Y28.3018
G01 X30.3128 Y28.3018
G01 X30.3005 Y28.3012
G01 X30.2884 Y28.2994
G01 X30.2765 Y28.2964
G01 X30.2650 Y28.2923
G01 X30.2539 Y28.2870
G01 X30.2434 Y28.2807
G01 X30.2335 Y28.2734
G01 X30.2289 Y28.2694
G01 X30.2202 Y28.2607
G01 X30.2124 Y28.2513
G01 X30.2089 Y28.2462
G01 X30.2026 Y28.2357
G01 X30.1973 Y28.2246
G01 X30.1932 Y28.2131
G01 X30.1902 Y28.2012
G01 X30.1884 Y28.1891
G01 X30.1878 Y28.1768
G01 X30.1880 Y26.1387
G01 X30.1892 Y26.1265
G01 X30.1915 Y26.1144
G01 X30.1932 Y26.1085
G01 X30.1973 Y26.0970
G01 X30.2026 Y26.0859
G01 X30.2056 Y26.0805
G01 X30.2089 Y26.0754
G01 X30.2162 Y26.0655
G01 X30.2244 Y26.0564
G01 X30.2335 Y26.0482
G01 X30.2434 Y26.0409
G01 X30.2485 Y26.0376
G01 X30.2539 Y26.0346
G01 X30.2650 Y26.0293
G01 X30.2765 Y26.0252
G01 X30.2824 Y26.0235
G01 X30.2945 Y26.0212
G01 X30.3067 Y26.0200
G01 X30.3128 Y26.0198
G01 X32.3448 Y26.0198
G01 X32.3571 Y26.0204
G01 X32.3692 Y26.0222
G01 X32.3811 Y26.0252
G01 X32.3926 Y26.0293
G01 X32.4037 Y26.0346
G01 X32.4091 Y26.0376
G01 X32.4193 Y26.0444
G01 X32.4241 Y26.0482
G01 X32.4287 Y26.0522
G01 X32.4374 Y26.0609
G01 X32.4414 Y26.0655
G01 X32.4487 Y26.0754
G01 X32.4550 Y26.0859
G01 X32.4578 Y26.0914
G01 X32.4603 Y26.0970
G01 X32.4644 Y26.1085
G01 X32.4674 Y26.1204
G01 X32.4684 Y26.1265
G01 X32.4692 Y26.1325
G01 X32.4698 Y26.1448
G01 X32.4698 Y26.6546
G01 X33.1723 Y26.6546
G01 X33.1723 Y26.2591
G01 X33.1729 Y26.2468
G01 X33.1737 Y26.2408
G01 X33.1760 Y26.2287
G01 X33.1796 Y26.2170
G01 X33.1843 Y26.2057
G01 X33.1901 Y26.1948
G01 X33.1969 Y26.1846
G01 X33.2047 Y26.1752
G01 X33.2134 Y26.1665
G01 X33.2228 Y26.1587
G01 X33.2330 Y26.1519
G01 X33.2439 Y26.1461
G01 X33.2552 Y26.1414
G01 X33.2669 Y26.1378
G01 X33.2790 Y26.1355
G01 X33.2850 Y26.1347
G01 X33.2973 Y26.1341
G01 X33.3626 Y26.1341
G01 X33.3626 Y21.3170
G01 X31.1998 Y21.3170
G01 X31.1996 Y22.7219
G01 X31.1992 Y22.7281
G01 X31.1974 Y22.7402
G01 X31.1944 Y22.7521
G01 X31.1903 Y22.7636
G01 X31.1850 Y22.7747
G01 X31.1787 Y22.7852
G01 X31.1714 Y22.7951
G01 X31.1674 Y22.7997
G01 X31.1587 Y22.8084
G01 X31.1493 Y22.8162
G01 X31.1442 Y22.8197
G01 X31.1337 Y22.8260
G01 X31.1226 Y22.8313
G01 X31.1111 Y22.8354
G01 X31.1052 Y22.8371
G01 X31.0931 Y22.8394
G01 X31.0871 Y22.8402
G01 X31.0748 Y22.8408
G01 X29.0428 Y22.8408
G01 X29.0305 Y22.8402
G01 X29.0245 Y22.8394
G01 X29.0124 Y22.8371
G01 X29.0007 Y22.8335
G01 X28.9894 Y22.8288
G01 X28.9785 Y22.8230
G01 X28.9683 Y22.8162
G01 X28.9589 Y22.8084
G01 X28.9544 Y22.8042
G01 X28.9462 Y22.7951
G01 X28.9389 Y22.7852
G01 X28.9326 Y22.7747
G01 X28.9273 Y22.7636
G01 X28.9232 Y22.7521
G01 X28.9202 Y22.7402
G01 X28.9184 Y22.7281
G01 X28.9178 Y22.7158
G01 X28.9178 Y21.2870
G01 X28.0250 Y21.2870
G01 X28.0250 Y21.3843
G01 X28.4205 Y21.3843
G01 X28.4328 Y21.3849
G01 X28.4388 Y21.3857
G01 X28.4449 Y21.3867
G01 X28.4568 Y21.3897
G01 X28.4683 Y21.3938
G01 X28.4794 Y21.3991
G01 X28.4848 Y21.4021
G01 X28.4950 Y21.4089
G01 X28.4998 Y21.4127
G01 X28.5044 Y21.4167
G01 X28.5131 Y21.4254
G01 X28.5209 Y21.4348
G01 X28.5277 Y21.4450
G01 X28.5307 Y21.4504
G01 X28.5335 Y21.4559
G01 X28.5382 Y21.4672
G01 X28.5418 Y21.4789
G01 X28.5441 Y21.4910
G01 X28.5453 Y21.5032
G01 X28.5455 Y21.5093
G01 X28.5455 Y22.6523
G01 X28.5449 Y22.6646
G01 X28.5431 Y22.6767
G01 X28.5401 Y22.6886
G01 X28.5360 Y22.7001
G01 X28.5307 Y22.7112
G01 X28.5244 Y22.7217
G01 X28.5171 Y22.7316
G01 X28.5089 Y22.7407
G01 X28.4998 Y22.7489
G01 X28.4899 Y22.7562
G01 X28.4794 Y22.7625
G01 X28.4683 Y22.7678
G01 X28.4568 Y22.7719
G01 X28.4449 Y22.7749
G01 X28.4328 Y22.7767
G01 X28.4205 Y22.7773
G01 X26.6171 Y22.7773
G01 X26.6048 Y22.7767
G01 X26.5988 Y22.7759
G01 X26.5867 Y22.7736
G01 X26.5750 Y22.7700
G01 X26.5693 Y22.7678
G01 X26.5582 Y22.7625
G01 X26.5477 Y22.7562
G01 X26.5426 Y22.7527
G01 X26.5332 Y22.7449
G01 X26.5245 Y22.7362
G01 X26.5205 Y22.7316
G01 X26.5132 Y22.7217
G01 X26.5069 Y22.7112
G01 X26.5041 Y22.7057
G01 X26.5016 Y22.7001
G01 X26.4975 Y22.6886
G01 X26.4945 Y22.6767
G01 X26.4927 Y22.6646
G01 X26.4921 Y22.6523
G01 X26.4921 Y21.5093
G01 X26.4923 Y21.5032
G01 X26.4935 Y21.4910
G01 X26.4958 Y21.4789
G01 X26.4975 Y21.4730
G01 X26.4994 Y21.4672
G01 X26.5041 Y21.4559
G01 X26.5099 Y21.4450
G01 X26.5167 Y21.4348
G01 X26.5205 Y21.4300
G01 X26.5245 Y21.4254
G01 X26.5332 Y21.4167
G01 X26.5426 Y21.4089
G01 X26.5477 Y21.4054
G01 X26.5528 Y21.4021
G01 X26.5637 Y21.3963
G01 X26.5693 Y21.3938
G01 X26.5808 Y21.3897
G01 X26.5867 Y21.3880
G01 X26.5988 Y21.3857
G01 X26.6048 Y21.3849
G01 X26.6171 Y21.3843
G01 X27.0126 Y21.3843
G01 X27.0126 Y21.2870
G01 X26.2788 Y21.2870
G01 X26.2570 Y21.2865
G01 X26.2322 Y21.2848
G01 X26.2076 Y21.2819
G01 X26.1770 Y21.2766
G01 X26.1528 Y21.2710
G01 X26.1348 Y21.2660
G01 X26.1112 Y21.2584
G01 X26.0879 Y21.2496
G01 X26.0596 Y21.2370
G01 X26.0375 Y21.2257
G01 X26.0160 Y21.2134
G01 X26.0001 Y21.2034
G01 X25.9797 Y21.1892
G01 X25.9553 Y21.1701
G01 X25.9412 Y21.1579
G01 X25.9231 Y21.1409
G01 X25.9058 Y21.1230
G01 X25.8856 Y21.0995
G01 X25.8704 Y21.0799
G01 X25.8562 Y21.0595
G01 X25.8462 Y21.0436
G01 X25.8339 Y21.0221
G01 X25.8226 Y21.0000
G01 X25.8100 Y20.9717
G01 X25.8012 Y20.9484
G01 X25.7936 Y20.9248
G01 X25.7886 Y20.9068
G01 X25.7830 Y20.8826
G01 X25.7777 Y20.8520
G01 X25.7754 Y20.8335
G01 X25.7734 Y20.8087
G01 X25.7726 Y20.7810
G01 X25.4056 Y20.4140
G01 X25.3970 Y20.4050
G01 X25.3868 Y20.3934
G01 X25.3772 Y20.3812
G01 X25.3681 Y20.3687
G01 X25.3566 Y20.3504
G01 X25.3449 Y20.3285
G01 X25.3361 Y20.3087
G01 X25.3277 Y20.2853
G01 X25.3220 Y20.2645
G01 X25.3171 Y20.2401
G01 X25.3145 Y20.2187
G01 X25.3135 Y20.2032
G01 X25.3132 Y20.1908
G00 Z1.0000
G00 X26.4882 Y24.8541
G01 F80.00
G01 Z-0.0100
G01 F200.00
G01 X26.4882 Y24.3804
G01 X27.2921 Y24.3804
G01 X27.2921 Y24.3843
G01 X26.6110 Y24.3845
G01 X26.5988 Y24.3857
G01 X26.5927 Y24.3867
G01 X26.5808 Y24.3897
G01 X26.5693 Y24.3938
G01 X26.5582 Y24.3991
G01 X26.5528 Y24.4021
G01 X26.5426 Y24.4089
G01 X26.5378 Y24.4127
G01 X26.5287 Y24.4209
G01 X26.5205 Y24.4300
G01 X26.5132 Y24.4399
G01 X26.5069 Y24.4504
G01 X26.5016 Y24.4615
G01 X26.4994 Y24.4672
G01 X26.4958 Y24.4789
G01 X26.4935 Y24.4910
G01 X26.4927 Y24.4970
G01 X26.4921 Y24.5093
G01 X26.4921 Y24.8541
G01 X26.4882 Y24.8541
G00 Z1.0000
G00 X26.4921 Y25.3075
G01 F80.00
G01 Z-0.0100
G01 F200.00
G01 X26.4921 Y25.6523
G01 X26.4923 Y25.6584
G01 X26.4935 Y25.6706
G01 X26.4958 Y25.6827
G01 X26.4994 Y25.6944
G01 X26.5016 Y25.7001
G01 X26.5041 Y25.7057
G01 X26.5099 Y25.7166
G01 X26.5167 Y25.7268
G01 X26.5245 Y25.7362
G01 X26.5287 Y25.7407
G01 X26.5378 Y25.7489
G01 X26.5477 Y25.7562
G01 X26.5582 Y25.7625
G01 X26.5637 Y25.7653
G01 X26.5750 Y25.7700
G01 X26.5867 Y25.7736
G01 X26.5927 Y25.7749
G01 X26.6048 Y25.7767
G01 X26.6171 Y25.7773
G01 X27.4994 Y25.7773
G01 X27.5388 Y25.8166
G01 X27.5267 Y25.8095
G01 X27.5113 Y25.8017
G01 X27.5011 Y25.7974
G01 X27.4859 Y25.7919
G01 X27.4693 Y25.7873
G01 X27.4584 Y25.7850
G01 X27.4425 Y25.7827
G01 X27.4253 Y25.7814
G01 X26.4882 Y25.7812
G01 X26.4882 Y25.3075
G01 X26.4921 Y25.3075
G00 Z1.0000
G00 X27.6085 Y25.8863
G01 F80.00
G01 Z-0.0100
G01 F200.00
G01 X27.7451 Y26.0229
G01 X27.7365 Y26.0252
G01 X27.7250 Y26.0293
G01 X27.7194 Y26.0318
G01 X27.7085 Y26.0376
G01 X27.7034 Y26.0409
G01 X27.6935 Y26.0482
G01 X27.6844 Y26.0564
G01 X27.6802 Y26.0609
G01 X27.6762 Y26.0655
G01 X27.6689 Y26.0754
G01 X27.6656 Y26.0805
G01 X27.6598 Y26.0914
G01 X27.6573 Y26.0970
G01 X27.6532 Y26.1085
G01 X27.6502 Y26.1204
G01 X27.6484 Y26.1325
G01 X27.6478 Y26.1448
G01 X27.6478 Y26.9341
G01 X27.6439 Y26.9341
G01 X27.6437 Y25.9998
G01 X27.6424 Y25.9826
G01 X27.6401 Y25.9667
G01 X27.6378 Y25.9558
G01 X27.6332 Y25.9392
G01 X27.6277 Y25.9240
G01 X27.6234 Y25.9138
G01 X27.6156 Y25.8984
G01 X27.6085 Y25.8863
G00 Z1.0000
G00 X28.5494 Y25.3956
G01 F80.00
G01 Z-0.0100
G01 F200.00
G01 X28.5455 Y25.3916
G01 X28.5455 Y25.3075
G01 X28.5494 Y25.3075
G01 X28.5494 Y25.3956
G00 Z1.0000
G00 X28.5455 Y24.5093
G01 F80.00
G01 Z-0.0100
G01 F200.00
G01 X28.5453 Y24.5032
G01 X28.5441 Y24.4910
G01 X28.5418 Y24.4789
G01 X28.5382 Y24.4672
G01 X28.5335 Y24.4559
G01 X28.5277 Y24.4450
G01 X28.5209 Y24.4348
G01 X28.5131 Y24.4254
G01 X28.5044 Y24.4167
G01 X28.4998 Y24.4127
G01 X28.4899 Y24.4054
G01 X28.4794 Y24.3991
G01 X28.4739 Y24.3963
G01 X28.4626 Y24.3916
G01 X28.4509 Y24.3880
G01 X28.4388 Y24.3857
G01 X28.4266 Y24.3845
G01 X28.4205 Y24.3843
G01 X27.7455 Y24.3843
G01 X27.7455 Y24.3804
G01 X28.5494 Y24.3804
G01 X28.5494 Y24.8541
G01 X28.5455 Y24.8541
G01 X28.5455 Y24.5093
G00 Z1.0000
G00 X27.6478 Y28.1768
G01 F80.00
G01 Z-0.0100
G01 F200.00
G01 X27.6484 Y28.1891
G01 X27.6492 Y28.1951
G01 X27.6515 Y28.2072
G01 X27.6551 Y28.2189
G01 X27.6598 Y28.2302
G01 X27.6656 Y28.2411
G01 X27.6689 Y28.2462
G01 X27.6762 Y28.2561
G01 X27.6844 Y28.2652
G01 X27.6935 Y28.2734
G01 X27.7034 Y28.2807
G01 X27.7085 Y28.2840
G01 X27.7194 Y28.2898
G01 X27.7307 Y28.2945
G01 X27.7424 Y28.2981
G01 X27.7484 Y28.2994
G01 X27.7605 Y28.3012
G01 X27.7728 Y28.3018
G01 X28.2826 Y28.3018
G01 X28.2826 Y28.3057
G01 X27.6439 Y28.3057
G01 X27.6439 Y27.3875
G01 X27.6478 Y27.3875
G01 X27.6478 Y28.1768
G00 Z1.0000
G00 X25.2055 Y29.0043
G01 F80.00
G01 Z-0.0100
G01 F200.00
G01 X25.2055 Y29.0004
G01 X26.0094 Y29.0004
G01 X26.0094 Y29.1946
G01 X26.0055 Y29.1946
G01 X26.0055 Y29.1293
G01 X26.0053 Y29.1232
G01 X26.0041 Y29.1110
G01 X26.0018 Y29.0989
G01 X25.9982 Y29.0872
G01 X25.9935 Y29.0759
G01 X25.9907 Y29.0704
G01 X25.9844 Y29.0599
G01 X25.9771 Y29.0500
G01 X25.9689 Y29.0409
G01 X25.9644 Y29.0367
G01 X25.9550 Y29.0289
G01 X25.9448 Y29.0221
G01 X25.9339 Y29.0163
G01 X25.9226 Y29.0116
G01 X25.9109 Y29.0080
G01 X25.8988 Y29.0057
G01 X25.8928 Y29.0049
G01 X25.8805 Y29.0043
G01 X25.2055 Y29.0043
G00 Z1.0000
G00 X24.0771 Y29.0043
G01 F80.00
G01 Z-0.0100
G01 F200.00
G01 X24.0710 Y29.0045
G01 X24.0588 Y29.0057
G01 X24.0467 Y29.0080
G01 X24.0350 Y29.0116
G01 X24.0237 Y29.0163
G01 X24.0182 Y29.0191
G01 X24.0077 Y29.0254
G01 X23.9978 Y29.0327
G01 X23.9932 Y29.0367
G01 X23.9887 Y29.0409
G01 X23.9805 Y29.0500
G01 X23.9732 Y29.0599
G01 X23.9669 Y29.0704
G01 X23.9616 Y29.0815
G01 X23.9575 Y29.0930
G01 X23.9545 Y29.1049
G01 X23.9535 Y29.1110
G01 X23.9523 Y29.1232
G01 X23.9521 Y29.1946
G01 X23.9482 Y29.1946
G01 X23.9482 Y29.0004
G01 X24.7521 Y29.0004
G01 X24.7521 Y29.0043
G01 X24.0771 Y29.0043
G00 Z1.0000
G00 X23.9482 Y30.2070
G01 F80.00
G01 Z-0.0100
G01 F200.00
G01 X23.9521 Y30.2070
G01 X23.9521 Y30.2723
G01 X23.9523 Y30.2784
G01 X23.9535 Y30.2906
G01 X23.9558 Y30.3027
G01 X23.9594 Y30.3144
G01 X23.9616 Y30.3201
G01 X23.9669 Y30.3312
G01 X23.9732 Y30.3417
G01 X23.9805 Y30.3516
G01 X23.9887 Y30.3607
G01 X23.9978 Y30.3689
G01 X24.0077 Y30.3762
G01 X24.0182 Y30.3825
G01 X24.0237 Y30.3853
G01 X24.0350 Y30.3900
G01 X24.0467 Y30.3936
G01 X24.0588 Y30.3959
G01 X24.0648 Y30.3967
G01 X24.0771 Y30.3973
G01 X24.7521 Y30.3973
G01 X24.7521 Y30.4012
G01 X23.9482 Y30.4012
G01 X23.9482 Y30.2070
G00 Z1.0000
G00 X22.6655 Y30.3973
G01 F80.00
G01 Z-0.0100
G01 F200.00
G01 X23.3405 Y30.3973
G01 X23.3528 Y30.3967
G01 X23.3649 Y30.3949
G01 X23.3709 Y30.3936
G01 X23.3768 Y30.3919
G01 X23.3883 Y30.3878
G01 X23.3994 Y30.3825
G01 X23.4099 Y30.3762
G01 X23.4198 Y30.3689
G01 X23.4289 Y30.3607
G01 X23.4371 Y30.3516
G01 X23.4444 Y30.3417
G01 X23.4507 Y30.3312
G01 X23.4535 Y30.3257
G01 X23.4582 Y30.3144
G01 X23.4618 Y30.3027
G01 X23.4641 Y30.2906
G01 X23.4649 Y30.2846
G01 X23.4655 Y30.2723
G01 X23.4655 Y30.2070
G01 X23.4694 Y30.2070
G01 X23.4694 Y30.4012
G01 X22.6655 Y30.4012
G01 X22.6655 Y30.3973
G00 Z1.0000
G00 X21.4082 Y30.2070
G01 F80.00
G01 Z-0.0100
G01 F200.00
G01 X21.4121 Y30.2070
G01 X21.4121 Y30.2723
G01 X21.4123 Y30.2784
G01 X21.4135 Y30.2906
G01 X21.4158 Y30.3027
G01 X21.4194 Y30.3144
G01 X21.4216 Y30.3201
G01 X21.4269 Y30.3312
G01 X21.4332 Y30.3417
G01 X21.4405 Y30.3516
G01 X21.4487 Y30.3607
G01 X21.4578 Y30.3689
G01 X21.4677 Y30.3762
G01 X21.4782 Y30.3825
G01 X21.4837 Y30.3853
G01 X21.4950 Y30.3900
G01 X21.5067 Y30.3936
G01 X21.5188 Y30.3959
G01 X21.5248 Y30.3967
G01 X21.5371 Y30.3973
G01 X22.2121 Y30.3973
G01 X22.2121 Y30.4012
G01 X21.4082 Y30.4012
G01 X21.4082 Y30.2070
G00 Z1.0000
G00 X20.8005 Y30.3973
G01 F80.00
G01 Z-0.0100
G01 F200.00
G01 X20.8128 Y30.3967
G01 X20.8188 Y30.3959
G01 X20.8309 Y30.3936
G01 X20.8368 Y30.3919
G01 X20.8483 Y30.3878
G01 X20.8594 Y30.3825
G01 X20.8648 Y30.3795
G01 X20.8750 Y30.3727
G01 X20.8844 Y30.3649
G01 X20.8931 Y30.3562
G01 X20.9009 Y30.3468
G01 X20.9044 Y30.3417
G01 X20.9107 Y30.3312
G01 X20.9160 Y30.3201
G01 X20.9201 Y30.3086
G01 X20.9231 Y30.2967
G01 X20.9249 Y30.2846
G01 X20.9253 Y30.2784
G01 X20.9255 Y30.2070
G01 X20.9294 Y30.2070
G01 X20.9294 Y30.4012
G01 X20.1255 Y30.4012
G01 X20.1255 Y30.3973
G01 X20.8005 Y30.3973
G00 Z1.0000
G00 X20.1255 Y29.0043
G01 F80.00
G01 Z-0.0100
G01 F200.00
G01 X20.1255 Y29.0004
G01 X20.9294 Y29.0004
G01 X20.9294 Y29.1946
G01 X20.9255 Y29.1946
G01 X20.9255 Y29.1293
G01 X20.9253 Y29.1232
G01 X20.9241 Y29.1110
G01 X20.9218 Y29.0989
G01 X20.9182 Y29.0872
G01 X20.9160 Y29.0815
G01 X20.9107 Y29.0704
G01 X20.9044 Y29.0599
G01 X20.8971 Y29.0500
G01 X20.8889 Y29.0409
G01 X20.8798 Y29.0327
G01 X20.8699 Y29.0254
G01 X20.8594 Y29.0191
G01 X20.8539 Y29.0163
G01 X20.8426 Y29.0116
G01 X20.8309 Y29.0080
G01 X20.8188 Y29.0057
G01 X20.8128 Y29.0049
G01 X20.8005 Y29.0043
G01 X20.1255 Y29.0043
G00 Z1.0000
G00 X18.9971 Y29.0043
G01 F80.00
G01 Z-0.0100
G01 F200.00
G01 X18.9910 Y29.0045
G01 X18.9788 Y29.0057
G01 X18.9667 Y29.0080
G01 X18.9550 Y29.0116
G01 X18.9437 Y29.0163
G01 X18.9382 Y29.0191
G01 X18.9277 Y29.0254
G01 X18.9178 Y29.0327
G01 X18.9132 Y29.0367
G01 X18.9087 Y29.0409
G01 X18.9005 Y29.0500
G01 X18.8932 Y29.0599
G01 X18.8869 Y29.0704
G01 X18.8816 Y29.0815
G01 X18.8775 Y29.0930
G01 X18.8745 Y29.1049
G01 X18.8735 Y29.1110
G01 X18.8723 Y29.1232
G01 X18.8721 Y29.1946
G01 X18.8682 Y29.1946
G01 X18.8682 Y29.0004
G01 X19.6721 Y29.0004
G01 X19.6721 Y29.0043
G01 X18.9971 Y29.0043
G00 Z1.0000
G00 X18.8682 Y30.2070
G01 F80.00
G01 Z-0.0100
G01 F200.00
G01 X18.8721 Y30.2070
G01 X18.8721 Y30.2723
G01 X18.8723 Y30.2784
G01 X18.8735 Y30.2906
G01 X18.8758 Y30.3027
G01 X18.8794 Y30.3144
G01 X18.8841 Y30.3257
G01 X18.8869 Y30.3312
G01 X18.8932 Y30.3417
G01 X18.9005 Y30.3516
G01 X18.9087 Y30.3607
G01 X18.9132 Y30.3649
G01 X18.9226 Y30.3727
G01 X18.9328 Y30.3795
G01 X18.9437 Y30.3853
G01 X18.9550 Y30.3900
G01 X18.9667 Y30.3936
G01 X18.9788 Y30.3959
G01 X18.9848 Y30.3967
G01 X18.9971 Y30.3973
G01 X19.6721 Y30.3973
G01 X19.6721 Y30.4012
G01 X18.8682 Y30.4012
G01 X18.8682 Y30.2070
G00 Z1.0000
G00 X18.2605 Y30.3973
G01 F80.00
G01 Z-0.0100
G01 F200.00
G01 X18.2728 Y30.3967
G01 X18.2788 Y30.3959
G01 X18.2909 Y30.3936
G01 X18.2968 Y30.3919
G01 X18.3083 Y30.3878
G01 X18.3194 Y30.3825
G01 X18.3248 Y30.3795
G01 X18.3350 Y30.3727
G01 X18.3444 Y30.3649
G01 X18.3531 Y30.3562
G01 X18.3609 Y30.3468
G01 X18.3644 Y30.3417
G01 X18.3707 Y30.3312
G01 X18.3760 Y30.3201
G01 X18.3801 Y30.3086
G01 X18.3831 Y30.2967
G01 X18.3849 Y30.2846
G01 X18.3853 Y30.2784
G01 X18.3855 Y30.2070
G01 X18.3894 Y30.2070
G01 X18.3894 Y30.4012
G01 X17.5855 Y30.4012
G01 X17.5855 Y30.3973
G01 X18.2605 Y30.3973
G00 Z1.0000
G00 X17.5855 Y29.0043
G01 F80.00
G01 Z-0.0100
G01 F200.00
G01 X17.5855 Y29.0004
G01 X18.3894 Y29.0004
G01 X18.3894 Y29.1946
G01 X18.3855 Y29.1946
G01 X18.3855 Y29.1293
G01 X18.3853 Y29.1232
G01 X18.3841 Y29.1110
G01 X18.3818 Y29.0989
G01 X18.3782 Y29.0872
G01 X18.3760 Y29.0815
G01 X18.3707 Y29.0704
G01 X18.3644 Y29.0599
G01 X18.3571 Y29.0500
G01 X18.3489 Y29.0409
G01 X18.3398 Y29.0327
G01 X18.3299 Y29.0254
G01 X18.3194 Y29.0191
G01 X18.3139 Y29.0163
G01 X18.3026 Y29.0116
G01 X18.2909 Y29.0080
G01 X18.2788 Y29.0057
G01 X18.2728 Y29.0049
G01 X18.2605 Y29.0043
G01 X17.5855 Y29.0043
G00 Z1.0000
G00 X16.4571 Y29.0043
G01 F80.00
G01 Z-0.0100
G01 F200.00
G01 X16.4510 Y29.0045
G01 X16.4388 Y29.0057
G01 X16.4267 Y29.0080
G01 X16.4150 Y29.0116
G01 X16.4037 Y29.0163
G01 X16.3982 Y29.0191
G01 X16.3877 Y29.0254
G01 X16.3778 Y29.0327
G01 X16.3732 Y29.0367
G01 X16.3687 Y29.0409
G01 X16.3605 Y29.0500
G01 X16.3532 Y29.0599
G01 X16.3469 Y29.0704
G01 X16.3416 Y29.0815
G01 X16.3375 Y29.0930
G01 X16.3345 Y29.1049
G01 X16.3335 Y29.1110
G01 X16.3323 Y29.1232
G01 X16.3321 Y29.1946
G01 X16.3282 Y29.1946
G01 X16.3282 Y29.0004
G01 X17.1321 Y29.0004
G01 X17.1321 Y29.0043
G01 X16.4571 Y29.0043
G00 Z1.0000
G00 X16.3282 Y30.2070
G01 F80.00
G01 Z-0.0100
G01 F200.00
G01 X16.3321 Y30.2070
G01 X16.3321 Y30.2723
G01 X16.3323 Y30.2784
G01 X16.3335 Y30.2906
G01 X16.3358 Y30.3027
G01 X16.3394 Y30.3144
G01 X16.3441 Y30.3257
G01 X16.3469 Y30.3312
G01 X16.3532 Y30.3417
G01 X16.3605 Y30.3516
G01 X16.3687 Y30.3607
G01 X16.3732 Y30.3649
G01 X16.3826 Y30.3727
G01 X16.3928 Y30.3795
G01 X16.4037 Y30.3853
G01 X16.4150 Y30.3900
G01 X16.4267 Y30.3936
G01 X16.4388 Y30.3959
G01 X16.4448 Y30.3967
G01 X16.4571 Y30.3973
G01 X17.1321 Y30.3973
G01 X17.1321 Y30.4012
G01 X16.3282 Y30.4012
G01 X16.3282 Y30.2070
G00 Z1.0000
G00 X15.7205 Y30.3973
G01 F80.00
G01 Z-0.0100
G01 F200.00
G01 X15.7328 Y30.3967
G01 X15.7388 Y30.3959
G01 X15.7509 Y30.3936
G01 X15.7626 Y30.3900
G01 X15.7739 Y30.3853
G01 X15.7794 Y30.3825
G01 X15.7848 Y30.3795
G01 X15.7950 Y30.3727
G01 X15.8044 Y30.3649
G01 X15.8089 Y30.3607
G01 X15.8171 Y30.3516
G01 X15.8244 Y30.3417
G01 X15.8307 Y30.3312
G01 X15.8360 Y30.3201
G01 X15.8401 Y30.3086
G01 X15.8431 Y30.2967
G01 X15.8449 Y30.2846
G01 X15.8453 Y30.2784
G01 X15.8455 Y30.2070
G01 X15.8494 Y30.2070
G01 X15.8494 Y30.4012
G01 X15.0455 Y30.4012
G01 X15.0455 Y30.3973
G01 X15.7205 Y30.3973
G00 Z1.0000
G00 X15.0455 Y29.0043
G01 F80.00
G01 Z-0.0100
G01 F200.00
G01 X15.0455 Y29.0004
G01 X15.8494 Y29.0004
G01 X15.8494 Y29.1946
G01 X15.8455 Y29.1946
G01 X15.8455 Y29.1293
G01 X15.8453 Y29.1232
G01 X15.8441 Y29.1110
G01 X15.8418 Y29.0989
G01 X15.8401 Y29.0930
G01 X15.8360 Y29.0815
G01 X15.8307 Y29.0704
G01 X15.8277 Y29.0650
G01 X15.8209 Y29.0548
G01 X15.8131 Y29.0454
G01 X15.8044 Y29.0367
G01 X15.7950 Y29.0289
G01 X15.7848 Y29.0221
G01 X15.7739 Y29.0163
G01 X15.7626 Y29.0116
G01 X15.7509 Y29.0080
G01 X15.7388 Y29.0057
G01 X15.7328 Y29.0049
G01 X15.7205 Y29.0043
G01 X15.0455 Y29.0043
G00 Z1.0000
G00 X13.9171 Y29.0043
G01 F80.00
G01 Z-0.0100
G01 F200.00
G01 X13.9110 Y29.0045
G01 X13.8988 Y29.0057
G01 X13.8867 Y29.0080
G01 X13.8750 Y29.0116
G01 X13.8693 Y29.0138
G01 X13.8582 Y29.0191
G01 X13.8477 Y29.0254
G01 X13.8426 Y29.0289
G01 X13.8332 Y29.0367
G01 X13.8287 Y29.0409
G01 X13.8205 Y29.0500
G01 X13.8132 Y29.0599
G01 X13.8069 Y29.0704
G01 X13.8016 Y29.0815
G01 X13.7975 Y29.0930
G01 X13.7945 Y29.1049
G01 X13.7927 Y29.1170
G01 X13.7923 Y29.1232
G01 X13.7921 Y29.1946
G01 X13.7882 Y29.1946
G01 X13.7882 Y29.0004
G01 X14.5921 Y29.0004
G01 X14.5921 Y29.0043
G01 X13.9171 Y29.0043
G00 Z1.0000
G00 X13.7882 Y30.2070
G01 F80.00
G01 Z-0.0100
G01 F200.00
G01 X13.7921 Y30.2070
G01 X13.7921 Y30.2723
G01 X13.7923 Y30.2784
G01 X13.7935 Y30.2906
G01 X13.7958 Y30.3027
G01 X13.7975 Y30.3086
G01 X13.8016 Y30.3201
G01 X13.8069 Y30.3312
G01 X13.8132 Y30.3417
G01 X13.8205 Y30.3516
G01 X13.8287 Y30.3607
G01 X13.8378 Y30.3689
G01 X13.8477 Y30.3762
G01 X13.8528 Y30.3795
G01 X13.8637 Y30.3853
G01 X13.8750 Y30.3900
G01 X13.8867 Y30.3936
G01 X13.8988 Y30.3959
G01 X13.9048 Y30.3967
G01 X13.9171 Y30.3973
G01 X14.5921 Y30.3973
G01 X14.5921 Y30.4012
G01 X13.7882 Y30.4012
G01 X13.7882 Y30.2070
G00 Z1.0000
G00 X12.5055 Y30.3973
G01 F80.00
G01 Z-0.0100
G01 F200.00
G01 X13.1805 Y30.3973
G01 X13.1928 Y30.3967
G01 X13.1988 Y30.3959
G01 X13.2109 Y30.3936
G01 X13.2226 Y30.3900
G01 X13.2339 Y30.3853
G01 X13.2448 Y30.3795
G01 X13.2550 Y30.3727
G01 X13.2644 Y30.3649
G01 X13.2731 Y30.3562
G01 X13.2771 Y30.3516
G01 X13.2844 Y30.3417
G01 X13.2907 Y30.3312
G01 X13.2960 Y30.3201
G01 X13.3001 Y30.3086
G01 X13.3018 Y30.3027
G01 X13.3041 Y30.2906
G01 X13.3049 Y30.2846
G01 X13.3055 Y30.2723
G01 X13.3055 Y30.2070
G01 X13.3094 Y30.2070
G01 X13.3094 Y30.4012
G01 X12.5055 Y30.4012
G01 X12.5055 Y30.3973
G00 Z1.0000
G00 X11.2521 Y30.2070
G01 F80.00
G01 Z-0.0100
G01 F200.00
G01 X11.2521 Y30.2723
G01 X11.2527 Y30.2846
G01 X11.2545 Y30.2967
G01 X11.2575 Y30.3086
G01 X11.2616 Y30.3201
G01 X11.2669 Y30.3312
G01 X11.2732 Y30.3417
G01 X11.2805 Y30.3516
G01 X11.2887 Y30.3607
G01 X11.2978 Y30.3689
G01 X11.3026 Y30.3727
G01 X11.3128 Y30.3795
G01 X11.3237 Y30.3853
G01 X11.3350 Y30.3900
G01 X11.3467 Y30.3936
G01 X11.3527 Y30.3949
G01 X11.3648 Y30.3967
G01 X11.3771 Y30.3973
G01 X12.0521 Y30.3973
G01 X12.0521 Y30.4012
G01 X11.2482 Y30.4012
G01 X11.2482 Y30.2070
G01 X11.2521 Y30.2070
G00 Z1.0000
G00 X11.3771 Y29.0043
G01 F80.00
G01 Z-0.0100
G01 F200.00
G01 X11.3710 Y29.0045
G01 X11.3588 Y29.0057
G01 X11.3467 Y29.0080
G01 X11.3350 Y29.0116
G01 X11.3293 Y29.0138
G01 X11.3182 Y29.0191
G01 X11.3128 Y29.0221
G01 X11.3026 Y29.0289
G01 X11.2932 Y29.0367
G01 X11.2845 Y29.0454
G01 X11.2767 Y29.0548
G01 X11.2732 Y29.0599
G01 X11.2669 Y29.0704
G01 X11.2616 Y29.0815
G01 X11.2575 Y29.0930
G01 X11.2545 Y29.1049
G01 X11.2527 Y29.1170
G01 X11.2523 Y29.1232
G01 X11.2521 Y29.1946
G01 X11.2482 Y29.1946
G01 X11.2482 Y29.0004
G01 X12.0521 Y29.0004
G01 X12.0521 Y29.0043
G01 X11.3771 Y29.0043
G00 Z1.0000
G00 X12.5055 Y29.0043
G01 F80.00
G01 Z-0.0100
G01 F200.00
G01 X12.5055 Y29.0004
G01 X13.3094 Y29.0004
G01 X13.3094 Y29.1946
G01 X13.3055 Y29.1946
G01 X13.3055 Y29.1293
G01 X13.3053 Y29.1232
G01 X13.3041 Y29.1110
G01 X13.3018 Y29.0989
G01 X13.3001 Y29.0930
G01 X13.2960 Y29.0815
G01 X13.2907 Y29.0704
G01 X13.2844 Y29.0599
G01 X13.2771 Y29.0500
G01 X13.2689 Y29.0409
G01 X13.2598 Y29.0327
G01 X13.2550 Y29.0289
G01 X13.2448 Y29.0221
G01 X13.2339 Y29.0163
G01 X13.2226 Y29.0116
G01 X13.2109 Y29.0080
G01 X13.1988 Y29.0057
G01 X13.1928 Y29.0049
G01 X13.1805 Y29.0043
G01 X12.5055 Y29.0043
G00 Z1.0000
G00 X9.9655 Y29.0043
G01 F80.00
G01 Z-0.0100
G01 F200.00
G01 X9.9655 Y29.0004
G01 X10.7694 Y29.0004
G01 X10.7694 Y29.1946
G01 X10.7655 Y29.1946
G01 X10.7655 Y29.1293
G01 X10.7653 Y29.1232
G01 X10.7641 Y29.1110
G01 X10.7618 Y29.0989
G01 X10.7601 Y29.0930
G01 X10.7560 Y29.0815
G01 X10.7507 Y29.0704
G01 X10.7444 Y29.0599
G01 X10.7371 Y29.0500
G01 X10.7289 Y29.0409
G01 X10.7198 Y29.0327
G01 X10.7150 Y29.0289
G01 X10.7048 Y29.0221
G01 X10.6939 Y29.0163
G01 X10.6826 Y29.0116
G01 X10.6709 Y29.0080
G01 X10.6588 Y29.0057
G01 X10.6528 Y29.0049
G01 X10.6405 Y29.0043
G01 X9.9655 Y29.0043
G00 Z1.0000
G00 X8.7082 Y29.1946
G01 F80.00
G01 Z-0.0100
G01 F200.00
G01 X8.7082 Y29.0004
G01 X9.5121 Y29.0004
G01 X9.5121 Y29.0043
G01 X8.8371 Y29.0043
G01 X8.8310 Y29.0045
G01 X8.8188 Y29.0057
G01 X8.8067 Y29.0080
G01 X8.7950 Y29.0116
G01 X8.7893 Y29.0138
G01 X8.7782 Y29.0191
G01 X8.7677 Y29.0254
G01 X8.7578 Y29.0327
G01 X8.7487 Y29.0409
G01 X8.7405 Y29.0500
G01 X8.7332 Y29.0599
G01 X8.7269 Y29.0704
G01 X8.7241 Y29.0759
G01 X8.7194 Y29.0872
G01 X8.7158 Y29.0989
G01 X8.7135 Y29.1110
G01 X8.7127 Y29.1170
G01 X8.7121 Y29.1293
G01 X8.7121 Y29.1946
G01 X8.7082 Y29.1946
G00 Z1.0000
G00 X8.7082 Y30.2070
G01 F80.00
G01 Z-0.0100
G01 F200.00
G01 X8.7121 Y30.2070
G01 X8.7121 Y30.2723
G01 X8.7123 Y30.2784
G01 X8.7135 Y30.2906
G01 X8.7158 Y30.3027
G01 X8.7175 Y30.3086
G01 X8.7216 Y30.3201
G01 X8.7269 Y30.3312
G01 X8.7332 Y30.3417
G01 X8.7405 Y30.3516
G01 X8.7487 Y30.3607
G01 X8.7578 Y30.3689
G01 X8.7626 Y30.3727
G01 X8.7728 Y30.3795
G01 X8.7837 Y30.3853
G01 X8.7950 Y30.3900
G01 X8.8067 Y30.3936
G01 X8.8188 Y30.3959
G01 X8.8248 Y30.3967
G01 X8.8371 Y30.3973
G01 X9.5121 Y30.3973
G01 X9.5121 Y30.4012
G01 X8.7082 Y30.4012
G01 X8.7082 Y30.2070
G00 Z1.0000
G00 X9.9655 Y30.4012
G01 F80.00
G01 Z-0.0100
G01 F200.00
G01 X9.9655 Y30.3973
G01 X10.6405 Y30.3973
G01 X10.6528 Y30.3967
G01 X10.6588 Y30.3959
G01 X10.6709 Y30.3936
G01 X10.6826 Y30.3900
G01 X10.6939 Y30.3853
G01 X10.7048 Y30.3795
G01 X10.7150 Y30.3727
G01 X10.7244 Y30.3649
G01 X10.7289 Y30.3607
G01 X10.7371 Y30.3516
G01 X10.7444 Y30.3417
G01 X10.7507 Y30.3312
G01 X10.7535 Y30.3257
G01 X10.7582 Y30.3144
G01 X10.7618 Y30.3027
G01 X10.7641 Y30.2906
G01 X10.7649 Y30.2846
G01 X10.7655 Y30.2723
G01 X10.7655 Y30.2070
G01 X10.7694 Y30.2070
G01 X10.7694 Y30.4012
G01 X9.9655 Y30.4012
G00 Z1.0000
G00 X8.7121 Y27.2723
G01 F80.00
G01 Z-0.0100
G01 F200.00
G01 X8.7123 Y26.1232
G01 X8.7135 Y26.1110
G01 X8.7145 Y26.1049
G01 X8.7175 Y26.0930
G01 X8.7194 Y26.0872
G01 X8.7241 Y26.0759
G01 X8.7269 Y26.0704
G01 X8.7332 Y26.0599
G01 X8.7367 Y26.0548
G01 X8.7405 Y26.0500
G01 X8.7487 Y26.0409
G01 X8.7578 Y26.0327
G01 X8.7626 Y26.0289
G01 X8.7728 Y26.0221
G01 X8.7782 Y26.0191
G01 X8.7893 Y26.0138
G01 X8.7950 Y26.0116
G01 X8.8067 Y26.0080
G01 X8.8188 Y26.0057
G01 X8.8310 Y26.0045
G01 X8.8371 Y26.0043
G01 X10.6405 Y26.0043
G01 X10.6528 Y26.0049
G01 X10.6588 Y26.0057
G01 X10.6709 Y26.0080
G01 X10.6826 Y26.0116
G01 X10.6939 Y26.0163
G01 X10.7048 Y26.0221
G01 X10.7099 Y26.0254
G01 X10.7198 Y26.0327
G01 X10.7289 Y26.0409
G01 X10.7331 Y26.0454
G01 X10.7409 Y26.0548
G01 X10.7477 Y26.0650
G01 X10.7535 Y26.0759
G01 X10.7582 Y26.0872
G01 X10.7618 Y26.0989
G01 X10.7641 Y26.1110
G01 X10.7649 Y26.1170
G01 X10.7655 Y26.1293
G01 X10.7655 Y26.1946
G01 X11.2570 Y26.1946
G01 X11.2616 Y26.1815
G01 X11.2669 Y26.1704
G01 X11.2699 Y26.1650
G01 X11.2767 Y26.1548
G01 X11.2805 Y26.1500
G01 X11.2845 Y26.1454
G01 X11.2932 Y26.1367
G01 X11.3026 Y26.1289
G01 X11.3077 Y26.1254
G01 X11.3182 Y26.1191
G01 X11.3293 Y26.1138
G01 X11.3350 Y26.1116
G01 X11.3408 Y26.1097
G01 X11.3527 Y26.1067
G01 X11.3648 Y26.1049
G01 X11.3771 Y26.1043
G01 X11.7726 Y26.1043
G01 X11.7726 Y23.2218
G01 X11.2628 Y23.2218
G01 X11.2505 Y23.2212
G01 X11.2384 Y23.2194
G01 X11.2265 Y23.2164
G01 X11.2150 Y23.2123
G01 X11.2094 Y23.2098
G01 X11.1985 Y23.2040
G01 X11.1883 Y23.1972
G01 X11.1835 Y23.1934
G01 X11.1744 Y23.1852
G01 X11.1702 Y23.1807
G01 X11.1624 Y23.1713
G01 X11.1589 Y23.1662
G01 X11.1526 Y23.1557
G01 X11.1473 Y23.1446
G01 X11.1432 Y23.1331
G01 X11.1402 Y23.1212
G01 X11.1392 Y23.1151
G01 X11.1380 Y23.1029
G01 X11.1378 Y21.0648
G01 X11.1380 Y21.0587
G01 X11.1392 Y21.0465
G01 X11.1402 Y21.0404
G01 X11.1432 Y21.0285
G01 X11.1451 Y21.0227
G01 X11.1498 Y21.0114
G01 X11.1556 Y21.0005
G01 X11.1624 Y20.9903
G01 X11.1662 Y20.9855
G01 X11.1702 Y20.9809
G01 X11.1789 Y20.9722
G01 X11.1835 Y20.9682
G01 X11.1934 Y20.9609
G01 X11.2039 Y20.9546
G01 X11.2094 Y20.9518
G01 X11.2150 Y20.9493
G01 X11.2265 Y20.9452
G01 X11.2324 Y20.9435
G01 X11.2445 Y20.9412
G01 X11.2567 Y20.9400
G01 X11.2628 Y20.9398
G01 X11.7726 Y20.9398
G01 X11.7726 Y19.3273
G01 X11.3771 Y19.3273
G01 X11.3648 Y19.3267
G01 X11.3588 Y19.3259
G01 X11.3527 Y19.3249
G01 X11.3408 Y19.3219
G01 X11.3293 Y19.3178
G01 X11.3182 Y19.3125
G01 X11.3128 Y19.3095
G01 X11.3026 Y19.3027
G01 X11.2932 Y19.2949
G01 X11.2887 Y19.2907
G01 X11.2845 Y19.2862
G01 X11.2767 Y19.2768
G01 X11.2699 Y19.2666
G01 X11.2669 Y19.2612
G01 X11.2616 Y19.2501
G01 X11.2575 Y19.2386
G01 X11.2545 Y19.2267
G01 X11.2527 Y19.2146
G01 X11.2521 Y19.2023
G01 X11.2521 Y18.0593
G01 X11.2527 Y18.0470
G01 X11.2545 Y18.0349
G01 X11.2575 Y18.0230
G01 X11.2616 Y18.0115
G01 X11.2641 Y18.0059
G01 X11.2699 Y17.9950
G01 X11.2767 Y17.9848
G01 X11.2845 Y17.9754
G01 X11.2887 Y17.9709
G01 X11.2978 Y17.9627
G01 X11.3077 Y17.9554
G01 X11.3128 Y17.9521
G01 X11.3237 Y17.9463
G01 X11.3293 Y17.9438
G01 X11.3408 Y17.9397
G01 X11.3467 Y17.9380
G01 X11.3588 Y17.9357
G01 X11.3710 Y17.9345
G01 X13.1805 Y17.9343
G01 X13.1928 Y17.9349
G01 X13.2049 Y17.9367
G01 X13.2168 Y17.9397
G01 X13.2226 Y17.9416
G01 X13.2339 Y17.9463
G01 X13.2448 Y17.9521
G01 X13.2499 Y17.9554
G01 X13.2598 Y17.9627
G01 X13.2644 Y17.9667
G01 X13.2731 Y17.9754
G01 X13.2771 Y17.9800
G01 X13.2844 Y17.9899
G01 X13.2877 Y17.9950
G01 X13.2935 Y18.0059
G01 X13.2960 Y18.0115
G01 X13.3001 Y18.0230
G01 X13.3031 Y18.0349
G01 X13.3041 Y18.0410
G01 X13.3053 Y18.0532
G01 X13.3055 Y19.2023
G01 X13.3049 Y19.2146
G01 X13.3041 Y19.2206
G01 X13.3018 Y19.2327
G01 X13.2982 Y19.2444
G01 X13.2960 Y19.2501
G01 X13.2907 Y19.2612
G01 X13.2877 Y19.2666
G01 X13.2809 Y19.2768
G01 X13.2731 Y19.2862
G01 X13.2689 Y19.2907
G01 X13.2598 Y19.2989
G01 X13.2550 Y19.3027
G01 X13.2448 Y19.3095
G01 X13.2394 Y19.3125
G01 X13.2283 Y19.3178
G01 X13.2226 Y19.3200
G01 X13.2109 Y19.3236
G01 X13.2049 Y19.3249
G01 X13.1928 Y19.3267
G01 X13.1805 Y19.3273
G01 X12.7850 Y19.3273
G01 X12.7850 Y20.9398
G01 X13.2948 Y20.9398
G01 X13.3071 Y20.9404
G01 X13.3131 Y20.9412
G01 X13.3192 Y20.9422
G01 X13.3311 Y20.9452
G01 X13.3426 Y20.9493
G01 X13.3482 Y20.9518
G01 X13.3591 Y20.9576
G01 X13.3642 Y20.9609
G01 X13.3741 Y20.9682
G01 X13.3787 Y20.9722
G01 X13.3832 Y20.9764
G01 X13.3914 Y20.9855
G01 X13.3987 Y20.9954
G01 X13.4050 Y21.0059
G01 X13.4078 Y21.0114
G01 X13.4125 Y21.0227
G01 X13.4144 Y21.0285
G01 X13.4174 Y21.0404
G01 X13.4184 Y21.0465
G01 X13.4196 Y21.0587
G01 X13.4198 Y21.0648
G01 X13.4196 Y23.1029
G01 X13.4184 Y23.1151
G01 X13.4174 Y23.1212
G01 X13.4144 Y23.1331
G01 X13.4125 Y23.1389
G01 X13.4078 Y23.1502
G01 X13.4050 Y23.1557
G01 X13.3987 Y23.1662
G01 X13.3914 Y23.1761
G01 X13.3874 Y23.1807
G01 X13.3787 Y23.1894
G01 X13.3693 Y23.1972
G01 X13.3591 Y23.2040
G01 X13.3537 Y23.2070
G01 X13.3426 Y23.2123
G01 X13.3311 Y23.2164
G01 X13.3192 Y23.2194
G01 X13.3071 Y23.2212
G01 X13.2948 Y23.2218
G01 X12.7850 Y23.2218
G01 X12.7850 Y26.1043
G01 X13.1805 Y26.1043
G01 X13.1928 Y26.1049
G01 X13.1988 Y26.1057
G01 X13.2049 Y26.1067
G01 X13.2168 Y26.1097
G01 X13.2283 Y26.1138
G01 X13.2394 Y26.1191
G01 X13.2448 Y26.1221
G01 X13.2550 Y26.1289
G01 X13.2598 Y26.1327
G01 X13.2644 Y26.1367
G01 X13.2731 Y26.1454
G01 X13.2809 Y26.1548
G01 X13.2877 Y26.1650
G01 X13.2907 Y26.1704
G01 X13.2935 Y26.1759
G01 X13.2982 Y26.1872
G01 X13.3018 Y26.1989
G01 X13.3031 Y26.2049
G01 X13.3049 Y26.2170
G01 X13.3055 Y26.2293
G01 X13.3055 Y27.3723
G01 X13.3049 Y27.3846
G01 X13.3041 Y27.3906
G01 X13.3018 Y27.4027
G01 X13.2982 Y27.4144
G01 X13.2935 Y27.4257
G01 X13.2907 Y27.4312
G01 X13.2844 Y27.4417
G01 X13.2771 Y27.4516
G01 X13.2689 Y27.4607
G01 X13.2644 Y27.4649
G01 X13.2550 Y27.4727
G01 X13.2499 Y27.4762
G01 X13.2448 Y27.4795
G01 X13.2339 Y27.4853
G01 X13.2283 Y27.4878
G01 X13.2168 Y27.4919
G01 X13.2049 Y27.4949
G01 X13.1988 Y27.4959
G01 X13.1866 Y27.4971
G01 X11.3771 Y27.4973
G01 X11.3648 Y27.4967
G01 X11.3588 Y27.4959
G01 X11.3467 Y27.4936
G01 X11.3408 Y27.4919
G01 X11.3293 Y27.4878
G01 X11.3182 Y27.4825
G01 X11.3128 Y27.4795
G01 X11.3026 Y27.4727
G01 X11.2978 Y27.4689
G01 X11.2887 Y27.4607
G01 X11.2845 Y27.4562
G01 X11.2767 Y27.4468
G01 X11.2732 Y27.4417
G01 X11.2669 Y27.4312
G01 X11.2616 Y27.4201
G01 X11.2575 Y27.4086
G01 X11.2558 Y27.4027
G01 X11.2535 Y27.3906
G01 X11.2523 Y27.3784
G01 X11.2521 Y27.2070
G01 X10.7655 Y27.2070
G01 X10.7655 Y27.2723
G01 X10.7649 Y27.2846
G01 X10.7641 Y27.2906
G01 X10.7618 Y27.3027
G01 X10.7582 Y27.3144
G01 X10.7535 Y27.3257
G01 X10.7477 Y27.3366
G01 X10.7409 Y27.3468
G01 X10.7371 Y27.3516
G01 X10.7289 Y27.3607
G01 X10.7244 Y27.3649
G01 X10.7150 Y27.3727
G01 X10.7048 Y27.3795
G01 X10.6994 Y27.3825
G01 X10.6883 Y27.3878
G01 X10.6768 Y27.3919
G01 X10.6649 Y27.3949
G01 X10.6528 Y27.3967
G01 X10.6466 Y27.3971
G01 X8.8310 Y27.3971
G01 X8.8188 Y27.3959
G01 X8.8067 Y27.3936
G01 X8.7950 Y27.3900
G01 X8.7837 Y27.3853
G01 X8.7728 Y27.3795
G01 X8.7626 Y27.3727
G01 X8.7532 Y27.3649
G01 X8.7445 Y27.3562
G01 X8.7367 Y27.3468
G01 X8.7299 Y27.3366
G01 X8.7241 Y27.3257
G01 X8.7194 Y27.3144
G01 X8.7175 Y27.3086
G01 X8.7145 Y27.2967
G01 X8.7127 Y27.2846
G01 X8.7121 Y27.2723
G00 Z1.0000
G00 X6.0578 Y23.0968
G01 F80.00
G01 Z-0.0100
G01 F200.00
G01 X6.0584 Y23.1091
G01 X6.0602 Y23.1212
G01 X6.0632 Y23.1331
G01 X6.0651 Y23.1389
G01 X6.0698 Y23.1502
G01 X6.0756 Y23.1611
G01 X6.0789 Y23.1662
G01 X6.0862 Y23.1761
G01 X6.0944 Y23.1852
G01 X6.1035 Y23.1934
G01 X6.1083 Y23.1972
G01 X6.1185 Y23.2040
G01 X6.1294 Y23.2098
G01 X6.1407 Y23.2145
G01 X6.1524 Y23.2181
G01 X6.1584 Y23.2194
G01 X6.1705 Y23.2212
G01 X6.1828 Y23.2218
G01 X6.6926 Y23.2218
G01 X6.6926 Y23.2257
G01 X6.0539 Y23.2257
G01 X6.0539 Y22.5870
G01 X6.0578 Y22.5870
G01 X6.0578 Y23.0968
G00 Z1.0000
G00 X6.1828 Y20.9398
G01 F80.00
G01 Z-0.0100
G01 F200.00
G01 X6.1705 Y20.9404
G01 X6.1645 Y20.9412
G01 X6.1524 Y20.9435
G01 X6.1407 Y20.9471
G01 X6.1294 Y20.9518
G01 X6.1185 Y20.9576
G01 X6.1134 Y20.9609
G01 X6.1035 Y20.9682
G01 X6.0989 Y20.9722
G01 X6.0902 Y20.9809
G01 X6.0824 Y20.9903
G01 X6.0756 Y21.0005
G01 X6.0726 Y21.0059
G01 X6.0673 Y21.0170
G01 X6.0632 Y21.0285
G01 X6.0602 Y21.0404
G01 X6.0584 Y21.0525
G01 X6.0578 Y21.0648
G01 X6.0578 Y21.5746
G01 X6.0539 Y21.5746
G01 X6.0539 Y20.9359
G01 X6.9721 Y20.9359
G01 X6.9721 Y20.9398
G01 X6.1828 Y20.9398
G00 Z1.0000
G00 X5.6899 Y19.3532
G01 F80.00
G01 Z-0.0100
G01 F200.00
G01 X5.6894 Y19.3674
G01 X5.6894 Y19.4312
G01 X3.6282 Y19.4312
G01 X3.6282 Y18.0304
G01 X5.7349 Y18.0304
G01 X5.7429 Y18.0403
G01 X5.7537 Y18.0523
G01 X5.7616 Y18.0601
G01 X5.7747 Y18.0713
G01 X5.7836 Y18.0781
G01 X5.7970 Y18.0870
G01 X5.8120 Y18.0955
G01 X5.8265 Y18.1024
G01 X5.8369 Y18.1065
G01 X5.8532 Y18.1120
G01 X5.8689 Y18.1159
G01 X5.8798 Y18.1179
G01 X5.8908 Y18.1194
G01 X5.9080 Y18.1207
G01 X5.9446 Y18.1208
G01 X5.9557 Y18.1204
G01 X5.9668 Y18.1194
G01 X5.9778 Y18.1179
G01 X5.9887 Y18.1159
G01 X6.0044 Y18.1120
G01 X6.0150 Y18.1086
G01 X6.0254 Y18.1047
G01 X6.0356 Y18.1004
G01 X6.0456 Y18.0955
G01 X6.0606 Y18.0870
G01 X6.0700 Y18.0809
G01 X6.0790 Y18.0744
G01 X6.0914 Y18.0642
G01 X6.1039 Y18.0523
G01 X6.1115 Y18.0441
G01 X6.1186 Y18.0356
G01 X6.1282 Y18.0227
G01 X6.1343 Y18.0133
G01 X6.1399 Y18.0037
G01 X6.1451 Y17.9939
G01 X6.1497 Y17.9838
G01 X6.1559 Y17.9677
G01 X6.1593 Y17.9571
G01 X6.1621 Y17.9463
G01 X6.1652 Y17.9304
G01 X8.2324 Y17.9304
G01 X8.2355 Y17.9463
G01 X8.2383 Y17.9571
G01 X8.2417 Y17.9677
G01 X8.2456 Y17.9781
G01 X8.2499 Y17.9883
G01 X8.2548 Y17.9983
G01 X8.2601 Y18.0081
G01 X8.2660 Y18.0176
G01 X8.2722 Y18.0267
G01 X8.2790 Y18.0356
G01 X8.2861 Y18.0441
G01 X8.2937 Y18.0523
G01 X8.3016 Y18.0601
G01 X8.3100 Y18.0674
G01 X8.3186 Y18.0744
G01 X8.3327 Y18.0843
G01 X8.3422 Y18.0902
G01 X8.3520 Y18.0955
G01 X8.3620 Y18.1004
G01 X8.3722 Y18.1047
G01 X8.3826 Y18.1086
G01 X8.3932 Y18.1120
G01 X8.4040 Y18.1148
G01 X8.4149 Y18.1171
G01 X8.4259 Y18.1188
G01 X8.4369 Y18.1200
G01 X8.4530 Y18.1208
G01 X8.4846 Y18.1208
G01 X8.4957 Y18.1204
G01 X8.5068 Y18.1194
G01 X8.5178 Y18.1179
G01 X8.5287 Y18.1159
G01 X8.5444 Y18.1120
