(G-CODE GENERATED BY FLATCAM v8.991 - www.flatcam.org - Version Date: 2019/12/27)

(Name: Achizitie_Semnale - CADCAM Mechanical 1.GBR_iso_cnc)
(Type: G-code from Geometry)
(Units: MM)

(Created on Friday, 26 February 2021 at 20:31)

(TOOL DIAMETER: 0.25 mm)
(Feedrate: 180.0 mm/min)
(Feedrate_Z: 80.0 mm/min)
(Feedrate rapids 79.9998 mm/min)

(Z_Cut: -0.01 mm)
(Z_Move: 0.8 mm)
(Z Toolchange: 12.7 mm)
(X,Y Toolchange: 0.0000, 0.0000 mm)
(Z Start: None mm)
(Z End: 5.0 mm)
(Steps per circle: 128)
(Preprocessor Geometry: default)

(X range:    0.7093 ...   67.3723  mm)
(Y range:    0.3861 ...   34.4691  mm)

(Spindle Speed: None RPM)
G21
G90
G94




G01 F180.00
G00 Z0.8000

M03
G00 X0.7094 Y0.6097
G01 F80.00
G01 Z-0.0100
G01 F180.00
G01 X0.7098 Y0.5986
G01 X0.7108 Y0.5875
G01 X0.7123 Y0.5765
G01 X0.7143 Y0.5656
G01 X0.7169 Y0.5548
G01 X0.7200 Y0.5441
G01 X0.7237 Y0.5336
G01 X0.7278 Y0.5232
G01 X0.7325 Y0.5131
G01 X0.7376 Y0.5033
G01 X0.7432 Y0.4937
G01 X0.7493 Y0.4843
G01 X0.7558 Y0.4753
G01 X0.7628 Y0.4667
G01 X0.7702 Y0.4583
G01 X0.7779 Y0.4504
G01 X0.7861 Y0.4428
G01 X0.7946 Y0.4357
G01 X0.8035 Y0.4290
G01 X0.8127 Y0.4227
G01 X0.8221 Y0.4169
G01 X0.8319 Y0.4115
G01 X0.8419 Y0.4066
G01 X0.8521 Y0.4023
G01 X0.8625 Y0.3984
G01 X0.8732 Y0.3951
G01 X0.8839 Y0.3922
G01 X0.8948 Y0.3899
G01 X0.9058 Y0.3882
G01 X0.9168 Y0.3870
G01 X0.9360 Y0.3861
G01 X67.1456 Y0.3861
G01 X67.1598 Y0.3866
G01 X67.1709 Y0.3876
G01 X67.1868 Y0.3899
G01 X67.1977 Y0.3922
G01 X67.2143 Y0.3968
G01 X67.2248 Y0.4005
G01 X67.2397 Y0.4066
G01 X67.2497 Y0.4115
G01 X67.2647 Y0.4200
G01 X67.2741 Y0.4261
G01 X67.2870 Y0.4357
G01 X67.3001 Y0.4470
G01 X67.3080 Y0.4547
G01 X67.3188 Y0.4667
G01 X67.3294 Y0.4803
G01 X67.3384 Y0.4937
G01 X67.3440 Y0.5033
G01 X67.3518 Y0.5187
G01 X67.3579 Y0.5336
G01 X67.3633 Y0.5500
G01 X67.3673 Y0.5656
G01 X67.3702 Y0.5826
G01 X67.3718 Y0.5986
G01 X67.3723 Y0.6128
G01 X67.3723 Y34.2424
G01 X67.3718 Y34.2566
G01 X67.3708 Y34.2677
G01 X67.3693 Y34.2787
G01 X67.3662 Y34.2945
G01 X67.3616 Y34.3111
G01 X67.3579 Y34.3216
G01 X67.3518 Y34.3365
G01 X67.3469 Y34.3465
G01 X67.3384 Y34.3615
G01 X67.3294 Y34.3749
G01 X67.3188 Y34.3885
G01 X67.3114 Y34.3969
G01 X67.3037 Y34.4048
G01 X67.2917 Y34.4156
G01 X67.2781 Y34.4262
G01 X67.2647 Y34.4352
G01 X67.2497 Y34.4437
G01 X67.2397 Y34.4486
G01 X67.2248 Y34.4547
G01 X67.2084 Y34.4601
G01 X67.1928 Y34.4641
G01 X67.1758 Y34.4670
G01 X67.1598 Y34.4686
G01 X67.1456 Y34.4691
G01 X0.9360 Y34.4691
G01 X0.9218 Y34.4686
G01 X0.9107 Y34.4676
G01 X0.8948 Y34.4653
G01 X0.8839 Y34.4630
G01 X0.8673 Y34.4584
G01 X0.8568 Y34.4547
G01 X0.8464 Y34.4506
G01 X0.8319 Y34.4437
G01 X0.8169 Y34.4352
G01 X0.8075 Y34.4291
G01 X0.7946 Y34.4195
G01 X0.7815 Y34.4082
G01 X0.7702 Y34.3969
G01 X0.7628 Y34.3885
G01 X0.7522 Y34.3749
G01 X0.7432 Y34.3615
G01 X0.7347 Y34.3465
G01 X0.7278 Y34.3320
G01 X0.7216 Y34.3159
G01 X0.7183 Y34.3052
G01 X0.7143 Y34.2896
G01 X0.7114 Y34.2726
G01 X0.7098 Y34.2566
G01 X0.7093 Y34.2424
G01 X0.7094 Y0.6097
G00 Z0.8000
G00 X1.1627 Y0.8395
G01 F80.00
G01 Z-0.0100
G01 F180.00
G01 X66.9189 Y0.8395
G01 X66.9189 Y34.0157
G01 X1.1627 Y34.0157
G01 X1.1627 Y0.8395
G00 Z0.8000
M05
G00 Z0.8000
G00 Z5.00
G00 X0.0 Y0.0

