(G-CODE GENERATED BY FLATCAM v8.991 - www.flatcam.org - Version Date: 2019/12/27)

(Name: dr)
(Type: G-code from Excellon)
(Units: MM)

(Created on Saturday, 27 February 2021 at 19:16)

(Feedrate: 80.0 mm/min)
(Feedrate rapids 800.0009 mm/min)

(Z_Cut: -0.02 mm)
(Z_Move: 1.0 mm)
(Z Toolchange: 12.7 mm)
(X,Y Toolchange: 0.0000, 0.0000 mm)
(Z Start: None mm)
(Z End: 5.0 mm)
(Steps per circle: 128)
(Preprocessor Excellon: default)

(X range:    4.1508 ...   43.5208  mm)
(Y range:    4.0468 ...   27.6688  mm)

(Spindle Speed: None RPM)
G21
G90
G94




G01 F80.00
G00 Z1.0000

M03
G00 X28.7888 Y11.9208
G01 Z-0.0200
G01 Z0
G00 Z1.0000
G00 X28.7888 Y4.3008
G01 Z-0.0200
G01 Z0
G00 Z1.0000
M03
G00 X9.7388 Y5.5708
G01 Z-0.0200
G01 Z0
G00 Z1.0000
G00 X7.1988 Y5.5708
G01 Z-0.0200
G01 Z0
G00 Z1.0000
G00 X4.6588 Y5.5708
G01 Z-0.0200
G01 Z0
G00 Z1.0000
G00 X7.1988 Y22.0808
G01 Z-0.0200
G01 Z0
G00 Z1.0000
G00 X9.7388 Y22.0808
G01 Z-0.0200
G01 Z0
G00 Z1.0000
G00 X12.2788 Y22.0808
G01 Z-0.0200
G01 Z0
G00 Z1.0000
G00 X14.8188 Y22.0808
G01 Z-0.0200
G01 Z0
G00 Z1.0000
G00 X17.3588 Y22.0808
G01 Z-0.0200
G01 Z0
G00 Z1.0000
G00 X19.8988 Y22.0808
G01 Z-0.0200
G01 Z0
G00 Z1.0000
G00 X28.7888 Y27.1608
G01 Z-0.0200
G01 Z0
G00 Z1.0000
G00 X31.3288 Y27.1608
G01 Z-0.0200
G01 Z0
G00 Z1.0000
G00 X17.3588 Y5.5708
G01 Z-0.0200
G01 Z0
G00 Z1.0000
G00 X14.8188 Y5.5708
G01 Z-0.0200
G01 Z0
G00 Z1.0000
G00 X12.2788 Y5.5708
G01 Z-0.0200
G01 Z0
G00 Z1.0000
M03
G00 X42.7588 Y19.5408
G01 Z-0.0200
G01 Z0
G00 Z1.0000
G00 X42.7588 Y24.5408
G01 Z-0.0200
G01 Z0
G00 Z1.0000
G00 X42.7588 Y11.9208
G01 Z-0.0200
G01 Z0
G00 Z1.0000
G00 X42.7588 Y5.5708
G01 Z-0.0200
G01 Z0
G00 Z1.0000
M05
G00 Z5.00
G00 X0.0 Y0.0

